%
(CONNECTOR_V1_2)
(T1 D=3. CR=0. - ZMIN=-11. - FLAT END MILL)
N10 G90 G94 G17 G91.1
N15 G21
N20 G53 G0 Z0.
(2D POCKET1)
N25 T1 M6
N30 S5000 M3
N35 G17 G90 G94
N40 G54
N45 G64 P0.1 Q0.1
N50 G0 X48.815 Y45.334
N55 G43 Z15. H1
N60 G0 Z5.
N65 G1 Z2.8 F333.33
N70 X48.835 Y45.358 Z2.666
N75 X48.89 Y45.427 Z2.561
N80 X48.937 Y45.493 Z2.517
N85 X48.984 Y45.569 Z2.5
N90 G3 X46.516 Y46.994 Z2.35 I-1.234 J0.712
N95 X48.984 Y45.569 Z2.2 I1.234 J-0.712
N100 X46.516 Y46.994 Z2.05 I-1.234 J0.712
N105 X48.984 Y45.569 Z1.9 I1.234 J-0.712
N110 X46.516 Y46.994 Z1.75 I-1.234 J0.712
N115 X48.984 Y45.569 Z1.6 I1.234 J-0.712
N120 X46.516 Y46.994 Z1.45 I-1.234 J0.712
N125 X48.984 Y45.569 Z1.3 I1.234 J-0.712
N130 X46.516 Y46.994 Z1.15 I-1.234 J0.712
N135 X48.984 Y45.569 Z1. I1.234 J-0.712
N140 X46.516 Y46.994 Z0.85 I-1.234 J0.712
N145 X48.984 Y45.569 Z0.7 I1.234 J-0.712
N150 X46.516 Y46.994 Z0.55 I-1.234 J0.712
N155 X48.984 Y45.569 Z0.4 I1.234 J-0.712
N160 X46.516 Y46.994 Z0.25 I-1.234 J0.712
N165 X48.984 Y45.569 Z0.1 I1.234 J-0.712
N170 X46.516 Y46.994 Z-0.05 I-1.234 J0.712
N175 X48.984 Y45.569 Z-0.2 I1.234 J-0.712
N180 X47.75 Y47.707 Z-0.3 I-1.234 J0.712
N185 G1 X47.547 Y47.705 F1000.
N190 X47.445 Y47.7
N195 X47.344 Y47.688
N200 X47.311 Y47.676
N205 X47.284 Y47.653
N210 X47.267 Y47.621
N215 X47.263 Y47.586
N220 X47.272 Y47.551
N225 X47.294 Y47.522
N230 X47.324 Y47.503
N235 X47.359 Y47.497
N240 X48.141
N245 X48.176 Y47.503
N250 X48.206 Y47.522
N255 X48.228 Y47.551
N260 X48.237 Y47.586
N265 X48.233 Y47.621
N270 X48.216 Y47.653
N275 X48.189 Y47.676
N280 X48.156 Y47.688
N285 X48.055 Y47.7
N290 X47.953 Y47.705
N295 X47.75 Y47.707
N300 G2 X46.67 Y48.346 I0. J1.232
N305 G3 X45.456 Y48.667 I-0.759 J-0.417
N310 X45.127 Y48.443 I2.294 J-3.727
N315 X43.582 Y46.15 I2.52 J-3.366
N320 X43.809 Y45.855 I0.227 J-0.06
N325 G1 X51.691
N330 G3 X51.918 Y46.15 I0. J0.235
N335 X50.373 Y48.443 I-4.065 J-1.073
N340 X45.456 Y48.667 I-2.623 J-3.503
N345 G2 X44.088 Y48.659 I-0.691 J1.123
N350 G3 X42.752 Y48.361 I-0.511 J-0.853
N355 X41.77 Y44.438 I4.931 J-3.318
N360 X42.084 Y44.155 I0.314 J0.032
N365 G1 X53.416
N370 G3 X53.73 Y44.438 I0. J0.315
N375 X52.201 Y49.056 I-5.912 J0.605
N380 X43.299 I-4.451 J-4.074
N385 X42.752 Y48.361 I4.384 J-4.013
N390 G2 X41.476 Y47.786 I-1.101 J0.741
N395 G3 X40.312 Y47.01 I-0.14 J-1.051
N400 X40.39 Y42.751 I7.438 J-1.994
N405 X40.793 Y42.455 I0.403 J0.126
N410 G1 X54.707
N415 G3 X55.11 Y42.751 I0. J0.422
N420 X47.75 Y52.716 I-7.327 J2.288
N425 X40.312 Y47.01 I0. J-7.701
N430 G2 X39.262 Y46.037 I-1.298 J0.348
N435 G3 X38.353 Y44.931 I0.206 J-1.096
N440 X39.217 Y41.081 I9.397 J0.088
N445 X39.729 Y40.755 I0.512 J0.238
N450 G1 X55.771
N455 G3 X56.283 Y41.081 I0. J0.565
N460 X47.75 Y54.416 I-8.505 J3.955
N465 X38.353 Y44.931 I0. J-9.398
N470 G2 X37.583 Y43.688 I-1.366 J-0.013
N475 G3 X36.963 Y42.364 I0.506 J-1.044
N480 X38.392 Y39.05 I10.787 J2.686
N485 G1 X57.108
N490 G3 X38.392 Y51.05 I-9.358 J6.
N495 X36.963 Y42.364 I9.358 J-6.
N500 X38.852 Y41.377 Z-0.344 I1.383 J0.344 F333.33
N505 G1 X48.256 Y44.949 Z-0.528
N510 G3 X47.75 Y47.707 Z-0.6 I-0.506 J1.332
N515 G1 X47.547 Y47.705 F1000.
N520 X47.445 Y47.7
N525 X47.344 Y47.688
N530 X47.311 Y47.676
N535 X47.284 Y47.653
N540 X47.267 Y47.621
N545 X47.263 Y47.586
N550 X47.272 Y47.551
N555 X47.294 Y47.522
N560 X47.324 Y47.503
N565 X47.359 Y47.497
N570 X48.141
N575 X48.176 Y47.503
N580 X48.206 Y47.522
N585 X48.228 Y47.551
N590 X48.237 Y47.586
N595 X48.233 Y47.621
N600 X48.216 Y47.653
N605 X48.189 Y47.676
N610 X48.156 Y47.688
N615 X48.055 Y47.7
N620 X47.953 Y47.705
N625 X47.75 Y47.707
N630 G2 X46.67 Y48.346 I0. J1.232
N635 G3 X45.456 Y48.667 I-0.759 J-0.417
N640 X45.127 Y48.443 I2.294 J-3.727
N645 X43.582 Y46.15 I2.52 J-3.366
N650 X43.809 Y45.855 I0.227 J-0.06
N655 G1 X51.691
N660 G3 X51.918 Y46.15 I0. J0.235
N665 X50.373 Y48.443 I-4.065 J-1.073
N670 X45.456 Y48.667 I-2.623 J-3.503
N675 G2 X44.088 Y48.659 I-0.691 J1.123
N680 G3 X42.752 Y48.361 I-0.511 J-0.853
N685 X41.77 Y44.438 I4.931 J-3.318
N690 X42.084 Y44.155 I0.314 J0.032
N695 G1 X53.416
N700 G3 X53.73 Y44.438 I0. J0.315
N705 X52.201 Y49.056 I-5.912 J0.605
N710 X43.299 I-4.451 J-4.074
N715 X42.752 Y48.361 I4.384 J-4.013
N720 G2 X41.476 Y47.786 I-1.101 J0.741
N725 G3 X40.312 Y47.01 I-0.14 J-1.051
N730 X40.39 Y42.751 I7.438 J-1.994
N735 X40.793 Y42.455 I0.403 J0.126
N740 G1 X54.707
N745 G3 X55.11 Y42.751 I0. J0.422
N750 X47.75 Y52.716 I-7.327 J2.288
N755 X40.312 Y47.01 I0. J-7.701
N760 G2 X39.262 Y46.037 I-1.298 J0.348
N765 G3 X38.353 Y44.931 I0.206 J-1.096
N770 X39.217 Y41.081 I9.397 J0.088
N775 X39.729 Y40.755 I0.512 J0.238
N780 G1 X55.771
N785 G3 X56.283 Y41.081 I0. J0.565
N790 X47.75 Y54.416 I-8.505 J3.955
N795 X38.353 Y44.931 I0. J-9.398
N800 G2 X37.583 Y43.688 I-1.366 J-0.013
N805 G3 X36.963 Y42.364 I0.506 J-1.044
N810 X38.392 Y39.05 I10.787 J2.686
N815 G1 X57.108
N820 G3 X38.392 Y51.05 I-9.358 J6.
N825 X36.963 Y42.364 I9.358 J-6.
N830 X38.852 Y41.377 Z-0.644 I1.383 J0.344 F333.33
N835 G1 X48.256 Y44.949 Z-0.828
N840 G3 X47.75 Y47.707 Z-0.9 I-0.506 J1.332
N845 G1 X47.547 Y47.705 F1000.
N850 X47.445 Y47.7
N855 X47.344 Y47.688
N860 X47.311 Y47.676
N865 X47.284 Y47.653
N870 X47.267 Y47.621
N875 X47.263 Y47.586
N880 X47.272 Y47.551
N885 X47.294 Y47.522
N890 X47.324 Y47.503
N895 X47.359 Y47.497
N900 X48.141
N905 X48.176 Y47.503
N910 X48.206 Y47.522
N915 X48.228 Y47.551
N920 X48.237 Y47.586
N925 X48.233 Y47.621
N930 X48.216 Y47.653
N935 X48.189 Y47.676
N940 X48.156 Y47.688
N945 X48.055 Y47.7
N950 X47.953 Y47.705
N955 X47.75 Y47.707
N960 G2 X46.67 Y48.346 I0. J1.232
N965 G3 X45.456 Y48.667 I-0.759 J-0.417
N970 X45.127 Y48.443 I2.294 J-3.727
N975 X43.582 Y46.15 I2.52 J-3.366
N980 X43.809 Y45.855 I0.227 J-0.06
N985 G1 X51.691
N990 G3 X51.918 Y46.15 I0. J0.235
N995 X50.373 Y48.443 I-4.065 J-1.073
N1000 X45.456 Y48.667 I-2.623 J-3.503
N1005 G2 X44.088 Y48.659 I-0.691 J1.123
N1010 G3 X42.752 Y48.361 I-0.511 J-0.853
N1015 X41.77 Y44.438 I4.931 J-3.318
N1020 X42.084 Y44.155 I0.314 J0.032
N1025 G1 X53.416
N1030 G3 X53.73 Y44.438 I0. J0.315
N1035 X52.201 Y49.056 I-5.912 J0.605
N1040 X43.299 I-4.451 J-4.074
N1045 X42.752 Y48.361 I4.384 J-4.013
N1050 G2 X41.476 Y47.786 I-1.101 J0.741
N1055 G3 X40.312 Y47.01 I-0.14 J-1.051
N1060 X40.39 Y42.751 I7.438 J-1.994
N1065 X40.793 Y42.455 I0.403 J0.126
N1070 G1 X54.707
N1075 G3 X55.11 Y42.751 I0. J0.422
N1080 X47.75 Y52.716 I-7.327 J2.288
N1085 X40.312 Y47.01 I0. J-7.701
N1090 G2 X39.262 Y46.037 I-1.298 J0.348
N1095 G3 X38.353 Y44.931 I0.206 J-1.096
N1100 X39.217 Y41.081 I9.397 J0.088
N1105 X39.729 Y40.755 I0.512 J0.238
N1110 G1 X55.771
N1115 G3 X56.283 Y41.081 I0. J0.565
N1120 X47.75 Y54.416 I-8.505 J3.955
N1125 X38.353 Y44.931 I0. J-9.398
N1130 G2 X37.583 Y43.688 I-1.366 J-0.013
N1135 G3 X36.963 Y42.364 I0.506 J-1.044
N1140 X38.392 Y39.05 I10.787 J2.686
N1145 G1 X57.108
N1150 G3 X38.392 Y51.05 I-9.358 J6.
N1155 X36.963 Y42.364 I9.358 J-6.
N1160 X38.852 Y41.377 Z-0.944 I1.383 J0.344 F333.33
N1165 G1 X48.256 Y44.949 Z-1.128
N1170 G3 X47.75 Y47.707 Z-1.2 I-0.506 J1.332
N1175 G1 X47.547 Y47.705 F1000.
N1180 X47.445 Y47.7
N1185 X47.344 Y47.688
N1190 X47.311 Y47.676
N1195 X47.284 Y47.653
N1200 X47.267 Y47.621
N1205 X47.263 Y47.586
N1210 X47.272 Y47.551
N1215 X47.294 Y47.522
N1220 X47.324 Y47.503
N1225 X47.359 Y47.497
N1230 X48.141
N1235 X48.176 Y47.503
N1240 X48.206 Y47.522
N1245 X48.228 Y47.551
N1250 X48.237 Y47.586
N1255 X48.233 Y47.621
N1260 X48.216 Y47.653
N1265 X48.189 Y47.676
N1270 X48.156 Y47.688
N1275 X48.055 Y47.7
N1280 X47.953 Y47.705
N1285 X47.75 Y47.707
N1290 G2 X46.67 Y48.346 I0. J1.232
N1295 G3 X45.456 Y48.667 I-0.759 J-0.417
N1300 X45.127 Y48.443 I2.294 J-3.727
N1305 X43.582 Y46.15 I2.52 J-3.366
N1310 X43.809 Y45.855 I0.227 J-0.06
N1315 G1 X51.691
N1320 G3 X51.918 Y46.15 I0. J0.235
N1325 X50.373 Y48.443 I-4.065 J-1.073
N1330 X45.456 Y48.667 I-2.623 J-3.503
N1335 G2 X44.088 Y48.659 I-0.691 J1.123
N1340 G3 X42.752 Y48.361 I-0.511 J-0.853
N1345 X41.77 Y44.438 I4.931 J-3.318
N1350 X42.084 Y44.155 I0.314 J0.032
N1355 G1 X53.416
N1360 G3 X53.73 Y44.438 I0. J0.315
N1365 X52.201 Y49.056 I-5.912 J0.605
N1370 X43.299 I-4.451 J-4.074
N1375 X42.752 Y48.361 I4.384 J-4.013
N1380 G2 X41.476 Y47.786 I-1.101 J0.741
N1385 G3 X40.312 Y47.01 I-0.14 J-1.051
N1390 X40.39 Y42.751 I7.438 J-1.994
N1395 X40.793 Y42.455 I0.403 J0.126
N1400 G1 X54.707
N1405 G3 X55.11 Y42.751 I0. J0.422
N1410 X47.75 Y52.716 I-7.327 J2.288
N1415 X40.312 Y47.01 I0. J-7.701
N1420 G2 X39.262 Y46.037 I-1.298 J0.348
N1425 G3 X38.353 Y44.931 I0.206 J-1.096
N1430 X39.217 Y41.081 I9.397 J0.088
N1435 X39.729 Y40.755 I0.512 J0.238
N1440 G1 X55.771
N1445 G3 X56.283 Y41.081 I0. J0.565
N1450 X47.75 Y54.416 I-8.505 J3.955
N1455 X38.353 Y44.931 I0. J-9.398
N1460 G2 X37.583 Y43.688 I-1.366 J-0.013
N1465 G3 X36.963 Y42.364 I0.506 J-1.044
N1470 X38.392 Y39.05 I10.787 J2.686
N1475 G1 X57.108
N1480 G3 X38.392 Y51.05 I-9.358 J6.
N1485 X36.963 Y42.364 I9.358 J-6.
N1490 X38.852 Y41.377 Z-1.244 I1.383 J0.344 F333.33
N1495 G1 X48.256 Y44.949 Z-1.428
N1500 G3 X47.75 Y47.707 Z-1.5 I-0.506 J1.332
N1505 G1 X47.547 Y47.705 F1000.
N1510 X47.445 Y47.7
N1515 X47.344 Y47.688
N1520 X47.311 Y47.676
N1525 X47.284 Y47.653
N1530 X47.267 Y47.621
N1535 X47.263 Y47.586
N1540 X47.272 Y47.551
N1545 X47.294 Y47.522
N1550 X47.324 Y47.503
N1555 X47.359 Y47.497
N1560 X48.141
N1565 X48.176 Y47.503
N1570 X48.206 Y47.522
N1575 X48.228 Y47.551
N1580 X48.237 Y47.586
N1585 X48.233 Y47.621
N1590 X48.216 Y47.653
N1595 X48.189 Y47.676
N1600 X48.156 Y47.688
N1605 X48.055 Y47.7
N1610 X47.953 Y47.705
N1615 X47.75 Y47.707
N1620 G2 X46.67 Y48.346 I0. J1.232
N1625 G3 X45.456 Y48.667 I-0.759 J-0.417
N1630 X45.127 Y48.443 I2.294 J-3.727
N1635 X43.582 Y46.15 I2.52 J-3.366
N1640 X43.809 Y45.855 I0.227 J-0.06
N1645 G1 X51.691
N1650 G3 X51.918 Y46.15 I0. J0.235
N1655 X50.373 Y48.443 I-4.065 J-1.073
N1660 X45.456 Y48.667 I-2.623 J-3.503
N1665 G2 X44.088 Y48.659 I-0.691 J1.123
N1670 G3 X42.752 Y48.361 I-0.511 J-0.853
N1675 X41.77 Y44.438 I4.931 J-3.318
N1680 X42.084 Y44.155 I0.314 J0.032
N1685 G1 X53.416
N1690 G3 X53.73 Y44.438 I0. J0.315
N1695 X52.201 Y49.056 I-5.912 J0.605
N1700 X43.299 I-4.451 J-4.074
N1705 X42.752 Y48.361 I4.384 J-4.013
N1710 G2 X41.476 Y47.786 I-1.101 J0.741
N1715 G3 X40.312 Y47.01 I-0.14 J-1.051
N1720 X40.39 Y42.751 I7.438 J-1.994
N1725 X40.793 Y42.455 I0.403 J0.126
N1730 G1 X54.707
N1735 G3 X55.11 Y42.751 I0. J0.422
N1740 X47.75 Y52.716 I-7.327 J2.288
N1745 X40.312 Y47.01 I0. J-7.701
N1750 G2 X39.262 Y46.037 I-1.298 J0.348
N1755 G3 X38.353 Y44.931 I0.206 J-1.096
N1760 X39.217 Y41.081 I9.397 J0.088
N1765 X39.729 Y40.755 I0.512 J0.238
N1770 G1 X55.771
N1775 G3 X56.283 Y41.081 I0. J0.565
N1780 X47.75 Y54.416 I-8.505 J3.955
N1785 X38.353 Y44.931 I0. J-9.398
N1790 G2 X37.583 Y43.688 I-1.366 J-0.013
N1795 G3 X36.963 Y42.364 I0.506 J-1.044
N1800 X38.392 Y39.05 I10.787 J2.686
N1805 G1 X57.108
N1810 G3 X38.392 Y51.05 I-9.358 J6.
N1815 X36.963 Y42.364 I9.358 J-6.
N1820 X38.852 Y41.377 Z-1.544 I1.383 J0.344 F333.33
N1825 G1 X48.256 Y44.949 Z-1.728
N1830 G3 X47.75 Y47.707 Z-1.8 I-0.506 J1.332
N1835 G1 X47.547 Y47.705 F1000.
N1840 X47.445 Y47.7
N1845 X47.344 Y47.688
N1850 X47.311 Y47.676
N1855 X47.284 Y47.653
N1860 X47.267 Y47.621
N1865 X47.263 Y47.586
N1870 X47.272 Y47.551
N1875 X47.294 Y47.522
N1880 X47.324 Y47.503
N1885 X47.359 Y47.497
N1890 X48.141
N1895 X48.176 Y47.503
N1900 X48.206 Y47.522
N1905 X48.228 Y47.551
N1910 X48.237 Y47.586
N1915 X48.233 Y47.621
N1920 X48.216 Y47.653
N1925 X48.189 Y47.676
N1930 X48.156 Y47.688
N1935 X48.055 Y47.7
N1940 X47.953 Y47.705
N1945 X47.75 Y47.707
N1950 G2 X46.67 Y48.346 I0. J1.232
N1955 G3 X45.456 Y48.667 I-0.759 J-0.417
N1960 X45.127 Y48.443 I2.294 J-3.727
N1965 X43.582 Y46.15 I2.52 J-3.366
N1970 X43.809 Y45.855 I0.227 J-0.06
N1975 G1 X51.691
N1980 G3 X51.918 Y46.15 I0. J0.235
N1985 X50.373 Y48.443 I-4.065 J-1.073
N1990 X45.456 Y48.667 I-2.623 J-3.503
N1995 G2 X44.088 Y48.659 I-0.691 J1.123
N2000 G3 X42.752 Y48.361 I-0.511 J-0.853
N2005 X41.77 Y44.438 I4.931 J-3.318
N2010 X42.084 Y44.155 I0.314 J0.032
N2015 G1 X53.416
N2020 G3 X53.73 Y44.438 I0. J0.315
N2025 X52.201 Y49.056 I-5.912 J0.605
N2030 X43.299 I-4.451 J-4.074
N2035 X42.752 Y48.361 I4.384 J-4.013
N2040 G2 X41.476 Y47.786 I-1.101 J0.741
N2045 G3 X40.312 Y47.01 I-0.14 J-1.051
N2050 X40.39 Y42.751 I7.438 J-1.994
N2055 X40.793 Y42.455 I0.403 J0.126
N2060 G1 X54.707
N2065 G3 X55.11 Y42.751 I0. J0.422
N2070 X47.75 Y52.716 I-7.327 J2.288
N2075 X40.312 Y47.01 I0. J-7.701
N2080 G2 X39.262 Y46.037 I-1.298 J0.348
N2085 G3 X38.353 Y44.931 I0.206 J-1.096
N2090 X39.217 Y41.081 I9.397 J0.088
N2095 X39.729 Y40.755 I0.512 J0.238
N2100 G1 X55.771
N2105 G3 X56.283 Y41.081 I0. J0.565
N2110 X47.75 Y54.416 I-8.505 J3.955
N2115 X38.353 Y44.931 I0. J-9.398
N2120 G2 X37.583 Y43.688 I-1.366 J-0.013
N2125 G3 X36.963 Y42.364 I0.506 J-1.044
N2130 X38.392 Y39.05 I10.787 J2.686
N2135 G1 X57.108
N2140 G3 X38.392 Y51.05 I-9.358 J6.
N2145 X36.963 Y42.364 I9.358 J-6.
N2150 X38.852 Y41.377 Z-1.844 I1.383 J0.344 F333.33
N2155 G1 X48.256 Y44.949 Z-2.028
N2160 G3 X47.75 Y47.707 Z-2.1 I-0.506 J1.332
N2165 G1 X47.547 Y47.705 F1000.
N2170 X47.445 Y47.7
N2175 X47.344 Y47.688
N2180 X47.311 Y47.676
N2185 X47.284 Y47.653
N2190 X47.267 Y47.621
N2195 X47.263 Y47.586
N2200 X47.272 Y47.551
N2205 X47.294 Y47.522
N2210 X47.324 Y47.503
N2215 X47.359 Y47.497
N2220 X48.141
N2225 X48.176 Y47.503
N2230 X48.206 Y47.522
N2235 X48.228 Y47.551
N2240 X48.237 Y47.586
N2245 X48.233 Y47.621
N2250 X48.216 Y47.653
N2255 X48.189 Y47.676
N2260 X48.156 Y47.688
N2265 X48.055 Y47.7
N2270 X47.953 Y47.705
N2275 X47.75 Y47.707
N2280 G2 X46.67 Y48.346 I0. J1.232
N2285 G3 X45.456 Y48.667 I-0.759 J-0.417
N2290 X45.127 Y48.443 I2.294 J-3.727
N2295 X43.582 Y46.15 I2.52 J-3.366
N2300 X43.809 Y45.855 I0.227 J-0.06
N2305 G1 X51.691
N2310 G3 X51.918 Y46.15 I0. J0.235
N2315 X50.373 Y48.443 I-4.065 J-1.073
N2320 X45.456 Y48.667 I-2.623 J-3.503
N2325 G2 X44.088 Y48.659 I-0.691 J1.123
N2330 G3 X42.752 Y48.361 I-0.511 J-0.853
N2335 X41.77 Y44.438 I4.931 J-3.318
N2340 X42.084 Y44.155 I0.314 J0.032
N2345 G1 X53.416
N2350 G3 X53.73 Y44.438 I0. J0.315
N2355 X52.201 Y49.056 I-5.912 J0.605
N2360 X43.299 I-4.451 J-4.074
N2365 X42.752 Y48.361 I4.384 J-4.013
N2370 G2 X41.476 Y47.786 I-1.101 J0.741
N2375 G3 X40.312 Y47.01 I-0.14 J-1.051
N2380 X40.39 Y42.751 I7.438 J-1.994
N2385 X40.793 Y42.455 I0.403 J0.126
N2390 G1 X54.707
N2395 G3 X55.11 Y42.751 I0. J0.422
N2400 X47.75 Y52.716 I-7.327 J2.288
N2405 X40.312 Y47.01 I0. J-7.701
N2410 G2 X39.262 Y46.037 I-1.298 J0.348
N2415 G3 X38.353 Y44.931 I0.206 J-1.096
N2420 X39.217 Y41.081 I9.397 J0.088
N2425 X39.729 Y40.755 I0.512 J0.238
N2430 G1 X55.771
N2435 G3 X56.283 Y41.081 I0. J0.565
N2440 X47.75 Y54.416 I-8.505 J3.955
N2445 X38.353 Y44.931 I0. J-9.398
N2450 G2 X37.583 Y43.688 I-1.366 J-0.013
N2455 G3 X36.963 Y42.364 I0.506 J-1.044
N2460 X38.392 Y39.05 I10.787 J2.686
N2465 G1 X57.108
N2470 G3 X38.392 Y51.05 I-9.358 J6.
N2475 X36.963 Y42.364 I9.358 J-6.
N2480 X38.852 Y41.377 Z-2.144 I1.383 J0.344 F333.33
N2485 G1 X48.256 Y44.949 Z-2.328
N2490 G3 X47.75 Y47.707 Z-2.4 I-0.506 J1.332
N2495 G1 X47.547 Y47.705 F1000.
N2500 X47.445 Y47.7
N2505 X47.344 Y47.688
N2510 X47.311 Y47.676
N2515 X47.284 Y47.653
N2520 X47.267 Y47.621
N2525 X47.263 Y47.586
N2530 X47.272 Y47.551
N2535 X47.294 Y47.522
N2540 X47.324 Y47.503
N2545 X47.359 Y47.497
N2550 X48.141
N2555 X48.176 Y47.503
N2560 X48.206 Y47.522
N2565 X48.228 Y47.551
N2570 X48.237 Y47.586
N2575 X48.233 Y47.621
N2580 X48.216 Y47.653
N2585 X48.189 Y47.676
N2590 X48.156 Y47.688
N2595 X48.055 Y47.7
N2600 X47.953 Y47.705
N2605 X47.75 Y47.707
N2610 G2 X46.67 Y48.346 I0. J1.232
N2615 G3 X45.456 Y48.667 I-0.759 J-0.417
N2620 X45.127 Y48.443 I2.294 J-3.727
N2625 X43.582 Y46.15 I2.52 J-3.366
N2630 X43.809 Y45.855 I0.227 J-0.06
N2635 G1 X51.691
N2640 G3 X51.918 Y46.15 I0. J0.235
N2645 X50.373 Y48.443 I-4.065 J-1.073
N2650 X45.456 Y48.667 I-2.623 J-3.503
N2655 G2 X44.088 Y48.659 I-0.691 J1.123
N2660 G3 X42.752 Y48.361 I-0.511 J-0.853
N2665 X41.77 Y44.438 I4.931 J-3.318
N2670 X42.084 Y44.155 I0.314 J0.032
N2675 G1 X53.416
N2680 G3 X53.73 Y44.438 I0. J0.315
N2685 X52.201 Y49.056 I-5.912 J0.605
N2690 X43.299 I-4.451 J-4.074
N2695 X42.752 Y48.361 I4.384 J-4.013
N2700 G2 X41.476 Y47.786 I-1.101 J0.741
N2705 G3 X40.312 Y47.01 I-0.14 J-1.051
N2710 X40.39 Y42.751 I7.438 J-1.994
N2715 X40.793 Y42.455 I0.403 J0.126
N2720 G1 X54.707
N2725 G3 X55.11 Y42.751 I0. J0.422
N2730 X47.75 Y52.716 I-7.327 J2.288
N2735 X40.312 Y47.01 I0. J-7.701
N2740 G2 X39.262 Y46.037 I-1.298 J0.348
N2745 G3 X38.353 Y44.931 I0.206 J-1.096
N2750 X39.217 Y41.081 I9.397 J0.088
N2755 X39.729 Y40.755 I0.512 J0.238
N2760 G1 X55.771
N2765 G3 X56.283 Y41.081 I0. J0.565
N2770 X47.75 Y54.416 I-8.505 J3.955
N2775 X38.353 Y44.931 I0. J-9.398
N2780 G2 X37.583 Y43.688 I-1.366 J-0.013
N2785 G3 X36.963 Y42.364 I0.506 J-1.044
N2790 X38.392 Y39.05 I10.787 J2.686
N2795 G1 X57.108
N2800 G3 X38.392 Y51.05 I-9.358 J6.
N2805 X36.963 Y42.364 I9.358 J-6.
N2810 X38.852 Y41.377 Z-2.444 I1.383 J0.344 F333.33
N2815 G1 X48.256 Y44.949 Z-2.628
N2820 G3 X47.75 Y47.707 Z-2.7 I-0.506 J1.332
N2825 G1 X47.547 Y47.705 F1000.
N2830 X47.445 Y47.7
N2835 X47.344 Y47.688
N2840 X47.311 Y47.676
N2845 X47.284 Y47.653
N2850 X47.267 Y47.621
N2855 X47.263 Y47.586
N2860 X47.272 Y47.551
N2865 X47.294 Y47.522
N2870 X47.324 Y47.503
N2875 X47.359 Y47.497
N2880 X48.141
N2885 X48.176 Y47.503
N2890 X48.206 Y47.522
N2895 X48.228 Y47.551
N2900 X48.237 Y47.586
N2905 X48.233 Y47.621
N2910 X48.216 Y47.653
N2915 X48.189 Y47.676
N2920 X48.156 Y47.688
N2925 X48.055 Y47.7
N2930 X47.953 Y47.705
N2935 X47.75 Y47.707
N2940 G2 X46.67 Y48.346 I0. J1.232
N2945 G3 X45.456 Y48.667 I-0.759 J-0.417
N2950 X45.127 Y48.443 I2.294 J-3.727
N2955 X43.582 Y46.15 I2.52 J-3.366
N2960 X43.809 Y45.855 I0.227 J-0.06
N2965 G1 X51.691
N2970 G3 X51.918 Y46.15 I0. J0.235
N2975 X50.373 Y48.443 I-4.065 J-1.073
N2980 X45.456 Y48.667 I-2.623 J-3.503
N2985 G2 X44.088 Y48.659 I-0.691 J1.123
N2990 G3 X42.752 Y48.361 I-0.511 J-0.853
N2995 X41.77 Y44.438 I4.931 J-3.318
N3000 X42.084 Y44.155 I0.314 J0.032
N3005 G1 X53.416
N3010 G3 X53.73 Y44.438 I0. J0.315
N3015 X52.201 Y49.056 I-5.912 J0.605
N3020 X43.299 I-4.451 J-4.074
N3025 X42.752 Y48.361 I4.384 J-4.013
N3030 G2 X41.476 Y47.786 I-1.101 J0.741
N3035 G3 X40.312 Y47.01 I-0.14 J-1.051
N3040 X40.39 Y42.751 I7.438 J-1.994
N3045 X40.793 Y42.455 I0.403 J0.126
N3050 G1 X54.707
N3055 G3 X55.11 Y42.751 I0. J0.422
N3060 X47.75 Y52.716 I-7.327 J2.288
N3065 X40.312 Y47.01 I0. J-7.701
N3070 G2 X39.262 Y46.037 I-1.298 J0.348
N3075 G3 X38.353 Y44.931 I0.206 J-1.096
N3080 X39.217 Y41.081 I9.397 J0.088
N3085 X39.729 Y40.755 I0.512 J0.238
N3090 G1 X55.771
N3095 G3 X56.283 Y41.081 I0. J0.565
N3100 X47.75 Y54.416 I-8.505 J3.955
N3105 X38.353 Y44.931 I0. J-9.398
N3110 G2 X37.583 Y43.688 I-1.366 J-0.013
N3115 G3 X36.963 Y42.364 I0.506 J-1.044
N3120 X38.392 Y39.05 I10.787 J2.686
N3125 G1 X57.108
N3130 G3 X38.392 Y51.05 I-9.358 J6.
N3135 X36.963 Y42.364 I9.358 J-6.
N3140 X38.852 Y41.377 Z-2.744 I1.383 J0.344 F333.33
N3145 G1 X48.256 Y44.949 Z-2.928
N3150 G3 X47.75 Y47.707 Z-3. I-0.506 J1.332
N3155 G1 X47.547 Y47.705 F1000.
N3160 X47.445 Y47.7
N3165 X47.344 Y47.688
N3170 X47.311 Y47.676
N3175 X47.284 Y47.653
N3180 X47.267 Y47.621
N3185 X47.263 Y47.586
N3190 X47.272 Y47.551
N3195 X47.294 Y47.522
N3200 X47.324 Y47.503
N3205 X47.359 Y47.497
N3210 X48.141
N3215 X48.176 Y47.503
N3220 X48.206 Y47.522
N3225 X48.228 Y47.551
N3230 X48.237 Y47.586
N3235 X48.233 Y47.621
N3240 X48.216 Y47.653
N3245 X48.189 Y47.676
N3250 X48.156 Y47.688
N3255 X48.055 Y47.7
N3260 X47.953 Y47.705
N3265 X47.75 Y47.707
N3270 G2 X46.67 Y48.346 I0. J1.232
N3275 G3 X45.456 Y48.667 I-0.759 J-0.417
N3280 X45.127 Y48.443 I2.294 J-3.727
N3285 X43.582 Y46.15 I2.52 J-3.366
N3290 X43.809 Y45.855 I0.227 J-0.06
N3295 G1 X51.691
N3300 G3 X51.918 Y46.15 I0. J0.235
N3305 X50.373 Y48.443 I-4.065 J-1.073
N3310 X45.456 Y48.667 I-2.623 J-3.503
N3315 G2 X44.088 Y48.659 I-0.691 J1.123
N3320 G3 X42.752 Y48.361 I-0.511 J-0.853
N3325 X41.77 Y44.438 I4.931 J-3.318
N3330 X42.084 Y44.155 I0.314 J0.032
N3335 G1 X53.416
N3340 G3 X53.73 Y44.438 I0. J0.315
N3345 X52.201 Y49.056 I-5.912 J0.605
N3350 X43.299 I-4.451 J-4.074
N3355 X42.752 Y48.361 I4.384 J-4.013
N3360 G2 X41.476 Y47.786 I-1.101 J0.741
N3365 G3 X40.312 Y47.01 I-0.14 J-1.051
N3370 X40.39 Y42.751 I7.438 J-1.994
N3375 X40.793 Y42.455 I0.403 J0.126
N3380 G1 X54.707
N3385 G3 X55.11 Y42.751 I0. J0.422
N3390 X47.75 Y52.716 I-7.327 J2.288
N3395 X40.312 Y47.01 I0. J-7.701
N3400 G2 X39.262 Y46.037 I-1.298 J0.348
N3405 G3 X38.353 Y44.931 I0.206 J-1.096
N3410 X39.217 Y41.081 I9.397 J0.088
N3415 X39.729 Y40.755 I0.512 J0.238
N3420 G1 X55.771
N3425 G3 X56.283 Y41.081 I0. J0.565
N3430 X47.75 Y54.416 I-8.505 J3.955
N3435 X38.353 Y44.931 I0. J-9.398
N3440 G2 X37.583 Y43.688 I-1.366 J-0.013
N3445 G3 X36.963 Y42.364 I0.506 J-1.044
N3450 X38.392 Y39.05 I10.787 J2.686
N3455 G1 X57.108
N3460 G3 X38.392 Y51.05 I-9.358 J6.
N3465 X36.963 Y42.364 I9.358 J-6.
N3470 X38.852 Y41.377 Z-3.044 I1.383 J0.344 F333.33
N3475 G1 X48.256 Y44.949 Z-3.228
N3480 G3 X47.75 Y47.707 Z-3.3 I-0.506 J1.332
N3485 G1 X47.547 Y47.705 F1000.
N3490 X47.445 Y47.7
N3495 X47.344 Y47.688
N3500 X47.311 Y47.676
N3505 X47.284 Y47.653
N3510 X47.267 Y47.621
N3515 X47.263 Y47.586
N3520 X47.272 Y47.551
N3525 X47.294 Y47.522
N3530 X47.324 Y47.503
N3535 X47.359 Y47.497
N3540 X48.141
N3545 X48.176 Y47.503
N3550 X48.206 Y47.522
N3555 X48.228 Y47.551
N3560 X48.237 Y47.586
N3565 X48.233 Y47.621
N3570 X48.216 Y47.653
N3575 X48.189 Y47.676
N3580 X48.156 Y47.688
N3585 X48.055 Y47.7
N3590 X47.953 Y47.705
N3595 X47.75 Y47.707
N3600 G2 X46.67 Y48.346 I0. J1.232
N3605 G3 X45.456 Y48.667 I-0.759 J-0.417
N3610 X45.127 Y48.443 I2.294 J-3.727
N3615 X43.582 Y46.15 I2.52 J-3.366
N3620 X43.809 Y45.855 I0.227 J-0.06
N3625 G1 X51.691
N3630 G3 X51.918 Y46.15 I0. J0.235
N3635 X50.373 Y48.443 I-4.065 J-1.073
N3640 X45.456 Y48.667 I-2.623 J-3.503
N3645 G2 X44.088 Y48.659 I-0.691 J1.123
N3650 G3 X42.752 Y48.361 I-0.511 J-0.853
N3655 X41.77 Y44.438 I4.931 J-3.318
N3660 X42.084 Y44.155 I0.314 J0.032
N3665 G1 X53.416
N3670 G3 X53.73 Y44.438 I0. J0.315
N3675 X52.201 Y49.056 I-5.912 J0.605
N3680 X43.299 I-4.451 J-4.074
N3685 X42.752 Y48.361 I4.384 J-4.013
N3690 G2 X41.476 Y47.786 I-1.101 J0.741
N3695 G3 X40.312 Y47.01 I-0.14 J-1.051
N3700 X40.39 Y42.751 I7.438 J-1.994
N3705 X40.793 Y42.455 I0.403 J0.126
N3710 G1 X54.707
N3715 G3 X55.11 Y42.751 I0. J0.422
N3720 X47.75 Y52.716 I-7.327 J2.288
N3725 X40.312 Y47.01 I0. J-7.701
N3730 G2 X39.262 Y46.037 I-1.298 J0.348
N3735 G3 X38.353 Y44.931 I0.206 J-1.096
N3740 X39.217 Y41.081 I9.397 J0.088
N3745 X39.729 Y40.755 I0.512 J0.238
N3750 G1 X55.771
N3755 G3 X56.283 Y41.081 I0. J0.565
N3760 X47.75 Y54.416 I-8.505 J3.955
N3765 X38.353 Y44.931 I0. J-9.398
N3770 G2 X37.583 Y43.688 I-1.366 J-0.013
N3775 G3 X36.963 Y42.364 I0.506 J-1.044
N3780 X38.392 Y39.05 I10.787 J2.686
N3785 G1 X57.108
N3790 G3 X38.392 Y51.05 I-9.358 J6.
N3795 X36.963 Y42.364 I9.358 J-6.
N3800 X38.852 Y41.377 Z-3.344 I1.383 J0.344 F333.33
N3805 G1 X48.256 Y44.949 Z-3.528
N3810 G3 X47.75 Y47.707 Z-3.6 I-0.506 J1.332
N3815 G1 X47.547 Y47.705 F1000.
N3820 X47.445 Y47.7
N3825 X47.344 Y47.688
N3830 X47.311 Y47.676
N3835 X47.284 Y47.653
N3840 X47.267 Y47.621
N3845 X47.263 Y47.586
N3850 X47.272 Y47.551
N3855 X47.294 Y47.522
N3860 X47.324 Y47.503
N3865 X47.359 Y47.497
N3870 X48.141
N3875 X48.176 Y47.503
N3880 X48.206 Y47.522
N3885 X48.228 Y47.551
N3890 X48.237 Y47.586
N3895 X48.233 Y47.621
N3900 X48.216 Y47.653
N3905 X48.189 Y47.676
N3910 X48.156 Y47.688
N3915 X48.055 Y47.7
N3920 X47.953 Y47.705
N3925 X47.75 Y47.707
N3930 G2 X46.67 Y48.346 I0. J1.232
N3935 G3 X45.456 Y48.667 I-0.759 J-0.417
N3940 X45.127 Y48.443 I2.294 J-3.727
N3945 X43.582 Y46.15 I2.52 J-3.366
N3950 X43.809 Y45.855 I0.227 J-0.06
N3955 G1 X51.691
N3960 G3 X51.918 Y46.15 I0. J0.235
N3965 X50.373 Y48.443 I-4.065 J-1.073
N3970 X45.456 Y48.667 I-2.623 J-3.503
N3975 G2 X44.088 Y48.659 I-0.691 J1.123
N3980 G3 X42.752 Y48.361 I-0.511 J-0.853
N3985 X41.77 Y44.438 I4.931 J-3.318
N3990 X42.084 Y44.155 I0.314 J0.032
N3995 G1 X53.416
N4000 G3 X53.73 Y44.438 I0. J0.315
N4005 X52.201 Y49.056 I-5.912 J0.605
N4010 X43.299 I-4.451 J-4.074
N4015 X42.752 Y48.361 I4.384 J-4.013
N4020 G2 X41.476 Y47.786 I-1.101 J0.741
N4025 G3 X40.312 Y47.01 I-0.14 J-1.051
N4030 X40.39 Y42.751 I7.438 J-1.994
N4035 X40.793 Y42.455 I0.403 J0.126
N4040 G1 X54.707
N4045 G3 X55.11 Y42.751 I0. J0.422
N4050 X47.75 Y52.716 I-7.327 J2.288
N4055 X40.312 Y47.01 I0. J-7.701
N4060 G2 X39.262 Y46.037 I-1.298 J0.348
N4065 G3 X38.353 Y44.931 I0.206 J-1.096
N4070 X39.217 Y41.081 I9.397 J0.088
N4075 X39.729 Y40.755 I0.512 J0.238
N4080 G1 X55.771
N4085 G3 X56.283 Y41.081 I0. J0.565
N4090 X47.75 Y54.416 I-8.505 J3.955
N4095 X38.353 Y44.931 I0. J-9.398
N4100 G2 X37.583 Y43.688 I-1.366 J-0.013
N4105 G3 X36.963 Y42.364 I0.506 J-1.044
N4110 X38.392 Y39.05 I10.787 J2.686
N4115 G1 X57.108
N4120 G3 X38.392 Y51.05 I-9.358 J6.
N4125 X36.963 Y42.364 I9.358 J-6.
N4130 X38.852 Y41.377 Z-3.644 I1.383 J0.344 F333.33
N4135 G1 X48.256 Y44.949 Z-3.828
N4140 G3 X47.75 Y47.707 Z-3.9 I-0.506 J1.332
N4145 G1 X47.547 Y47.705 F1000.
N4150 X47.445 Y47.7
N4155 X47.344 Y47.688
N4160 X47.311 Y47.676
N4165 X47.284 Y47.653
N4170 X47.267 Y47.621
N4175 X47.263 Y47.586
N4180 X47.272 Y47.551
N4185 X47.294 Y47.522
N4190 X47.324 Y47.503
N4195 X47.359 Y47.497
N4200 X48.141
N4205 X48.176 Y47.503
N4210 X48.206 Y47.522
N4215 X48.228 Y47.551
N4220 X48.237 Y47.586
N4225 X48.233 Y47.621
N4230 X48.216 Y47.653
N4235 X48.189 Y47.676
N4240 X48.156 Y47.688
N4245 X48.055 Y47.7
N4250 X47.953 Y47.705
N4255 X47.75 Y47.707
N4260 G2 X46.67 Y48.346 I0. J1.232
N4265 G3 X45.456 Y48.667 I-0.759 J-0.417
N4270 X45.127 Y48.443 I2.294 J-3.727
N4275 X43.582 Y46.15 I2.52 J-3.366
N4280 X43.809 Y45.855 I0.227 J-0.06
N4285 G1 X51.691
N4290 G3 X51.918 Y46.15 I0. J0.235
N4295 X50.373 Y48.443 I-4.065 J-1.073
N4300 X45.456 Y48.667 I-2.623 J-3.503
N4305 G2 X44.088 Y48.659 I-0.691 J1.123
N4310 G3 X42.752 Y48.361 I-0.511 J-0.853
N4315 X41.77 Y44.438 I4.931 J-3.318
N4320 X42.084 Y44.155 I0.314 J0.032
N4325 G1 X53.416
N4330 G3 X53.73 Y44.438 I0. J0.315
N4335 X52.201 Y49.056 I-5.912 J0.605
N4340 X43.299 I-4.451 J-4.074
N4345 X42.752 Y48.361 I4.384 J-4.013
N4350 G2 X41.476 Y47.786 I-1.101 J0.741
N4355 G3 X40.312 Y47.01 I-0.14 J-1.051
N4360 X40.39 Y42.751 I7.438 J-1.994
N4365 X40.793 Y42.455 I0.403 J0.126
N4370 G1 X54.707
N4375 G3 X55.11 Y42.751 I0. J0.422
N4380 X47.75 Y52.716 I-7.327 J2.288
N4385 X40.312 Y47.01 I0. J-7.701
N4390 G2 X39.262 Y46.037 I-1.298 J0.348
N4395 G3 X38.353 Y44.931 I0.206 J-1.096
N4400 X39.217 Y41.081 I9.397 J0.088
N4405 X39.729 Y40.755 I0.512 J0.238
N4410 G1 X55.771
N4415 G3 X56.283 Y41.081 I0. J0.565
N4420 X47.75 Y54.416 I-8.505 J3.955
N4425 X38.353 Y44.931 I0. J-9.398
N4430 G2 X37.583 Y43.688 I-1.366 J-0.013
N4435 G3 X36.963 Y42.364 I0.506 J-1.044
N4440 X38.392 Y39.05 I10.787 J2.686
N4445 G1 X57.108
N4450 G3 X38.392 Y51.05 I-9.358 J6.
N4455 X36.963 Y42.364 I9.358 J-6.
N4460 X38.852 Y41.377 Z-3.944 I1.383 J0.344 F333.33
N4465 G1 X48.256 Y44.949 Z-4.128
N4470 G3 X47.75 Y47.707 Z-4.2 I-0.506 J1.332
N4475 G1 X47.547 Y47.705 F1000.
N4480 X47.445 Y47.7
N4485 X47.344 Y47.688
N4490 X47.311 Y47.676
N4495 X47.284 Y47.653
N4500 X47.267 Y47.621
N4505 X47.263 Y47.586
N4510 X47.272 Y47.551
N4515 X47.294 Y47.522
N4520 X47.324 Y47.503
N4525 X47.359 Y47.497
N4530 X48.141
N4535 X48.176 Y47.503
N4540 X48.206 Y47.522
N4545 X48.228 Y47.551
N4550 X48.237 Y47.586
N4555 X48.233 Y47.621
N4560 X48.216 Y47.653
N4565 X48.189 Y47.676
N4570 X48.156 Y47.688
N4575 X48.055 Y47.7
N4580 X47.953 Y47.705
N4585 X47.75 Y47.707
N4590 G2 X46.67 Y48.346 I0. J1.232
N4595 G3 X45.456 Y48.667 I-0.759 J-0.417
N4600 X45.127 Y48.443 I2.294 J-3.727
N4605 X43.582 Y46.15 I2.52 J-3.366
N4610 X43.809 Y45.855 I0.227 J-0.06
N4615 G1 X51.691
N4620 G3 X51.918 Y46.15 I0. J0.235
N4625 X50.373 Y48.443 I-4.065 J-1.073
N4630 X45.456 Y48.667 I-2.623 J-3.503
N4635 G2 X44.088 Y48.659 I-0.691 J1.123
N4640 G3 X42.752 Y48.361 I-0.511 J-0.853
N4645 X41.77 Y44.438 I4.931 J-3.318
N4650 X42.084 Y44.155 I0.314 J0.032
N4655 G1 X53.416
N4660 G3 X53.73 Y44.438 I0. J0.315
N4665 X52.201 Y49.056 I-5.912 J0.605
N4670 X43.299 I-4.451 J-4.074
N4675 X42.752 Y48.361 I4.384 J-4.013
N4680 G2 X41.476 Y47.786 I-1.101 J0.741
N4685 G3 X40.312 Y47.01 I-0.14 J-1.051
N4690 X40.39 Y42.751 I7.438 J-1.994
N4695 X40.793 Y42.455 I0.403 J0.126
N4700 G1 X54.707
N4705 G3 X55.11 Y42.751 I0. J0.422
N4710 X47.75 Y52.716 I-7.327 J2.288
N4715 X40.312 Y47.01 I0. J-7.701
N4720 G2 X39.262 Y46.037 I-1.298 J0.348
N4725 G3 X38.353 Y44.931 I0.206 J-1.096
N4730 X39.217 Y41.081 I9.397 J0.088
N4735 X39.729 Y40.755 I0.512 J0.238
N4740 G1 X55.771
N4745 G3 X56.283 Y41.081 I0. J0.565
N4750 X47.75 Y54.416 I-8.505 J3.955
N4755 X38.353 Y44.931 I0. J-9.398
N4760 G2 X37.583 Y43.688 I-1.366 J-0.013
N4765 G3 X36.963 Y42.364 I0.506 J-1.044
N4770 X38.392 Y39.05 I10.787 J2.686
N4775 G1 X57.108
N4780 G3 X38.392 Y51.05 I-9.358 J6.
N4785 X36.963 Y42.364 I9.358 J-6.
N4790 X38.852 Y41.377 Z-4.244 I1.383 J0.344 F333.33
N4795 G1 X48.256 Y44.949 Z-4.428
N4800 G3 X47.75 Y47.707 Z-4.5 I-0.506 J1.332
N4805 G1 X47.547 Y47.705 F1000.
N4810 X47.445 Y47.7
N4815 X47.344 Y47.688
N4820 X47.311 Y47.676
N4825 X47.284 Y47.653
N4830 X47.267 Y47.621
N4835 X47.263 Y47.586
N4840 X47.272 Y47.551
N4845 X47.294 Y47.522
N4850 X47.324 Y47.503
N4855 X47.359 Y47.497
N4860 X48.141
N4865 X48.176 Y47.503
N4870 X48.206 Y47.522
N4875 X48.228 Y47.551
N4880 X48.237 Y47.586
N4885 X48.233 Y47.621
N4890 X48.216 Y47.653
N4895 X48.189 Y47.676
N4900 X48.156 Y47.688
N4905 X48.055 Y47.7
N4910 X47.953 Y47.705
N4915 X47.75 Y47.707
N4920 G2 X46.67 Y48.346 I0. J1.232
N4925 G3 X45.456 Y48.667 I-0.759 J-0.417
N4930 X45.127 Y48.443 I2.294 J-3.727
N4935 X43.582 Y46.15 I2.52 J-3.366
N4940 X43.809 Y45.855 I0.227 J-0.06
N4945 G1 X51.691
N4950 G3 X51.918 Y46.15 I0. J0.235
N4955 X50.373 Y48.443 I-4.065 J-1.073
N4960 X45.456 Y48.667 I-2.623 J-3.503
N4965 G2 X44.088 Y48.659 I-0.691 J1.123
N4970 G3 X42.752 Y48.361 I-0.511 J-0.853
N4975 X41.77 Y44.438 I4.931 J-3.318
N4980 X42.084 Y44.155 I0.314 J0.032
N4985 G1 X53.416
N4990 G3 X53.73 Y44.438 I0. J0.315
N4995 X52.201 Y49.056 I-5.912 J0.605
N5000 X43.299 I-4.451 J-4.074
N5005 X42.752 Y48.361 I4.384 J-4.013
N5010 G2 X41.476 Y47.786 I-1.101 J0.741
N5015 G3 X40.312 Y47.01 I-0.14 J-1.051
N5020 X40.39 Y42.751 I7.438 J-1.994
N5025 X40.793 Y42.455 I0.403 J0.126
N5030 G1 X54.707
N5035 G3 X55.11 Y42.751 I0. J0.422
N5040 X47.75 Y52.716 I-7.327 J2.288
N5045 X40.312 Y47.01 I0. J-7.701
N5050 G2 X39.262 Y46.037 I-1.298 J0.348
N5055 G3 X38.353 Y44.931 I0.206 J-1.096
N5060 X39.217 Y41.081 I9.397 J0.088
N5065 X39.729 Y40.755 I0.512 J0.238
N5070 G1 X55.771
N5075 G3 X56.283 Y41.081 I0. J0.565
N5080 X47.75 Y54.416 I-8.505 J3.955
N5085 X38.353 Y44.931 I0. J-9.398
N5090 G2 X37.583 Y43.688 I-1.366 J-0.013
N5095 G3 X36.963 Y42.364 I0.506 J-1.044
N5100 X38.392 Y39.05 I10.787 J2.686
N5105 G1 X57.108
N5110 G3 X38.392 Y51.05 I-9.358 J6.
N5115 X36.963 Y42.364 I9.358 J-6.
N5120 X38.852 Y41.377 Z-4.544 I1.383 J0.344 F333.33
N5125 G1 X48.256 Y44.949 Z-4.728
N5130 G3 X47.75 Y47.707 Z-4.8 I-0.506 J1.332
N5135 G1 X47.547 Y47.705 F1000.
N5140 X47.445 Y47.7
N5145 X47.344 Y47.688
N5150 X47.311 Y47.676
N5155 X47.284 Y47.653
N5160 X47.267 Y47.621
N5165 X47.263 Y47.586
N5170 X47.272 Y47.551
N5175 X47.294 Y47.522
N5180 X47.324 Y47.503
N5185 X47.359 Y47.497
N5190 X48.141
N5195 X48.176 Y47.503
N5200 X48.206 Y47.522
N5205 X48.228 Y47.551
N5210 X48.237 Y47.586
N5215 X48.233 Y47.621
N5220 X48.216 Y47.653
N5225 X48.189 Y47.676
N5230 X48.156 Y47.688
N5235 X48.055 Y47.7
N5240 X47.953 Y47.705
N5245 X47.75 Y47.707
N5250 G2 X46.67 Y48.346 I0. J1.232
N5255 G3 X45.456 Y48.667 I-0.759 J-0.417
N5260 X45.127 Y48.443 I2.294 J-3.727
N5265 X43.582 Y46.15 I2.52 J-3.366
N5270 X43.809 Y45.855 I0.227 J-0.06
N5275 G1 X51.691
N5280 G3 X51.918 Y46.15 I0. J0.235
N5285 X50.373 Y48.443 I-4.065 J-1.073
N5290 X45.456 Y48.667 I-2.623 J-3.503
N5295 G2 X44.088 Y48.659 I-0.691 J1.123
N5300 G3 X42.752 Y48.361 I-0.511 J-0.853
N5305 X41.77 Y44.438 I4.931 J-3.318
N5310 X42.084 Y44.155 I0.314 J0.032
N5315 G1 X53.416
N5320 G3 X53.73 Y44.438 I0. J0.315
N5325 X52.201 Y49.056 I-5.912 J0.605
N5330 X43.299 I-4.451 J-4.074
N5335 X42.752 Y48.361 I4.384 J-4.013
N5340 G2 X41.476 Y47.786 I-1.101 J0.741
N5345 G3 X40.312 Y47.01 I-0.14 J-1.051
N5350 X40.39 Y42.751 I7.438 J-1.994
N5355 X40.793 Y42.455 I0.403 J0.126
N5360 G1 X54.707
N5365 G3 X55.11 Y42.751 I0. J0.422
N5370 X47.75 Y52.716 I-7.327 J2.288
N5375 X40.312 Y47.01 I0. J-7.701
N5380 G2 X39.262 Y46.037 I-1.298 J0.348
N5385 G3 X38.353 Y44.931 I0.206 J-1.096
N5390 X39.217 Y41.081 I9.397 J0.088
N5395 X39.729 Y40.755 I0.512 J0.238
N5400 G1 X55.771
N5405 G3 X56.283 Y41.081 I0. J0.565
N5410 X47.75 Y54.416 I-8.505 J3.955
N5415 X38.353 Y44.931 I0. J-9.398
N5420 G2 X37.583 Y43.688 I-1.366 J-0.013
N5425 G3 X36.963 Y42.364 I0.506 J-1.044
N5430 X38.392 Y39.05 I10.787 J2.686
N5435 G1 X57.108
N5440 G3 X38.392 Y51.05 I-9.358 J6.
N5445 X36.963 Y42.364 I9.358 J-6.
N5450 X38.852 Y41.377 Z-4.844 I1.383 J0.344 F333.33
N5455 G1 X48.256 Y44.949 Z-5.028
N5460 G3 X47.75 Y47.707 Z-5.1 I-0.506 J1.332
N5465 G1 X47.547 Y47.705 F1000.
N5470 X47.445 Y47.7
N5475 X47.344 Y47.688
N5480 X47.311 Y47.676
N5485 X47.284 Y47.653
N5490 X47.267 Y47.621
N5495 X47.263 Y47.586
N5500 X47.272 Y47.551
N5505 X47.294 Y47.522
N5510 X47.324 Y47.503
N5515 X47.359 Y47.497
N5520 X48.141
N5525 X48.176 Y47.503
N5530 X48.206 Y47.522
N5535 X48.228 Y47.551
N5540 X48.237 Y47.586
N5545 X48.233 Y47.621
N5550 X48.216 Y47.653
N5555 X48.189 Y47.676
N5560 X48.156 Y47.688
N5565 X48.055 Y47.7
N5570 X47.953 Y47.705
N5575 X47.75 Y47.707
N5580 G2 X46.67 Y48.346 I0. J1.232
N5585 G3 X45.456 Y48.667 I-0.759 J-0.417
N5590 X45.127 Y48.443 I2.294 J-3.727
N5595 X43.582 Y46.15 I2.52 J-3.366
N5600 X43.809 Y45.855 I0.227 J-0.06
N5605 G1 X51.691
N5610 G3 X51.918 Y46.15 I0. J0.235
N5615 X50.373 Y48.443 I-4.065 J-1.073
N5620 X45.456 Y48.667 I-2.623 J-3.503
N5625 G2 X44.088 Y48.659 I-0.691 J1.123
N5630 G3 X42.752 Y48.361 I-0.511 J-0.853
N5635 X41.77 Y44.438 I4.931 J-3.318
N5640 X42.084 Y44.155 I0.314 J0.032
N5645 G1 X53.416
N5650 G3 X53.73 Y44.438 I0. J0.315
N5655 X52.201 Y49.056 I-5.912 J0.605
N5660 X43.299 I-4.451 J-4.074
N5665 X42.752 Y48.361 I4.384 J-4.013
N5670 G2 X41.476 Y47.786 I-1.101 J0.741
N5675 G3 X40.312 Y47.01 I-0.14 J-1.051
N5680 X40.39 Y42.751 I7.438 J-1.994
N5685 X40.793 Y42.455 I0.403 J0.126
N5690 G1 X54.707
N5695 G3 X55.11 Y42.751 I0. J0.422
N5700 X47.75 Y52.716 I-7.327 J2.288
N5705 X40.312 Y47.01 I0. J-7.701
N5710 G2 X39.262 Y46.037 I-1.298 J0.348
N5715 G3 X38.353 Y44.931 I0.206 J-1.096
N5720 X39.217 Y41.081 I9.397 J0.088
N5725 X39.729 Y40.755 I0.512 J0.238
N5730 G1 X55.771
N5735 G3 X56.283 Y41.081 I0. J0.565
N5740 X47.75 Y54.416 I-8.505 J3.955
N5745 X38.353 Y44.931 I0. J-9.398
N5750 G2 X37.583 Y43.688 I-1.366 J-0.013
N5755 G3 X36.963 Y42.364 I0.506 J-1.044
N5760 X38.392 Y39.05 I10.787 J2.686
N5765 G1 X57.108
N5770 G3 X38.392 Y51.05 I-9.358 J6.
N5775 X36.963 Y42.364 I9.358 J-6.
N5780 X38.852 Y41.377 Z-5.144 I1.383 J0.344 F333.33
N5785 G1 X48.256 Y44.949 Z-5.328
N5790 G3 X47.75 Y47.707 Z-5.4 I-0.506 J1.332
N5795 G1 X47.547 Y47.705 F1000.
N5800 X47.445 Y47.7
N5805 X47.344 Y47.688
N5810 X47.311 Y47.676
N5815 X47.284 Y47.653
N5820 X47.267 Y47.621
N5825 X47.263 Y47.586
N5830 X47.272 Y47.551
N5835 X47.294 Y47.522
N5840 X47.324 Y47.503
N5845 X47.359 Y47.497
N5850 X48.141
N5855 X48.176 Y47.503
N5860 X48.206 Y47.522
N5865 X48.228 Y47.551
N5870 X48.237 Y47.586
N5875 X48.233 Y47.621
N5880 X48.216 Y47.653
N5885 X48.189 Y47.676
N5890 X48.156 Y47.688
N5895 X48.055 Y47.7
N5900 X47.953 Y47.705
N5905 X47.75 Y47.707
N5910 G2 X46.67 Y48.346 I0. J1.232
N5915 G3 X45.456 Y48.667 I-0.759 J-0.417
N5920 X45.127 Y48.443 I2.294 J-3.727
N5925 X43.582 Y46.15 I2.52 J-3.366
N5930 X43.809 Y45.855 I0.227 J-0.06
N5935 G1 X51.691
N5940 G3 X51.918 Y46.15 I0. J0.235
N5945 X50.373 Y48.443 I-4.065 J-1.073
N5950 X45.456 Y48.667 I-2.623 J-3.503
N5955 G2 X44.088 Y48.659 I-0.691 J1.123
N5960 G3 X42.752 Y48.361 I-0.511 J-0.853
N5965 X41.77 Y44.438 I4.931 J-3.318
N5970 X42.084 Y44.155 I0.314 J0.032
N5975 G1 X53.416
N5980 G3 X53.73 Y44.438 I0. J0.315
N5985 X52.201 Y49.056 I-5.912 J0.605
N5990 X43.299 I-4.451 J-4.074
N5995 X42.752 Y48.361 I4.384 J-4.013
N6000 G2 X41.476 Y47.786 I-1.101 J0.741
N6005 G3 X40.312 Y47.01 I-0.14 J-1.051
N6010 X40.39 Y42.751 I7.438 J-1.994
N6015 X40.793 Y42.455 I0.403 J0.126
N6020 G1 X54.707
N6025 G3 X55.11 Y42.751 I0. J0.422
N6030 X47.75 Y52.716 I-7.327 J2.288
N6035 X40.312 Y47.01 I0. J-7.701
N6040 G2 X39.262 Y46.037 I-1.298 J0.348
N6045 G3 X38.353 Y44.931 I0.206 J-1.096
N6050 X39.217 Y41.081 I9.397 J0.088
N6055 X39.729 Y40.755 I0.512 J0.238
N6060 G1 X55.771
N6065 G3 X56.283 Y41.081 I0. J0.565
N6070 X47.75 Y54.416 I-8.505 J3.955
N6075 X38.353 Y44.931 I0. J-9.398
N6080 G2 X37.583 Y43.688 I-1.366 J-0.013
N6085 G3 X36.963 Y42.364 I0.506 J-1.044
N6090 X38.392 Y39.05 I10.787 J2.686
N6095 G1 X57.108
N6100 G3 X38.392 Y51.05 I-9.358 J6.
N6105 X36.963 Y42.364 I9.358 J-6.
N6110 X38.852 Y41.377 Z-5.444 I1.383 J0.344 F333.33
N6115 G1 X48.256 Y44.949 Z-5.628
N6120 G3 X47.75 Y47.707 Z-5.7 I-0.506 J1.332
N6125 G1 X47.547 Y47.705 F1000.
N6130 X47.445 Y47.7
N6135 X47.344 Y47.688
N6140 X47.311 Y47.676
N6145 X47.284 Y47.653
N6150 X47.267 Y47.621
N6155 X47.263 Y47.586
N6160 X47.272 Y47.551
N6165 X47.294 Y47.522
N6170 X47.324 Y47.503
N6175 X47.359 Y47.497
N6180 X48.141
N6185 X48.176 Y47.503
N6190 X48.206 Y47.522
N6195 X48.228 Y47.551
N6200 X48.237 Y47.586
N6205 X48.233 Y47.621
N6210 X48.216 Y47.653
N6215 X48.189 Y47.676
N6220 X48.156 Y47.688
N6225 X48.055 Y47.7
N6230 X47.953 Y47.705
N6235 X47.75 Y47.707
N6240 G2 X46.67 Y48.346 I0. J1.232
N6245 G3 X45.456 Y48.667 I-0.759 J-0.417
N6250 X45.127 Y48.443 I2.294 J-3.727
N6255 X43.582 Y46.15 I2.52 J-3.366
N6260 X43.809 Y45.855 I0.227 J-0.06
N6265 G1 X51.691
N6270 G3 X51.918 Y46.15 I0. J0.235
N6275 X50.373 Y48.443 I-4.065 J-1.073
N6280 X45.456 Y48.667 I-2.623 J-3.503
N6285 G2 X44.088 Y48.659 I-0.691 J1.123
N6290 G3 X42.752 Y48.361 I-0.511 J-0.853
N6295 X41.77 Y44.438 I4.931 J-3.318
N6300 X42.084 Y44.155 I0.314 J0.032
N6305 G1 X53.416
N6310 G3 X53.73 Y44.438 I0. J0.315
N6315 X52.201 Y49.056 I-5.912 J0.605
N6320 X43.299 I-4.451 J-4.074
N6325 X42.752 Y48.361 I4.384 J-4.013
N6330 G2 X41.476 Y47.786 I-1.101 J0.741
N6335 G3 X40.312 Y47.01 I-0.14 J-1.051
N6340 X40.39 Y42.751 I7.438 J-1.994
N6345 X40.793 Y42.455 I0.403 J0.126
N6350 G1 X54.707
N6355 G3 X55.11 Y42.751 I0. J0.422
N6360 X47.75 Y52.716 I-7.327 J2.288
N6365 X40.312 Y47.01 I0. J-7.701
N6370 G2 X39.262 Y46.037 I-1.298 J0.348
N6375 G3 X38.353 Y44.931 I0.206 J-1.096
N6380 X39.217 Y41.081 I9.397 J0.088
N6385 X39.729 Y40.755 I0.512 J0.238
N6390 G1 X55.771
N6395 G3 X56.283 Y41.081 I0. J0.565
N6400 X47.75 Y54.416 I-8.505 J3.955
N6405 X38.353 Y44.931 I0. J-9.398
N6410 G2 X37.583 Y43.688 I-1.366 J-0.013
N6415 G3 X36.963 Y42.364 I0.506 J-1.044
N6420 X38.392 Y39.05 I10.787 J2.686
N6425 G1 X57.108
N6430 G3 X38.392 Y51.05 I-9.358 J6.
N6435 X36.963 Y42.364 I9.358 J-6.
N6440 X38.852 Y41.377 Z-5.744 I1.383 J0.344 F333.33
N6445 G1 X48.256 Y44.949 Z-5.928
N6450 G3 X47.75 Y47.707 Z-6. I-0.506 J1.332
N6455 G1 X47.547 Y47.705 F1000.
N6460 X47.445 Y47.7
N6465 X47.344 Y47.688
N6470 X47.311 Y47.676
N6475 X47.284 Y47.653
N6480 X47.267 Y47.621
N6485 X47.263 Y47.586
N6490 X47.272 Y47.551
N6495 X47.294 Y47.522
N6500 X47.324 Y47.503
N6505 X47.359 Y47.497
N6510 X48.141
N6515 X48.176 Y47.503
N6520 X48.206 Y47.522
N6525 X48.228 Y47.551
N6530 X48.237 Y47.586
N6535 X48.233 Y47.621
N6540 X48.216 Y47.653
N6545 X48.189 Y47.676
N6550 X48.156 Y47.688
N6555 X48.055 Y47.7
N6560 X47.953 Y47.705
N6565 X47.75 Y47.707
N6570 G2 X46.67 Y48.346 I0. J1.232
N6575 G3 X45.456 Y48.667 I-0.759 J-0.417
N6580 X45.127 Y48.443 I2.294 J-3.727
N6585 X43.582 Y46.15 I2.52 J-3.366
N6590 X43.809 Y45.855 I0.227 J-0.06
N6595 G1 X51.691
N6600 G3 X51.918 Y46.15 I0. J0.235
N6605 X50.373 Y48.443 I-4.065 J-1.073
N6610 X45.456 Y48.667 I-2.623 J-3.503
N6615 G2 X44.088 Y48.659 I-0.691 J1.123
N6620 G3 X42.752 Y48.361 I-0.511 J-0.853
N6625 X41.77 Y44.438 I4.931 J-3.318
N6630 X42.084 Y44.155 I0.314 J0.032
N6635 G1 X53.416
N6640 G3 X53.73 Y44.438 I0. J0.315
N6645 X52.201 Y49.056 I-5.912 J0.605
N6650 X43.299 I-4.451 J-4.074
N6655 X42.752 Y48.361 I4.384 J-4.013
N6660 G2 X41.476 Y47.786 I-1.101 J0.741
N6665 G3 X40.312 Y47.01 I-0.14 J-1.051
N6670 X40.39 Y42.751 I7.438 J-1.994
N6675 X40.793 Y42.455 I0.403 J0.126
N6680 G1 X54.707
N6685 G3 X55.11 Y42.751 I0. J0.422
N6690 X47.75 Y52.716 I-7.327 J2.288
N6695 X40.312 Y47.01 I0. J-7.701
N6700 G2 X39.262 Y46.037 I-1.298 J0.348
N6705 G3 X38.353 Y44.931 I0.206 J-1.096
N6710 X39.217 Y41.081 I9.397 J0.088
N6715 X39.729 Y40.755 I0.512 J0.238
N6720 G1 X55.771
N6725 G3 X56.283 Y41.081 I0. J0.565
N6730 X47.75 Y54.416 I-8.505 J3.955
N6735 X38.353 Y44.931 I0. J-9.398
N6740 G2 X37.583 Y43.688 I-1.366 J-0.013
N6745 G3 X36.963 Y42.364 I0.506 J-1.044
N6750 X38.392 Y39.05 I10.787 J2.686
N6755 G1 X57.108
N6760 G3 X38.392 Y51.05 I-9.358 J6.
N6765 X36.963 Y42.364 I9.358 J-6.
N6770 X38.852 Y41.377 Z-6.044 I1.383 J0.344 F333.33
N6775 G1 X48.256 Y44.949 Z-6.228
N6780 G3 X47.75 Y47.707 Z-6.3 I-0.506 J1.332
N6785 G1 X47.547 Y47.705 F1000.
N6790 X47.445 Y47.7
N6795 X47.344 Y47.688
N6800 X47.311 Y47.676
N6805 X47.284 Y47.653
N6810 X47.267 Y47.621
N6815 X47.263 Y47.586
N6820 X47.272 Y47.551
N6825 X47.294 Y47.522
N6830 X47.324 Y47.503
N6835 X47.359 Y47.497
N6840 X48.141
N6845 X48.176 Y47.503
N6850 X48.206 Y47.522
N6855 X48.228 Y47.551
N6860 X48.237 Y47.586
N6865 X48.233 Y47.621
N6870 X48.216 Y47.653
N6875 X48.189 Y47.676
N6880 X48.156 Y47.688
N6885 X48.055 Y47.7
N6890 X47.953 Y47.705
N6895 X47.75 Y47.707
N6900 G2 X46.67 Y48.346 I0. J1.232
N6905 G3 X45.456 Y48.667 I-0.759 J-0.417
N6910 X45.127 Y48.443 I2.294 J-3.727
N6915 X43.582 Y46.15 I2.52 J-3.366
N6920 X43.809 Y45.855 I0.227 J-0.06
N6925 G1 X51.691
N6930 G3 X51.918 Y46.15 I0. J0.235
N6935 X50.373 Y48.443 I-4.065 J-1.073
N6940 X45.456 Y48.667 I-2.623 J-3.503
N6945 G2 X44.088 Y48.659 I-0.691 J1.123
N6950 G3 X42.752 Y48.361 I-0.511 J-0.853
N6955 X41.77 Y44.438 I4.931 J-3.318
N6960 X42.084 Y44.155 I0.314 J0.032
N6965 G1 X53.416
N6970 G3 X53.73 Y44.438 I0. J0.315
N6975 X52.201 Y49.056 I-5.912 J0.605
N6980 X43.299 I-4.451 J-4.074
N6985 X42.752 Y48.361 I4.384 J-4.013
N6990 G2 X41.476 Y47.786 I-1.101 J0.741
N6995 G3 X40.312 Y47.01 I-0.14 J-1.051
N7000 X40.39 Y42.751 I7.438 J-1.994
N7005 X40.793 Y42.455 I0.403 J0.126
N7010 G1 X54.707
N7015 G3 X55.11 Y42.751 I0. J0.422
N7020 X47.75 Y52.716 I-7.327 J2.288
N7025 X40.312 Y47.01 I0. J-7.701
N7030 G2 X39.262 Y46.037 I-1.298 J0.348
N7035 G3 X38.353 Y44.931 I0.206 J-1.096
N7040 X39.217 Y41.081 I9.397 J0.088
N7045 X39.729 Y40.755 I0.512 J0.238
N7050 G1 X55.771
N7055 G3 X56.283 Y41.081 I0. J0.565
N7060 X47.75 Y54.416 I-8.505 J3.955
N7065 X38.353 Y44.931 I0. J-9.398
N7070 G2 X37.583 Y43.688 I-1.366 J-0.013
N7075 G3 X36.963 Y42.364 I0.506 J-1.044
N7080 X38.392 Y39.05 I10.787 J2.686
N7085 G1 X57.108
N7090 G3 X38.392 Y51.05 I-9.358 J6.
N7095 X36.963 Y42.364 I9.358 J-6.
N7100 X38.852 Y41.377 Z-6.344 I1.383 J0.344 F333.33
N7105 G1 X48.256 Y44.949 Z-6.528
N7110 G3 X47.75 Y47.707 Z-6.6 I-0.506 J1.332
N7115 G1 X47.547 Y47.705 F1000.
N7120 X47.445 Y47.7
N7125 X47.344 Y47.688
N7130 X47.311 Y47.676
N7135 X47.284 Y47.653
N7140 X47.267 Y47.621
N7145 X47.263 Y47.586
N7150 X47.272 Y47.551
N7155 X47.294 Y47.522
N7160 X47.324 Y47.503
N7165 X47.359 Y47.497
N7170 X48.141
N7175 X48.176 Y47.503
N7180 X48.206 Y47.522
N7185 X48.228 Y47.551
N7190 X48.237 Y47.586
N7195 X48.233 Y47.621
N7200 X48.216 Y47.653
N7205 X48.189 Y47.676
N7210 X48.156 Y47.688
N7215 X48.055 Y47.7
N7220 X47.953 Y47.705
N7225 X47.75 Y47.707
N7230 G2 X46.67 Y48.346 I0. J1.232
N7235 G3 X45.456 Y48.667 I-0.759 J-0.417
N7240 X45.127 Y48.443 I2.294 J-3.727
N7245 X43.582 Y46.15 I2.52 J-3.366
N7250 X43.809 Y45.855 I0.227 J-0.06
N7255 G1 X51.691
N7260 G3 X51.918 Y46.15 I0. J0.235
N7265 X50.373 Y48.443 I-4.065 J-1.073
N7270 X45.456 Y48.667 I-2.623 J-3.503
N7275 G2 X44.088 Y48.659 I-0.691 J1.123
N7280 G3 X42.752 Y48.361 I-0.511 J-0.853
N7285 X41.77 Y44.438 I4.931 J-3.318
N7290 X42.084 Y44.155 I0.314 J0.032
N7295 G1 X53.416
N7300 G3 X53.73 Y44.438 I0. J0.315
N7305 X52.201 Y49.056 I-5.912 J0.605
N7310 X43.299 I-4.451 J-4.074
N7315 X42.752 Y48.361 I4.384 J-4.013
N7320 G2 X41.476 Y47.786 I-1.101 J0.741
N7325 G3 X40.312 Y47.01 I-0.14 J-1.051
N7330 X40.39 Y42.751 I7.438 J-1.994
N7335 X40.793 Y42.455 I0.403 J0.126
N7340 G1 X54.707
N7345 G3 X55.11 Y42.751 I0. J0.422
N7350 X47.75 Y52.716 I-7.327 J2.288
N7355 X40.312 Y47.01 I0. J-7.701
N7360 G2 X39.262 Y46.037 I-1.298 J0.348
N7365 G3 X38.353 Y44.931 I0.206 J-1.096
N7370 X39.217 Y41.081 I9.397 J0.088
N7375 X39.729 Y40.755 I0.512 J0.238
N7380 G1 X55.771
N7385 G3 X56.283 Y41.081 I0. J0.565
N7390 X47.75 Y54.416 I-8.505 J3.955
N7395 X38.353 Y44.931 I0. J-9.398
N7400 G2 X37.583 Y43.688 I-1.366 J-0.013
N7405 G3 X36.963 Y42.364 I0.506 J-1.044
N7410 X38.392 Y39.05 I10.787 J2.686
N7415 G1 X57.108
N7420 G3 X38.392 Y51.05 I-9.358 J6.
N7425 X36.963 Y42.364 I9.358 J-6.
N7430 X38.852 Y41.377 Z-6.644 I1.383 J0.344 F333.33
N7435 G1 X48.256 Y44.949 Z-6.828
N7440 G3 X47.75 Y47.707 Z-6.9 I-0.506 J1.332
N7445 G1 X47.547 Y47.705 F1000.
N7450 X47.445 Y47.7
N7455 X47.344 Y47.688
N7460 X47.311 Y47.676
N7465 X47.284 Y47.653
N7470 X47.267 Y47.621
N7475 X47.263 Y47.586
N7480 X47.272 Y47.551
N7485 X47.294 Y47.522
N7490 X47.324 Y47.503
N7495 X47.359 Y47.497
N7500 X48.141
N7505 X48.176 Y47.503
N7510 X48.206 Y47.522
N7515 X48.228 Y47.551
N7520 X48.237 Y47.586
N7525 X48.233 Y47.621
N7530 X48.216 Y47.653
N7535 X48.189 Y47.676
N7540 X48.156 Y47.688
N7545 X48.055 Y47.7
N7550 X47.953 Y47.705
N7555 X47.75 Y47.707
N7560 G2 X46.67 Y48.346 I0. J1.232
N7565 G3 X45.456 Y48.667 I-0.759 J-0.417
N7570 X45.127 Y48.443 I2.294 J-3.727
N7575 X43.582 Y46.15 I2.52 J-3.366
N7580 X43.809 Y45.855 I0.227 J-0.06
N7585 G1 X51.691
N7590 G3 X51.918 Y46.15 I0. J0.235
N7595 X50.373 Y48.443 I-4.065 J-1.073
N7600 X45.456 Y48.667 I-2.623 J-3.503
N7605 G2 X44.088 Y48.659 I-0.691 J1.123
N7610 G3 X42.752 Y48.361 I-0.511 J-0.853
N7615 X41.77 Y44.438 I4.931 J-3.318
N7620 X42.084 Y44.155 I0.314 J0.032
N7625 G1 X53.416
N7630 G3 X53.73 Y44.438 I0. J0.315
N7635 X52.201 Y49.056 I-5.912 J0.605
N7640 X43.299 I-4.451 J-4.074
N7645 X42.752 Y48.361 I4.384 J-4.013
N7650 G2 X41.476 Y47.786 I-1.101 J0.741
N7655 G3 X40.312 Y47.01 I-0.14 J-1.051
N7660 X40.39 Y42.751 I7.438 J-1.994
N7665 X40.793 Y42.455 I0.403 J0.126
N7670 G1 X54.707
N7675 G3 X55.11 Y42.751 I0. J0.422
N7680 X47.75 Y52.716 I-7.327 J2.288
N7685 X40.312 Y47.01 I0. J-7.701
N7690 G2 X39.262 Y46.037 I-1.298 J0.348
N7695 G3 X38.353 Y44.931 I0.206 J-1.096
N7700 X39.217 Y41.081 I9.397 J0.088
N7705 X39.729 Y40.755 I0.512 J0.238
N7710 G1 X55.771
N7715 G3 X56.283 Y41.081 I0. J0.565
N7720 X47.75 Y54.416 I-8.505 J3.955
N7725 X38.353 Y44.931 I0. J-9.398
N7730 G2 X37.583 Y43.688 I-1.366 J-0.013
N7735 G3 X36.963 Y42.364 I0.506 J-1.044
N7740 X38.392 Y39.05 I10.787 J2.686
N7745 G1 X57.108
N7750 G3 X38.392 Y51.05 I-9.358 J6.
N7755 X36.963 Y42.364 I9.358 J-6.
N7760 X38.852 Y41.377 Z-6.944 I1.383 J0.344 F333.33
N7765 G1 X48.256 Y44.949 Z-7.128
N7770 G3 X47.75 Y47.707 Z-7.2 I-0.506 J1.332
N7775 G1 X47.547 Y47.705 F1000.
N7780 X47.445 Y47.7
N7785 X47.344 Y47.688
N7790 X47.311 Y47.676
N7795 X47.284 Y47.653
N7800 X47.267 Y47.621
N7805 X47.263 Y47.586
N7810 X47.272 Y47.551
N7815 X47.294 Y47.522
N7820 X47.324 Y47.503
N7825 X47.359 Y47.497
N7830 X48.141
N7835 X48.176 Y47.503
N7840 X48.206 Y47.522
N7845 X48.228 Y47.551
N7850 X48.237 Y47.586
N7855 X48.233 Y47.621
N7860 X48.216 Y47.653
N7865 X48.189 Y47.676
N7870 X48.156 Y47.688
N7875 X48.055 Y47.7
N7880 X47.953 Y47.705
N7885 X47.75 Y47.707
N7890 G2 X46.67 Y48.346 I0. J1.232
N7895 G3 X45.456 Y48.667 I-0.759 J-0.417
N7900 X45.127 Y48.443 I2.294 J-3.727
N7905 X43.582 Y46.15 I2.52 J-3.366
N7910 X43.809 Y45.855 I0.227 J-0.06
N7915 G1 X51.691
N7920 G3 X51.918 Y46.15 I0. J0.235
N7925 X50.373 Y48.443 I-4.065 J-1.073
N7930 X45.456 Y48.667 I-2.623 J-3.503
N7935 G2 X44.088 Y48.659 I-0.691 J1.123
N7940 G3 X42.752 Y48.361 I-0.511 J-0.853
N7945 X41.77 Y44.438 I4.931 J-3.318
N7950 X42.084 Y44.155 I0.314 J0.032
N7955 G1 X53.416
N7960 G3 X53.73 Y44.438 I0. J0.315
N7965 X52.201 Y49.056 I-5.912 J0.605
N7970 X43.299 I-4.451 J-4.074
N7975 X42.752 Y48.361 I4.384 J-4.013
N7980 G2 X41.476 Y47.786 I-1.101 J0.741
N7985 G3 X40.312 Y47.01 I-0.14 J-1.051
N7990 X40.39 Y42.751 I7.438 J-1.994
N7995 X40.793 Y42.455 I0.403 J0.126
N8000 G1 X54.707
N8005 G3 X55.11 Y42.751 I0. J0.422
N8010 X47.75 Y52.716 I-7.327 J2.288
N8015 X40.312 Y47.01 I0. J-7.701
N8020 G2 X39.262 Y46.037 I-1.298 J0.348
N8025 G3 X38.353 Y44.931 I0.206 J-1.096
N8030 X39.217 Y41.081 I9.397 J0.088
N8035 X39.729 Y40.755 I0.512 J0.238
N8040 G1 X55.771
N8045 G3 X56.283 Y41.081 I0. J0.565
N8050 X47.75 Y54.416 I-8.505 J3.955
N8055 X38.353 Y44.931 I0. J-9.398
N8060 G2 X37.583 Y43.688 I-1.366 J-0.013
N8065 G3 X36.963 Y42.364 I0.506 J-1.044
N8070 X38.392 Y39.05 I10.787 J2.686
N8075 G1 X57.108
N8080 G3 X38.392 Y51.05 I-9.358 J6.
N8085 X36.963 Y42.364 I9.358 J-6.
N8090 X38.852 Y41.377 Z-7.244 I1.383 J0.344 F333.33
N8095 G1 X48.256 Y44.949 Z-7.428
N8100 G3 X47.75 Y47.707 Z-7.5 I-0.506 J1.332
N8105 G1 X47.547 Y47.705 F1000.
N8110 X47.445 Y47.7
N8115 X47.344 Y47.688
N8120 X47.311 Y47.676
N8125 X47.284 Y47.653
N8130 X47.267 Y47.621
N8135 X47.263 Y47.586
N8140 X47.272 Y47.551
N8145 X47.294 Y47.522
N8150 X47.324 Y47.503
N8155 X47.359 Y47.497
N8160 X48.141
N8165 X48.176 Y47.503
N8170 X48.206 Y47.522
N8175 X48.228 Y47.551
N8180 X48.237 Y47.586
N8185 X48.233 Y47.621
N8190 X48.216 Y47.653
N8195 X48.189 Y47.676
N8200 X48.156 Y47.688
N8205 X48.055 Y47.7
N8210 X47.953 Y47.705
N8215 X47.75 Y47.707
N8220 G2 X46.67 Y48.346 I0. J1.232
N8225 G3 X45.456 Y48.667 I-0.759 J-0.417
N8230 X45.127 Y48.443 I2.294 J-3.727
N8235 X43.582 Y46.15 I2.52 J-3.366
N8240 X43.809 Y45.855 I0.227 J-0.06
N8245 G1 X51.691
N8250 G3 X51.918 Y46.15 I0. J0.235
N8255 X50.373 Y48.443 I-4.065 J-1.073
N8260 X45.456 Y48.667 I-2.623 J-3.503
N8265 G2 X44.088 Y48.659 I-0.691 J1.123
N8270 G3 X42.752 Y48.361 I-0.511 J-0.853
N8275 X41.77 Y44.438 I4.931 J-3.318
N8280 X42.084 Y44.155 I0.314 J0.032
N8285 G1 X53.416
N8290 G3 X53.73 Y44.438 I0. J0.315
N8295 X52.201 Y49.056 I-5.912 J0.605
N8300 X43.299 I-4.451 J-4.074
N8305 X42.752 Y48.361 I4.384 J-4.013
N8310 G2 X41.476 Y47.786 I-1.101 J0.741
N8315 G3 X40.312 Y47.01 I-0.14 J-1.051
N8320 X40.39 Y42.751 I7.438 J-1.994
N8325 X40.793 Y42.455 I0.403 J0.126
N8330 G1 X54.707
N8335 G3 X55.11 Y42.751 I0. J0.422
N8340 X47.75 Y52.716 I-7.327 J2.288
N8345 X40.312 Y47.01 I0. J-7.701
N8350 G2 X39.262 Y46.037 I-1.298 J0.348
N8355 G3 X38.353 Y44.931 I0.206 J-1.096
N8360 X39.217 Y41.081 I9.397 J0.088
N8365 X39.729 Y40.755 I0.512 J0.238
N8370 G1 X55.771
N8375 G3 X56.283 Y41.081 I0. J0.565
N8380 X47.75 Y54.416 I-8.505 J3.955
N8385 X38.353 Y44.931 I0. J-9.398
N8390 G2 X37.583 Y43.688 I-1.366 J-0.013
N8395 G3 X36.963 Y42.364 I0.506 J-1.044
N8400 X38.392 Y39.05 I10.787 J2.686
N8405 G1 X57.108
N8410 G3 X38.392 Y51.05 I-9.358 J6.
N8415 X36.963 Y42.364 I9.358 J-6.
N8420 X38.852 Y41.377 Z-7.544 I1.383 J0.344 F333.33
N8425 G1 X48.256 Y44.949 Z-7.728
N8430 G3 X47.75 Y47.707 Z-7.8 I-0.506 J1.332
N8435 G1 X47.547 Y47.705 F1000.
N8440 X47.445 Y47.7
N8445 X47.344 Y47.688
N8450 X47.311 Y47.676
N8455 X47.284 Y47.653
N8460 X47.267 Y47.621
N8465 X47.263 Y47.586
N8470 X47.272 Y47.551
N8475 X47.294 Y47.522
N8480 X47.324 Y47.503
N8485 X47.359 Y47.497
N8490 X48.141
N8495 X48.176 Y47.503
N8500 X48.206 Y47.522
N8505 X48.228 Y47.551
N8510 X48.237 Y47.586
N8515 X48.233 Y47.621
N8520 X48.216 Y47.653
N8525 X48.189 Y47.676
N8530 X48.156 Y47.688
N8535 X48.055 Y47.7
N8540 X47.953 Y47.705
N8545 X47.75 Y47.707
N8550 G2 X46.67 Y48.346 I0. J1.232
N8555 G3 X45.456 Y48.667 I-0.759 J-0.417
N8560 X45.127 Y48.443 I2.294 J-3.727
N8565 X43.582 Y46.15 I2.52 J-3.366
N8570 X43.809 Y45.855 I0.227 J-0.06
N8575 G1 X51.691
N8580 G3 X51.918 Y46.15 I0. J0.235
N8585 X50.373 Y48.443 I-4.065 J-1.073
N8590 X45.456 Y48.667 I-2.623 J-3.503
N8595 G2 X44.088 Y48.659 I-0.691 J1.123
N8600 G3 X42.752 Y48.361 I-0.511 J-0.853
N8605 X41.77 Y44.438 I4.931 J-3.318
N8610 X42.084 Y44.155 I0.314 J0.032
N8615 G1 X53.416
N8620 G3 X53.73 Y44.438 I0. J0.315
N8625 X52.201 Y49.056 I-5.912 J0.605
N8630 X43.299 I-4.451 J-4.074
N8635 X42.752 Y48.361 I4.384 J-4.013
N8640 G2 X41.476 Y47.786 I-1.101 J0.741
N8645 G3 X40.312 Y47.01 I-0.14 J-1.051
N8650 X40.39 Y42.751 I7.438 J-1.994
N8655 X40.793 Y42.455 I0.403 J0.126
N8660 G1 X54.707
N8665 G3 X55.11 Y42.751 I0. J0.422
N8670 X47.75 Y52.716 I-7.327 J2.288
N8675 X40.312 Y47.01 I0. J-7.701
N8680 G2 X39.262 Y46.037 I-1.298 J0.348
N8685 G3 X38.353 Y44.931 I0.206 J-1.096
N8690 X39.217 Y41.081 I9.397 J0.088
N8695 X39.729 Y40.755 I0.512 J0.238
N8700 G1 X55.771
N8705 G3 X56.283 Y41.081 I0. J0.565
N8710 X47.75 Y54.416 I-8.505 J3.955
N8715 X38.353 Y44.931 I0. J-9.398
N8720 G2 X37.583 Y43.688 I-1.366 J-0.013
N8725 G3 X36.963 Y42.364 I0.506 J-1.044
N8730 X38.392 Y39.05 I10.787 J2.686
N8735 G1 X57.108
N8740 G3 X38.392 Y51.05 I-9.358 J6.
N8745 X36.963 Y42.364 I9.358 J-6.
N8750 X38.852 Y41.377 Z-7.844 I1.383 J0.344 F333.33
N8755 G1 X48.256 Y44.949 Z-8.028
N8760 G3 X47.75 Y47.707 Z-8.1 I-0.506 J1.332
N8765 G1 X47.547 Y47.705 F1000.
N8770 X47.445 Y47.7
N8775 X47.344 Y47.688
N8780 X47.311 Y47.676
N8785 X47.284 Y47.653
N8790 X47.267 Y47.621
N8795 X47.263 Y47.586
N8800 X47.272 Y47.551
N8805 X47.294 Y47.522
N8810 X47.324 Y47.503
N8815 X47.359 Y47.497
N8820 X48.141
N8825 X48.176 Y47.503
N8830 X48.206 Y47.522
N8835 X48.228 Y47.551
N8840 X48.237 Y47.586
N8845 X48.233 Y47.621
N8850 X48.216 Y47.653
N8855 X48.189 Y47.676
N8860 X48.156 Y47.688
N8865 X48.055 Y47.7
N8870 X47.953 Y47.705
N8875 X47.75 Y47.707
N8880 G2 X46.67 Y48.346 I0. J1.232
N8885 G3 X45.456 Y48.667 I-0.759 J-0.417
N8890 X45.127 Y48.443 I2.294 J-3.727
N8895 X43.582 Y46.15 I2.52 J-3.366
N8900 X43.809 Y45.855 I0.227 J-0.06
N8905 G1 X51.691
N8910 G3 X51.918 Y46.15 I0. J0.235
N8915 X50.373 Y48.443 I-4.065 J-1.073
N8920 X45.456 Y48.667 I-2.623 J-3.503
N8925 G2 X44.088 Y48.659 I-0.691 J1.123
N8930 G3 X42.752 Y48.361 I-0.511 J-0.853
N8935 X41.77 Y44.438 I4.931 J-3.318
N8940 X42.084 Y44.155 I0.314 J0.032
N8945 G1 X53.416
N8950 G3 X53.73 Y44.438 I0. J0.315
N8955 X52.201 Y49.056 I-5.912 J0.605
N8960 X43.299 I-4.451 J-4.074
N8965 X42.752 Y48.361 I4.384 J-4.013
N8970 G2 X41.476 Y47.786 I-1.101 J0.741
N8975 G3 X40.312 Y47.01 I-0.14 J-1.051
N8980 X40.39 Y42.751 I7.438 J-1.994
N8985 X40.793 Y42.455 I0.403 J0.126
N8990 G1 X54.707
N8995 G3 X55.11 Y42.751 I0. J0.422
N9000 X47.75 Y52.716 I-7.327 J2.288
N9005 X40.312 Y47.01 I0. J-7.701
N9010 G2 X39.262 Y46.037 I-1.298 J0.348
N9015 G3 X38.353 Y44.931 I0.206 J-1.096
N9020 X39.217 Y41.081 I9.397 J0.088
N9025 X39.729 Y40.755 I0.512 J0.238
N9030 G1 X55.771
N9035 G3 X56.283 Y41.081 I0. J0.565
N9040 X47.75 Y54.416 I-8.505 J3.955
N9045 X38.353 Y44.931 I0. J-9.398
N9050 G2 X37.583 Y43.688 I-1.366 J-0.013
N9055 G3 X36.963 Y42.364 I0.506 J-1.044
N9060 X38.392 Y39.05 I10.787 J2.686
N9065 G1 X57.108
N9070 G3 X38.392 Y51.05 I-9.358 J6.
N9075 X36.963 Y42.364 I9.358 J-6.
N9080 X38.852 Y41.377 Z-8.144 I1.383 J0.344 F333.33
N9085 G1 X48.256 Y44.949 Z-8.328
N9090 G3 X47.75 Y47.707 Z-8.4 I-0.506 J1.332
N9095 G1 X47.547 Y47.705 F1000.
N9100 X47.445 Y47.7
N9105 X47.344 Y47.688
N9110 X47.311 Y47.676
N9115 X47.284 Y47.653
N9120 X47.267 Y47.621
N9125 X47.263 Y47.586
N9130 X47.272 Y47.551
N9135 X47.294 Y47.522
N9140 X47.324 Y47.503
N9145 X47.359 Y47.497
N9150 X48.141
N9155 X48.176 Y47.503
N9160 X48.206 Y47.522
N9165 X48.228 Y47.551
N9170 X48.237 Y47.586
N9175 X48.233 Y47.621
N9180 X48.216 Y47.653
N9185 X48.189 Y47.676
N9190 X48.156 Y47.688
N9195 X48.055 Y47.7
N9200 X47.953 Y47.705
N9205 X47.75 Y47.707
N9210 G2 X46.67 Y48.346 I0. J1.232
N9215 G3 X45.456 Y48.667 I-0.759 J-0.417
N9220 X45.127 Y48.443 I2.294 J-3.727
N9225 X43.582 Y46.15 I2.52 J-3.366
N9230 X43.809 Y45.855 I0.227 J-0.06
N9235 G1 X51.691
N9240 G3 X51.918 Y46.15 I0. J0.235
N9245 X50.373 Y48.443 I-4.065 J-1.073
N9250 X45.456 Y48.667 I-2.623 J-3.503
N9255 G2 X44.088 Y48.659 I-0.691 J1.123
N9260 G3 X42.752 Y48.361 I-0.511 J-0.853
N9265 X41.77 Y44.438 I4.931 J-3.318
N9270 X42.084 Y44.155 I0.314 J0.032
N9275 G1 X53.416
N9280 G3 X53.73 Y44.438 I0. J0.315
N9285 X52.201 Y49.056 I-5.912 J0.605
N9290 X43.299 I-4.451 J-4.074
N9295 X42.752 Y48.361 I4.384 J-4.013
N9300 G2 X41.476 Y47.786 I-1.101 J0.741
N9305 G3 X40.312 Y47.01 I-0.14 J-1.051
N9310 X40.39 Y42.751 I7.438 J-1.994
N9315 X40.793 Y42.455 I0.403 J0.126
N9320 G1 X54.707
N9325 G3 X55.11 Y42.751 I0. J0.422
N9330 X47.75 Y52.716 I-7.327 J2.288
N9335 X40.312 Y47.01 I0. J-7.701
N9340 G2 X39.262 Y46.037 I-1.298 J0.348
N9345 G3 X38.353 Y44.931 I0.206 J-1.096
N9350 X39.217 Y41.081 I9.397 J0.088
N9355 X39.729 Y40.755 I0.512 J0.238
N9360 G1 X55.771
N9365 G3 X56.283 Y41.081 I0. J0.565
N9370 X47.75 Y54.416 I-8.505 J3.955
N9375 X38.353 Y44.931 I0. J-9.398
N9380 G2 X37.583 Y43.688 I-1.366 J-0.013
N9385 G3 X36.963 Y42.364 I0.506 J-1.044
N9390 X38.392 Y39.05 I10.787 J2.686
N9395 G1 X57.108
N9400 G3 X38.392 Y51.05 I-9.358 J6.
N9405 X36.963 Y42.364 I9.358 J-6.
N9410 X38.852 Y41.377 Z-8.444 I1.383 J0.344 F333.33
N9415 G1 X48.256 Y44.949 Z-8.628
N9420 G3 X47.75 Y47.707 Z-8.7 I-0.506 J1.332
N9425 G1 X47.547 Y47.705 F1000.
N9430 X47.445 Y47.7
N9435 X47.344 Y47.688
N9440 X47.311 Y47.676
N9445 X47.284 Y47.653
N9450 X47.267 Y47.621
N9455 X47.263 Y47.586
N9460 X47.272 Y47.551
N9465 X47.294 Y47.522
N9470 X47.324 Y47.503
N9475 X47.359 Y47.497
N9480 X48.141
N9485 X48.176 Y47.503
N9490 X48.206 Y47.522
N9495 X48.228 Y47.551
N9500 X48.237 Y47.586
N9505 X48.233 Y47.621
N9510 X48.216 Y47.653
N9515 X48.189 Y47.676
N9520 X48.156 Y47.688
N9525 X48.055 Y47.7
N9530 X47.953 Y47.705
N9535 X47.75 Y47.707
N9540 G2 X46.67 Y48.346 I0. J1.232
N9545 G3 X45.456 Y48.667 I-0.759 J-0.417
N9550 X45.127 Y48.443 I2.294 J-3.727
N9555 X43.582 Y46.15 I2.52 J-3.366
N9560 X43.809 Y45.855 I0.227 J-0.06
N9565 G1 X51.691
N9570 G3 X51.918 Y46.15 I0. J0.235
N9575 X50.373 Y48.443 I-4.065 J-1.073
N9580 X45.456 Y48.667 I-2.623 J-3.503
N9585 G2 X44.088 Y48.659 I-0.691 J1.123
N9590 G3 X42.752 Y48.361 I-0.511 J-0.853
N9595 X41.77 Y44.438 I4.931 J-3.318
N9600 X42.084 Y44.155 I0.314 J0.032
N9605 G1 X53.416
N9610 G3 X53.73 Y44.438 I0. J0.315
N9615 X52.201 Y49.056 I-5.912 J0.605
N9620 X43.299 I-4.451 J-4.074
N9625 X42.752 Y48.361 I4.384 J-4.013
N9630 G2 X41.476 Y47.786 I-1.101 J0.741
N9635 G3 X40.312 Y47.01 I-0.14 J-1.051
N9640 X40.39 Y42.751 I7.438 J-1.994
N9645 X40.793 Y42.455 I0.403 J0.126
N9650 G1 X54.707
N9655 G3 X55.11 Y42.751 I0. J0.422
N9660 X47.75 Y52.716 I-7.327 J2.288
N9665 X40.312 Y47.01 I0. J-7.701
N9670 G2 X39.262 Y46.037 I-1.298 J0.348
N9675 G3 X38.353 Y44.931 I0.206 J-1.096
N9680 X39.217 Y41.081 I9.397 J0.088
N9685 X39.729 Y40.755 I0.512 J0.238
N9690 G1 X55.771
N9695 G3 X56.283 Y41.081 I0. J0.565
N9700 X47.75 Y54.416 I-8.505 J3.955
N9705 X38.353 Y44.931 I0. J-9.398
N9710 G2 X37.583 Y43.688 I-1.366 J-0.013
N9715 G3 X36.963 Y42.364 I0.506 J-1.044
N9720 X38.392 Y39.05 I10.787 J2.686
N9725 G1 X57.108
N9730 G3 X38.392 Y51.05 I-9.358 J6.
N9735 X36.963 Y42.364 I9.358 J-6.
N9740 X38.852 Y41.377 Z-8.744 I1.383 J0.344 F333.33
N9745 G1 X48.256 Y44.949 Z-8.928
N9750 G3 X47.75 Y47.707 Z-9. I-0.506 J1.332
N9755 G1 X47.547 Y47.705 F1000.
N9760 X47.445 Y47.7
N9765 X47.344 Y47.688
N9770 X47.311 Y47.676
N9775 X47.284 Y47.653
N9780 X47.267 Y47.621
N9785 X47.263 Y47.586
N9790 X47.272 Y47.551
N9795 X47.294 Y47.522
N9800 X47.324 Y47.503
N9805 X47.359 Y47.497
N9810 X48.141
N9815 X48.176 Y47.503
N9820 X48.206 Y47.522
N9825 X48.228 Y47.551
N9830 X48.237 Y47.586
N9835 X48.233 Y47.621
N9840 X48.216 Y47.653
N9845 X48.189 Y47.676
N9850 X48.156 Y47.688
N9855 X48.055 Y47.7
N9860 X47.953 Y47.705
N9865 X47.75 Y47.707
N9870 G2 X46.67 Y48.346 I0. J1.232
N9875 G3 X45.456 Y48.667 I-0.759 J-0.417
N9880 X45.127 Y48.443 I2.294 J-3.727
N9885 X43.582 Y46.15 I2.52 J-3.366
N9890 X43.809 Y45.855 I0.227 J-0.06
N9895 G1 X51.691
N9900 G3 X51.918 Y46.15 I0. J0.235
N9905 X50.373 Y48.443 I-4.065 J-1.073
N9910 X45.456 Y48.667 I-2.623 J-3.503
N9915 G2 X44.088 Y48.659 I-0.691 J1.123
N9920 G3 X42.752 Y48.361 I-0.511 J-0.853
N9925 X41.77 Y44.438 I4.931 J-3.318
N9930 X42.084 Y44.155 I0.314 J0.032
N9935 G1 X53.416
N9940 G3 X53.73 Y44.438 I0. J0.315
N9945 X52.201 Y49.056 I-5.912 J0.605
N9950 X43.299 I-4.451 J-4.074
N9955 X42.752 Y48.361 I4.384 J-4.013
N9960 G2 X41.476 Y47.786 I-1.101 J0.741
N9965 G3 X40.312 Y47.01 I-0.14 J-1.051
N9970 X40.39 Y42.751 I7.438 J-1.994
N9975 X40.793 Y42.455 I0.403 J0.126
N9980 G1 X54.707
N9985 G3 X55.11 Y42.751 I0. J0.422
N9990 X47.75 Y52.716 I-7.327 J2.288
N9995 X40.312 Y47.01 I0. J-7.701
N10000 G2 X39.262 Y46.037 I-1.298 J0.348
N10005 G3 X38.353 Y44.931 I0.206 J-1.096
N10010 X39.217 Y41.081 I9.397 J0.088
N10015 X39.729 Y40.755 I0.512 J0.238
N10020 G1 X55.771
N10025 G3 X56.283 Y41.081 I0. J0.565
N10030 X47.75 Y54.416 I-8.505 J3.955
N10035 X38.353 Y44.931 I0. J-9.398
N10040 G2 X37.583 Y43.688 I-1.366 J-0.013
N10045 G3 X36.963 Y42.364 I0.506 J-1.044
N10050 X38.392 Y39.05 I10.787 J2.686
N10055 G1 X57.108
N10060 G3 X38.392 Y51.05 I-9.358 J6.
N10065 X36.963 Y42.364 I9.358 J-6.
N10070 X38.852 Y41.377 Z-9.044 I1.383 J0.344 F333.33
N10075 G1 X48.256 Y44.949 Z-9.228
N10080 G3 X47.75 Y47.707 Z-9.3 I-0.506 J1.332
N10085 G1 X47.547 Y47.705 F1000.
N10090 X47.445 Y47.7
N10095 X47.344 Y47.688
N10100 X47.311 Y47.676
N10105 X47.284 Y47.653
N10110 X47.267 Y47.621
N10115 X47.263 Y47.586
N10120 X47.272 Y47.551
N10125 X47.294 Y47.522
N10130 X47.324 Y47.503
N10135 X47.359 Y47.497
N10140 X48.141
N10145 X48.176 Y47.503
N10150 X48.206 Y47.522
N10155 X48.228 Y47.551
N10160 X48.237 Y47.586
N10165 X48.233 Y47.621
N10170 X48.216 Y47.653
N10175 X48.189 Y47.676
N10180 X48.156 Y47.688
N10185 X48.055 Y47.7
N10190 X47.953 Y47.705
N10195 X47.75 Y47.707
N10200 G2 X46.67 Y48.346 I0. J1.232
N10205 G3 X45.456 Y48.667 I-0.759 J-0.417
N10210 X45.127 Y48.443 I2.294 J-3.727
N10215 X43.582 Y46.15 I2.52 J-3.366
N10220 X43.809 Y45.855 I0.227 J-0.06
N10225 G1 X51.691
N10230 G3 X51.918 Y46.15 I0. J0.235
N10235 X50.373 Y48.443 I-4.065 J-1.073
N10240 X45.456 Y48.667 I-2.623 J-3.503
N10245 G2 X44.088 Y48.659 I-0.691 J1.123
N10250 G3 X42.752 Y48.361 I-0.511 J-0.853
N10255 X41.77 Y44.438 I4.931 J-3.318
N10260 X42.084 Y44.155 I0.314 J0.032
N10265 G1 X53.416
N10270 G3 X53.73 Y44.438 I0. J0.315
N10275 X52.201 Y49.056 I-5.912 J0.605
N10280 X43.299 I-4.451 J-4.074
N10285 X42.752 Y48.361 I4.384 J-4.013
N10290 G2 X41.476 Y47.786 I-1.101 J0.741
N10295 G3 X40.312 Y47.01 I-0.14 J-1.051
N10300 X40.39 Y42.751 I7.438 J-1.994
N10305 X40.793 Y42.455 I0.403 J0.126
N10310 G1 X54.707
N10315 G3 X55.11 Y42.751 I0. J0.422
N10320 X47.75 Y52.716 I-7.327 J2.288
N10325 X40.312 Y47.01 I0. J-7.701
N10330 G2 X39.262 Y46.037 I-1.298 J0.348
N10335 G3 X38.353 Y44.931 I0.206 J-1.096
N10340 X39.217 Y41.081 I9.397 J0.088
N10345 X39.729 Y40.755 I0.512 J0.238
N10350 G1 X55.771
N10355 G3 X56.283 Y41.081 I0. J0.565
N10360 X47.75 Y54.416 I-8.505 J3.955
N10365 X38.353 Y44.931 I0. J-9.398
N10370 G2 X37.583 Y43.688 I-1.366 J-0.013
N10375 G3 X36.963 Y42.364 I0.506 J-1.044
N10380 X38.392 Y39.05 I10.787 J2.686
N10385 G1 X57.108
N10390 G3 X38.392 Y51.05 I-9.358 J6.
N10395 X36.963 Y42.364 I9.358 J-6.
N10400 X38.852 Y41.377 Z-9.344 I1.383 J0.344 F333.33
N10405 G1 X48.256 Y44.949 Z-9.528
N10410 G3 X47.75 Y47.707 Z-9.6 I-0.506 J1.332
N10415 G1 X47.547 Y47.705 F1000.
N10420 X47.445 Y47.7
N10425 X47.344 Y47.688
N10430 X47.311 Y47.676
N10435 X47.284 Y47.653
N10440 X47.267 Y47.621
N10445 X47.263 Y47.586
N10450 X47.272 Y47.551
N10455 X47.294 Y47.522
N10460 X47.324 Y47.503
N10465 X47.359 Y47.497
N10470 X48.141
N10475 X48.176 Y47.503
N10480 X48.206 Y47.522
N10485 X48.228 Y47.551
N10490 X48.237 Y47.586
N10495 X48.233 Y47.621
N10500 X48.216 Y47.653
N10505 X48.189 Y47.676
N10510 X48.156 Y47.688
N10515 X48.055 Y47.7
N10520 X47.953 Y47.705
N10525 X47.75 Y47.707
N10530 G2 X46.67 Y48.346 I0. J1.232
N10535 G3 X45.456 Y48.667 I-0.759 J-0.417
N10540 X45.127 Y48.443 I2.294 J-3.727
N10545 X43.582 Y46.15 I2.52 J-3.366
N10550 X43.809 Y45.855 I0.227 J-0.06
N10555 G1 X51.691
N10560 G3 X51.918 Y46.15 I0. J0.235
N10565 X50.373 Y48.443 I-4.065 J-1.073
N10570 X45.456 Y48.667 I-2.623 J-3.503
N10575 G2 X44.088 Y48.659 I-0.691 J1.123
N10580 G3 X42.752 Y48.361 I-0.511 J-0.853
N10585 X41.77 Y44.438 I4.931 J-3.318
N10590 X42.084 Y44.155 I0.314 J0.032
N10595 G1 X53.416
N10600 G3 X53.73 Y44.438 I0. J0.315
N10605 X52.201 Y49.056 I-5.912 J0.605
N10610 X43.299 I-4.451 J-4.074
N10615 X42.752 Y48.361 I4.384 J-4.013
N10620 G2 X41.476 Y47.786 I-1.101 J0.741
N10625 G3 X40.312 Y47.01 I-0.14 J-1.051
N10630 X40.39 Y42.751 I7.438 J-1.994
N10635 X40.793 Y42.455 I0.403 J0.126
N10640 G1 X54.707
N10645 G3 X55.11 Y42.751 I0. J0.422
N10650 X47.75 Y52.716 I-7.327 J2.288
N10655 X40.312 Y47.01 I0. J-7.701
N10660 G2 X39.262 Y46.037 I-1.298 J0.348
N10665 G3 X38.353 Y44.931 I0.206 J-1.096
N10670 X39.217 Y41.081 I9.397 J0.088
N10675 X39.729 Y40.755 I0.512 J0.238
N10680 G1 X55.771
N10685 G3 X56.283 Y41.081 I0. J0.565
N10690 X47.75 Y54.416 I-8.505 J3.955
N10695 X38.353 Y44.931 I0. J-9.398
N10700 G2 X37.583 Y43.688 I-1.366 J-0.013
N10705 G3 X36.963 Y42.364 I0.506 J-1.044
N10710 X38.392 Y39.05 I10.787 J2.686
N10715 G1 X57.108
N10720 G3 X38.392 Y51.05 I-9.358 J6.
N10725 X36.963 Y42.364 I9.358 J-6.
N10730 X38.852 Y41.377 Z-9.644 I1.383 J0.344 F333.33
N10735 G1 X48.256 Y44.949 Z-9.828
N10740 G3 X47.75 Y47.707 Z-9.9 I-0.506 J1.332
N10745 G1 X47.547 Y47.705 F1000.
N10750 X47.445 Y47.7
N10755 X47.344 Y47.688
N10760 X47.311 Y47.676
N10765 X47.284 Y47.653
N10770 X47.267 Y47.621
N10775 X47.263 Y47.586
N10780 X47.272 Y47.551
N10785 X47.294 Y47.522
N10790 X47.324 Y47.503
N10795 X47.359 Y47.497
N10800 X48.141
N10805 X48.176 Y47.503
N10810 X48.206 Y47.522
N10815 X48.228 Y47.551
N10820 X48.237 Y47.586
N10825 X48.233 Y47.621
N10830 X48.216 Y47.653
N10835 X48.189 Y47.676
N10840 X48.156 Y47.688
N10845 X48.055 Y47.7
N10850 X47.953 Y47.705
N10855 X47.75 Y47.707
N10860 G2 X46.67 Y48.346 I0. J1.232
N10865 G3 X45.456 Y48.667 I-0.759 J-0.417
N10870 X45.127 Y48.443 I2.294 J-3.727
N10875 X43.582 Y46.15 I2.52 J-3.366
N10880 X43.809 Y45.855 I0.227 J-0.06
N10885 G1 X51.691
N10890 G3 X51.918 Y46.15 I0. J0.235
N10895 X50.373 Y48.443 I-4.065 J-1.073
N10900 X45.456 Y48.667 I-2.623 J-3.503
N10905 G2 X44.088 Y48.659 I-0.691 J1.123
N10910 G3 X42.752 Y48.361 I-0.511 J-0.853
N10915 X41.77 Y44.438 I4.931 J-3.318
N10920 X42.084 Y44.155 I0.314 J0.032
N10925 G1 X53.416
N10930 G3 X53.73 Y44.438 I0. J0.315
N10935 X52.201 Y49.056 I-5.912 J0.605
N10940 X43.299 I-4.451 J-4.074
N10945 X42.752 Y48.361 I4.384 J-4.013
N10950 G2 X41.476 Y47.786 I-1.101 J0.741
N10955 G3 X40.312 Y47.01 I-0.14 J-1.051
N10960 X40.39 Y42.751 I7.438 J-1.994
N10965 X40.793 Y42.455 I0.403 J0.126
N10970 G1 X54.707
N10975 G3 X55.11 Y42.751 I0. J0.422
N10980 X47.75 Y52.716 I-7.327 J2.288
N10985 X40.312 Y47.01 I0. J-7.701
N10990 G2 X39.262 Y46.037 I-1.298 J0.348
N10995 G3 X38.353 Y44.931 I0.206 J-1.096
N11000 X39.217 Y41.081 I9.397 J0.088
N11005 X39.729 Y40.755 I0.512 J0.238
N11010 G1 X55.771
N11015 G3 X56.283 Y41.081 I0. J0.565
N11020 X47.75 Y54.416 I-8.505 J3.955
N11025 X38.353 Y44.931 I0. J-9.398
N11030 G2 X37.583 Y43.688 I-1.366 J-0.013
N11035 G3 X36.963 Y42.364 I0.506 J-1.044
N11040 X38.392 Y39.05 I10.787 J2.686
N11045 G1 X57.108
N11050 G3 X38.392 Y51.05 I-9.358 J6.
N11055 X36.963 Y42.364 I9.358 J-6.
N11060 X38.852 Y41.377 Z-9.944 I1.383 J0.344 F333.33
N11065 G1 X48.256 Y44.949 Z-10.128
N11070 G3 X47.75 Y47.707 Z-10.2 I-0.506 J1.332
N11075 G1 X47.547 Y47.705 F1000.
N11080 X47.445 Y47.7
N11085 X47.344 Y47.688
N11090 X47.311 Y47.676
N11095 X47.284 Y47.653
N11100 X47.267 Y47.621
N11105 X47.263 Y47.586
N11110 X47.272 Y47.551
N11115 X47.294 Y47.522
N11120 X47.324 Y47.503
N11125 X47.359 Y47.497
N11130 X48.141
N11135 X48.176 Y47.503
N11140 X48.206 Y47.522
N11145 X48.228 Y47.551
N11150 X48.237 Y47.586
N11155 X48.233 Y47.621
N11160 X48.216 Y47.653
N11165 X48.189 Y47.676
N11170 X48.156 Y47.688
N11175 X48.055 Y47.7
N11180 X47.953 Y47.705
N11185 X47.75 Y47.707
N11190 G2 X46.67 Y48.346 I0. J1.232
N11195 G3 X45.456 Y48.667 I-0.759 J-0.417
N11200 X45.127 Y48.443 I2.294 J-3.727
N11205 X43.582 Y46.15 I2.52 J-3.366
N11210 X43.809 Y45.855 I0.227 J-0.06
N11215 G1 X51.691
N11220 G3 X51.918 Y46.15 I0. J0.235
N11225 X50.373 Y48.443 I-4.065 J-1.073
N11230 X45.456 Y48.667 I-2.623 J-3.503
N11235 G2 X44.088 Y48.659 I-0.691 J1.123
N11240 G3 X42.752 Y48.361 I-0.511 J-0.853
N11245 X41.77 Y44.438 I4.931 J-3.318
N11250 X42.084 Y44.155 I0.314 J0.032
N11255 G1 X53.416
N11260 G3 X53.73 Y44.438 I0. J0.315
N11265 X52.201 Y49.056 I-5.912 J0.605
N11270 X43.299 I-4.451 J-4.074
N11275 X42.752 Y48.361 I4.384 J-4.013
N11280 G2 X41.476 Y47.786 I-1.101 J0.741
N11285 G3 X40.312 Y47.01 I-0.14 J-1.051
N11290 X40.39 Y42.751 I7.438 J-1.994
N11295 X40.793 Y42.455 I0.403 J0.126
N11300 G1 X54.707
N11305 G3 X55.11 Y42.751 I0. J0.422
N11310 X47.75 Y52.716 I-7.327 J2.288
N11315 X40.312 Y47.01 I0. J-7.701
N11320 G2 X39.262 Y46.037 I-1.298 J0.348
N11325 G3 X38.353 Y44.931 I0.206 J-1.096
N11330 X39.217 Y41.081 I9.397 J0.088
N11335 X39.729 Y40.755 I0.512 J0.238
N11340 G1 X55.771
N11345 G3 X56.283 Y41.081 I0. J0.565
N11350 X47.75 Y54.416 I-8.505 J3.955
N11355 X38.353 Y44.931 I0. J-9.398
N11360 G2 X37.583 Y43.688 I-1.366 J-0.013
N11365 G3 X36.963 Y42.364 I0.506 J-1.044
N11370 X38.392 Y39.05 I10.787 J2.686
N11375 G1 X57.108
N11380 G3 X38.392 Y51.05 I-9.358 J6.
N11385 X36.963 Y42.364 I9.358 J-6.
N11390 X38.852 Y41.377 Z-10.244 I1.383 J0.344 F333.33
N11395 G1 X48.256 Y44.949 Z-10.428
N11400 G3 X47.75 Y47.707 Z-10.5 I-0.506 J1.332
N11405 G1 X47.547 Y47.705 F1000.
N11410 X47.445 Y47.7
N11415 X47.344 Y47.688
N11420 X47.311 Y47.676
N11425 X47.284 Y47.653
N11430 X47.267 Y47.621
N11435 X47.263 Y47.586
N11440 X47.272 Y47.551
N11445 X47.294 Y47.522
N11450 X47.324 Y47.503
N11455 X47.359 Y47.497
N11460 X48.141
N11465 X48.176 Y47.503
N11470 X48.206 Y47.522
N11475 X48.228 Y47.551
N11480 X48.237 Y47.586
N11485 X48.233 Y47.621
N11490 X48.216 Y47.653
N11495 X48.189 Y47.676
N11500 X48.156 Y47.688
N11505 X48.055 Y47.7
N11510 X47.953 Y47.705
N11515 X47.75 Y47.707
N11520 G2 X46.67 Y48.346 I0. J1.232
N11525 G3 X45.456 Y48.667 I-0.759 J-0.417
N11530 X45.127 Y48.443 I2.294 J-3.727
N11535 X43.582 Y46.15 I2.52 J-3.366
N11540 X43.809 Y45.855 I0.227 J-0.06
N11545 G1 X51.691
N11550 G3 X51.918 Y46.15 I0. J0.235
N11555 X50.373 Y48.443 I-4.065 J-1.073
N11560 X45.456 Y48.667 I-2.623 J-3.503
N11565 G2 X44.088 Y48.659 I-0.691 J1.123
N11570 G3 X42.752 Y48.361 I-0.511 J-0.853
N11575 X41.77 Y44.438 I4.931 J-3.318
N11580 X42.084 Y44.155 I0.314 J0.032
N11585 G1 X53.416
N11590 G3 X53.73 Y44.438 I0. J0.315
N11595 X52.201 Y49.056 I-5.912 J0.605
N11600 X43.299 I-4.451 J-4.074
N11605 X42.752 Y48.361 I4.384 J-4.013
N11610 G2 X41.476 Y47.786 I-1.101 J0.741
N11615 G3 X40.312 Y47.01 I-0.14 J-1.051
N11620 X40.39 Y42.751 I7.438 J-1.994
N11625 X40.793 Y42.455 I0.403 J0.126
N11630 G1 X54.707
N11635 G3 X55.11 Y42.751 I0. J0.422
N11640 X47.75 Y52.716 I-7.327 J2.288
N11645 X40.312 Y47.01 I0. J-7.701
N11650 G2 X39.262 Y46.037 I-1.298 J0.348
N11655 G3 X38.353 Y44.931 I0.206 J-1.096
N11660 X39.217 Y41.081 I9.397 J0.088
N11665 X39.729 Y40.755 I0.512 J0.238
N11670 G1 X55.771
N11675 G3 X56.283 Y41.081 I0. J0.565
N11680 X47.75 Y54.416 I-8.505 J3.955
N11685 X38.353 Y44.931 I0. J-9.398
N11690 G2 X37.583 Y43.688 I-1.366 J-0.013
N11695 G3 X36.963 Y42.364 I0.506 J-1.044
N11700 X38.392 Y39.05 I10.787 J2.686
N11705 G1 X57.108
N11710 G3 X38.392 Y51.05 I-9.358 J6.
N11715 X36.963 Y42.364 I9.358 J-6.
N11720 G1 X36.984 Y42.311 Z-10.489
N11725 X37.014 Y42.262 Z-10.477
N11730 X37.047 Y42.227 Z-10.445
N11735 X37.086 Y42.197 Z-10.412
N11740 X37.144 Y42.168 Z-10.315
N11745 X37.166 Y42.161 Z-10.2
N11750 G0 Z15.
(2D ADAPTIVE6)
N11755 G0 X53.359 Y54.641
N11760 Z15.
N11765 Z5.
N11770 Z-0.4
N11775 G1 Z-0.7 F1000.
N11780 X53.354 Y54.647 Z-0.767
N11785 X53.341 Y54.665 Z-0.83
N11790 X53.319 Y54.693 Z-0.887
N11795 X53.29 Y54.731 Z-0.935
N11800 X53.256 Y54.776 Z-0.97
N11805 X53.217 Y54.826 Z-0.992
N11810 X53.177 Y54.879 Z-1.
N11815 G3 X51.88 Y55.9 I-2.641 J-2.02
N11820 G1 X51.857 Y55.909
N11825 X51.766 Y55.962
N11830 X51.388 Y56.194
N11835 X50.915 Y56.501
N11840 X50.773 Y56.602
N11845 X50.631 Y56.73
N11850 X50.601 Y56.763
N11855 X50.5 Y56.874
N11860 X50.384 Y56.969
N11865 X50.234 Y57.072
N11870 X50.04 Y57.185
N11875 X49.783 Y57.307
N11880 X49.433 Y57.441
N11885 X49.009 Y57.565
N11890 X48.612 Y57.647
N11895 X48.028 Y57.72
N11900 X47.402 Y57.747
N11905 X47.089 Y57.745
N11910 X46.464 Y57.716
N11915 X45.884 Y57.65
N11920 X45.688 Y57.599
N11925 X45.516 Y57.493
N11930 X45.38 Y57.343
N11935 G3 X45.477 Y56.93 Z-0.8 I0.255 J-0.158
N11940 G1 X45.535 Y56.903
N11945 X45.597 Y56.888
N11950 X45.742 Y56.869
N11955 X50.286 Y56.288
N11960 X50.325 Y56.283
N11965 X50.383 Y56.281
N11970 X50.441 Y56.291
N11975 X50.496 Y56.311
N11980 X50.546 Y56.342
N11985 G3 X50.601 Y56.763 Z-1. I-0.183 J0.238
N11990 G1 X50.484 Y56.905
N11995 X50.388 Y57.047
N12000 X50.014 Y57.616
N12005 X49.929 Y57.74
N12010 X49.832 Y57.855
N12015 X49.722 Y57.963
N12020 X49.596 Y58.069
N12025 X49.432 Y58.185
N12030 X49.233 Y58.303
N12035 X49.007 Y58.414
N12040 X48.71 Y58.532
N12045 X48.37 Y58.635
N12050 X47.957 Y58.726
N12055 X47.458 Y58.794
N12060 X46.92 Y58.823
N12065 X46.544 Y58.813
N12070 X46.465 Y58.805
N12075 X46.254 Y58.748
N12080 X46.071 Y58.629
N12085 X45.933 Y58.46
N12090 X45.854 Y58.257
N12095 G3 X46.09 Y57.91 Z-0.803 I0.295 J-0.053
N12100 G1 X46.096 Y57.908 Z-0.8
N12105 X46.365 Y57.853
N12110 X49.637 Y57.186
N12115 X49.694 Y57.174
N12120 X49.747 Y57.168
N12125 X49.801 Y57.172
N12130 X49.853 Y57.185
N12135 X49.903 Y57.207
N12140 G3 X50.014 Y57.616 Z-1. I-0.149 J0.261
N12145 G1 X49.921 Y57.768
N12150 X49.846 Y57.901
N12155 X49.766 Y58.093
N12160 X49.731 Y58.264
N12165 X49.694 Y58.409
N12170 X49.634 Y58.547
N12175 X49.558 Y58.676
N12180 X49.469 Y58.797
N12185 X49.369 Y58.909
N12190 X49.242 Y59.03
N12195 X49.096 Y59.148
N12200 X48.916 Y59.271
N12205 X48.698 Y59.396
N12210 X48.571 Y59.456
N12215 X48.475 Y59.493
N12220 X48.375 Y59.515
N12225 X48.273 Y59.523
N12230 G3 X47.983 Y59.213 Z-0.8 I0.01 J-0.3
N12235 G1 X47.992 Y59.152
N12240 X48.012 Y59.095
N12245 X48.044 Y59.042
N12250 X48.085 Y58.998
N12255 X48.107 Y58.979
N12260 X49.232 Y57.993
N12265 X49.238 Y57.988
N12270 G3 X49.485 Y57.918 I0.198 J0.226
N12275 X49.731 Y58.264 Z-1. I-0.05 J0.296
N12280 G1 X49.689 Y58.47
N12285 X49.662 Y58.612
N12290 X49.577 Y59.117
N12295 X49.571 Y59.153
N12300 X49.567 Y59.181
N12305 X49.535 Y59.328
N12310 X49.465 Y59.43
N12315 X49.362 Y59.499
N12320 X49.241 Y59.523
N12325 G3 X48.948 Y59.4 Z-0.862 I0.016 J-0.446
N12330 G1 X48.901 Y59.344 Z-0.831
N12335 X48.865 Y59.281 Z-0.8
N12340 G3 X49.352 Y58.798 I0.337 J-0.147
N12345 X49.567 Y59.181 Z-1. I-0.149 J0.336
N12350 G1 X49.529 Y59.412
N12355 X49.524 Y59.43
N12360 X49.516 Y59.448
N12365 X49.506 Y59.466
N12370 X49.495 Y59.481
N12375 X49.478 Y59.498
N12380 X49.46 Y59.508
N12385 X49.442 Y59.514
N12390 X49.424 Y59.517
N12395 X49.389 Y59.523
N12400 X46.515
N12405 X46.472
N12410 X46.442
N12415 X46.292 Y59.515
N12420 X46.175 Y59.46
N12425 X46.087 Y59.364
N12430 X46.041 Y59.243
N12435 G3 X46.117 Y58.926 Z-0.858 I0.443 J-0.061
N12440 G1 X46.161 Y58.873 Z-0.829
N12445 X46.214 Y58.83 Z-0.8
N12450 G3 X46.792 Y59.254 I0.215 J0.314
N12455 X46.442 Y59.523 Z-1. I-0.363 J-0.111
N12460 G1 X46.231
N12465 X46.197 Y59.522
N12470 X46.163 Y59.515
N12475 X46.146 Y59.509
N12480 X46.129 Y59.499
N12485 X46.112 Y59.484
N12490 X46.089 Y59.458
N12495 X46.079 Y59.442
N12500 X46.072 Y59.425
N12505 X45.929 Y58.612
N12510 X45.9 Y58.47
N12515 X45.822 Y58.108
N12520 X45.818 Y58.092
N12525 X45.737 Y57.901
N12530 X45.653 Y57.759
N12535 X45.563 Y57.616
N12540 X45.183 Y57.047
N12545 X45.095 Y56.922
N12550 X45.083 Y56.905
N12555 X44.953 Y56.755
N12560 X44.805 Y56.621
N12565 X44.67 Y56.526
N12570 X44.244 Y56.253
N12575 X44.102 Y56.166
N12580 X43.913 Y56.052
N12585 G3 X43.835 Y55.625 I0.164 J-0.251
N12590 G1 X43.876 Y55.591 Z-0.995
N12595 X43.915 Y55.559 Z-0.981
N12600 X43.952 Y55.528 Z-0.958
N12605 X44.006 Y55.517 Z-0.915
N12610 X44.048 Y55.507 Z-0.862
N12615 X44.078 Y55.501 Z-0.799
N12620 X44.091 Z-0.75
N12625 X44.095 Z-0.7
N12630 G0 Z5.
N12635 X53.359 Y54.641
N12640 Z-1.4
N12645 G1 Z-1.7 F1000.
N12650 X53.354 Y54.647 Z-1.767
N12655 X53.341 Y54.665 Z-1.83
N12660 X53.319 Y54.693 Z-1.887
N12665 X53.29 Y54.731 Z-1.935
N12670 X53.256 Y54.776 Z-1.97
N12675 X53.217 Y54.826 Z-1.992
N12680 X53.177 Y54.879 Z-2.
N12685 G3 X51.88 Y55.9 I-2.641 J-2.02
N12690 G1 X51.857 Y55.909
N12695 X51.766 Y55.962
N12700 X51.388 Y56.194
N12705 X50.915 Y56.501
N12710 X50.773 Y56.602
N12715 X50.631 Y56.73
N12720 X50.601 Y56.763
N12725 X50.5 Y56.874
N12730 X50.384 Y56.969
N12735 X50.234 Y57.072
N12740 X50.04 Y57.185
N12745 X49.783 Y57.307
N12750 X49.433 Y57.441
N12755 X49.009 Y57.565
N12760 X48.612 Y57.647
N12765 X48.028 Y57.72
N12770 X47.402 Y57.747
N12775 X47.089 Y57.745
N12780 X46.464 Y57.716
N12785 X45.884 Y57.65
N12790 X45.688 Y57.599
N12795 X45.516 Y57.493
N12800 X45.38 Y57.343
N12805 G3 X45.477 Y56.93 Z-1.8 I0.255 J-0.158
N12810 G1 X45.535 Y56.903
N12815 X45.597 Y56.888
N12820 X45.742 Y56.869
N12825 X50.286 Y56.288
N12830 X50.325 Y56.283
N12835 X50.383 Y56.281
N12840 X50.441 Y56.291
N12845 X50.496 Y56.311
N12850 X50.546 Y56.342
N12855 G3 X50.601 Y56.763 Z-2. I-0.183 J0.238
N12860 G1 X50.484 Y56.905
N12865 X50.388 Y57.047
N12870 X50.014 Y57.616
N12875 X49.929 Y57.74
N12880 X49.832 Y57.855
N12885 X49.722 Y57.963
N12890 X49.596 Y58.069
N12895 X49.432 Y58.185
N12900 X49.233 Y58.303
N12905 X49.007 Y58.414
N12910 X48.71 Y58.532
N12915 X48.37 Y58.635
N12920 X47.957 Y58.726
N12925 X47.458 Y58.794
N12930 X46.92 Y58.823
N12935 X46.544 Y58.813
N12940 X46.465 Y58.805
N12945 X46.254 Y58.748
N12950 X46.071 Y58.629
N12955 X45.933 Y58.46
N12960 X45.854 Y58.257
N12965 G3 X46.09 Y57.91 Z-1.803 I0.295 J-0.053
N12970 G1 X46.096 Y57.908 Z-1.8
N12975 X46.365 Y57.853
N12980 X49.637 Y57.186
N12985 X49.694 Y57.174
N12990 X49.747 Y57.168
N12995 X49.801 Y57.172
N13000 X49.853 Y57.185
N13005 X49.903 Y57.207
N13010 G3 X50.014 Y57.616 Z-2. I-0.149 J0.261
N13015 G1 X49.921 Y57.768
N13020 X49.846 Y57.901
N13025 X49.766 Y58.093
N13030 X49.731 Y58.264
N13035 X49.694 Y58.409
N13040 X49.634 Y58.547
N13045 X49.558 Y58.676
N13050 X49.469 Y58.797
N13055 X49.369 Y58.909
N13060 X49.242 Y59.03
N13065 X49.096 Y59.148
N13070 X48.916 Y59.271
N13075 X48.698 Y59.396
N13080 X48.571 Y59.456
N13085 X48.475 Y59.493
N13090 X48.375 Y59.515
N13095 X48.273 Y59.523
N13100 G3 X47.983 Y59.213 Z-1.8 I0.01 J-0.3
N13105 G1 X47.992 Y59.152
N13110 X48.012 Y59.095
N13115 X48.044 Y59.042
N13120 X48.085 Y58.998
N13125 X48.107 Y58.979
N13130 X49.232 Y57.993
N13135 X49.238 Y57.988
N13140 G3 X49.485 Y57.918 I0.198 J0.226
N13145 X49.731 Y58.264 Z-2. I-0.05 J0.296
N13150 G1 X49.689 Y58.47
N13155 X49.662 Y58.612
N13160 X49.577 Y59.117
N13165 X49.571 Y59.153
N13170 X49.567 Y59.181
N13175 X49.535 Y59.328
N13180 X49.465 Y59.43
N13185 X49.362 Y59.499
N13190 X49.241 Y59.523
N13195 G3 X48.948 Y59.4 Z-1.862 I0.016 J-0.446
N13200 G1 X48.901 Y59.344 Z-1.831
N13205 X48.865 Y59.281 Z-1.8
N13210 G3 X49.352 Y58.798 I0.337 J-0.147
N13215 X49.567 Y59.181 Z-2. I-0.149 J0.336
N13220 G1 X49.529 Y59.412
N13225 X49.524 Y59.43
N13230 X49.516 Y59.448
N13235 X49.506 Y59.466
N13240 X49.495 Y59.481
N13245 X49.478 Y59.498
N13250 X49.46 Y59.508
N13255 X49.442 Y59.514
N13260 X49.424 Y59.517
N13265 X49.389 Y59.523
N13270 X46.515
N13275 X46.472
N13280 X46.442
N13285 X46.292 Y59.515
N13290 X46.175 Y59.46
N13295 X46.087 Y59.364
N13300 X46.041 Y59.243
N13305 G3 X46.117 Y58.926 Z-1.858 I0.443 J-0.061
N13310 G1 X46.161 Y58.873 Z-1.829
N13315 X46.214 Y58.83 Z-1.8
N13320 G3 X46.792 Y59.254 I0.215 J0.314
N13325 X46.442 Y59.523 Z-2. I-0.363 J-0.111
N13330 G1 X46.231
N13335 X46.197 Y59.522
N13340 X46.163 Y59.515
N13345 X46.146 Y59.509
N13350 X46.129 Y59.499
N13355 X46.112 Y59.484
N13360 X46.089 Y59.458
N13365 X46.079 Y59.442
N13370 X46.072 Y59.425
N13375 X45.929 Y58.612
N13380 X45.9 Y58.47
N13385 X45.822 Y58.108
N13390 X45.818 Y58.092
N13395 X45.737 Y57.901
N13400 X45.653 Y57.759
N13405 X45.563 Y57.616
N13410 X45.183 Y57.047
N13415 X45.095 Y56.922
N13420 X45.083 Y56.905
N13425 X44.953 Y56.755
N13430 X44.805 Y56.621
N13435 X44.67 Y56.526
N13440 X44.244 Y56.253
N13445 X44.102 Y56.166
N13450 X43.913 Y56.052
N13455 G3 X43.835 Y55.625 I0.164 J-0.251
N13460 G1 X43.876 Y55.591 Z-1.995
N13465 X43.915 Y55.559 Z-1.981
N13470 X43.952 Y55.528 Z-1.958
N13475 X44.006 Y55.517 Z-1.915
N13480 X44.048 Y55.507 Z-1.862
N13485 X44.078 Y55.501 Z-1.799
N13490 X44.091 Z-1.75
N13495 X44.095 Z-1.7
N13500 G0 Z5.
N13505 X53.359 Y54.641
N13510 Z-2.4
N13515 G1 Z-2.7 F1000.
N13520 X53.354 Y54.647 Z-2.767
N13525 X53.341 Y54.665 Z-2.83
N13530 X53.319 Y54.693 Z-2.887
N13535 X53.29 Y54.731 Z-2.935
N13540 X53.256 Y54.776 Z-2.97
N13545 X53.217 Y54.826 Z-2.992
N13550 X53.177 Y54.879 Z-3.
N13555 G3 X51.88 Y55.9 I-2.641 J-2.02
N13560 G1 X51.857 Y55.909
N13565 X51.766 Y55.962
N13570 X51.388 Y56.194
N13575 X50.915 Y56.501
N13580 X50.773 Y56.602
N13585 X50.631 Y56.73
N13590 X50.601 Y56.763
N13595 X50.5 Y56.874
N13600 X50.384 Y56.969
N13605 X50.234 Y57.072
N13610 X50.04 Y57.185
N13615 X49.783 Y57.307
N13620 X49.433 Y57.441
N13625 X49.009 Y57.565
N13630 X48.612 Y57.647
N13635 X48.028 Y57.72
N13640 X47.402 Y57.747
N13645 X47.089 Y57.745
N13650 X46.464 Y57.716
N13655 X45.884 Y57.65
N13660 X45.688 Y57.599
N13665 X45.516 Y57.493
N13670 X45.38 Y57.343
N13675 G3 X45.477 Y56.93 Z-2.8 I0.255 J-0.158
N13680 G1 X45.535 Y56.903
N13685 X45.597 Y56.888
N13690 X45.742 Y56.869
N13695 X50.286 Y56.288
N13700 X50.325 Y56.283
N13705 X50.383 Y56.281
N13710 X50.441 Y56.291
N13715 X50.496 Y56.311
N13720 X50.546 Y56.342
N13725 G3 X50.601 Y56.763 Z-3. I-0.183 J0.238
N13730 G1 X50.484 Y56.905
N13735 X50.388 Y57.047
N13740 X50.014 Y57.616
N13745 X49.929 Y57.74
N13750 X49.832 Y57.855
N13755 X49.722 Y57.963
N13760 X49.596 Y58.069
N13765 X49.432 Y58.185
N13770 X49.233 Y58.303
N13775 X49.007 Y58.414
N13780 X48.71 Y58.532
N13785 X48.37 Y58.635
N13790 X47.957 Y58.726
N13795 X47.458 Y58.794
N13800 X46.92 Y58.823
N13805 X46.544 Y58.813
N13810 X46.465 Y58.805
N13815 X46.254 Y58.748
N13820 X46.071 Y58.629
N13825 X45.933 Y58.46
N13830 X45.854 Y58.257
N13835 G3 X46.09 Y57.91 Z-2.803 I0.295 J-0.053
N13840 G1 X46.096 Y57.908 Z-2.8
N13845 X46.365 Y57.853
N13850 X49.637 Y57.186
N13855 X49.694 Y57.174
N13860 X49.747 Y57.168
N13865 X49.801 Y57.172
N13870 X49.853 Y57.185
N13875 X49.903 Y57.207
N13880 G3 X50.014 Y57.616 Z-3. I-0.149 J0.261
N13885 G1 X49.921 Y57.768
N13890 X49.846 Y57.901
N13895 X49.766 Y58.093
N13900 X49.731 Y58.264
N13905 X49.694 Y58.409
N13910 X49.634 Y58.547
N13915 X49.558 Y58.676
N13920 X49.469 Y58.797
N13925 X49.369 Y58.909
N13930 X49.242 Y59.03
N13935 X49.096 Y59.148
N13940 X48.916 Y59.271
N13945 X48.698 Y59.396
N13950 X48.571 Y59.456
N13955 X48.475 Y59.493
N13960 X48.375 Y59.515
N13965 X48.273 Y59.523
N13970 G3 X47.983 Y59.213 Z-2.8 I0.01 J-0.3
N13975 G1 X47.992 Y59.152
N13980 X48.012 Y59.095
N13985 X48.044 Y59.042
N13990 X48.085 Y58.998
N13995 X48.107 Y58.979
N14000 X49.232 Y57.993
N14005 X49.238 Y57.988
N14010 G3 X49.485 Y57.918 I0.198 J0.226
N14015 X49.731 Y58.264 Z-3. I-0.05 J0.296
N14020 G1 X49.689 Y58.47
N14025 X49.662 Y58.612
N14030 X49.577 Y59.117
N14035 X49.571 Y59.153
N14040 X49.567 Y59.181
N14045 X49.535 Y59.328
N14050 X49.465 Y59.43
N14055 X49.362 Y59.499
N14060 X49.241 Y59.523
N14065 G3 X48.948 Y59.4 Z-2.862 I0.016 J-0.446
N14070 G1 X48.901 Y59.344 Z-2.831
N14075 X48.865 Y59.281 Z-2.8
N14080 G3 X49.352 Y58.798 I0.337 J-0.147
N14085 X49.567 Y59.181 Z-3. I-0.149 J0.336
N14090 G1 X49.529 Y59.412
N14095 X49.524 Y59.43
N14100 X49.516 Y59.448
N14105 X49.506 Y59.466
N14110 X49.495 Y59.481
N14115 X49.478 Y59.498
N14120 X49.46 Y59.508
N14125 X49.442 Y59.514
N14130 X49.424 Y59.517
N14135 X49.389 Y59.523
N14140 X46.515
N14145 X46.472
N14150 X46.442
N14155 X46.292 Y59.515
N14160 X46.175 Y59.46
N14165 X46.087 Y59.364
N14170 X46.041 Y59.243
N14175 G3 X46.117 Y58.926 Z-2.858 I0.443 J-0.061
N14180 G1 X46.161 Y58.873 Z-2.829
N14185 X46.214 Y58.83 Z-2.8
N14190 G3 X46.792 Y59.254 I0.215 J0.314
N14195 X46.442 Y59.523 Z-3. I-0.363 J-0.111
N14200 G1 X46.231
N14205 X46.197 Y59.522
N14210 X46.163 Y59.515
N14215 X46.146 Y59.509
N14220 X46.129 Y59.499
N14225 X46.112 Y59.484
N14230 X46.089 Y59.458
N14235 X46.079 Y59.442
N14240 X46.072 Y59.425
N14245 X45.929 Y58.612
N14250 X45.9 Y58.47
N14255 X45.822 Y58.108
N14260 X45.818 Y58.092
N14265 X45.737 Y57.901
N14270 X45.653 Y57.759
N14275 X45.563 Y57.616
N14280 X45.183 Y57.047
N14285 X45.095 Y56.922
N14290 X45.083 Y56.905
N14295 X44.953 Y56.755
N14300 X44.805 Y56.621
N14305 X44.67 Y56.526
N14310 X44.244 Y56.253
N14315 X44.102 Y56.166
N14320 X43.913 Y56.052
N14325 G3 X43.835 Y55.625 I0.164 J-0.251
N14330 G1 X43.876 Y55.591 Z-2.995
N14335 X43.915 Y55.559 Z-2.981
N14340 X43.952 Y55.528 Z-2.958
N14345 X44.006 Y55.517 Z-2.915
N14350 X44.048 Y55.507 Z-2.862
N14355 X44.078 Y55.501 Z-2.799
N14360 X44.091 Z-2.75
N14365 X44.095 Z-2.7
N14370 G0 Z5.
N14375 X53.359 Y54.641
N14380 Z-3.4
N14385 G1 Z-3.7 F1000.
N14390 X53.354 Y54.647 Z-3.767
N14395 X53.341 Y54.665 Z-3.83
N14400 X53.319 Y54.693 Z-3.887
N14405 X53.29 Y54.731 Z-3.935
N14410 X53.256 Y54.776 Z-3.97
N14415 X53.217 Y54.826 Z-3.992
N14420 X53.177 Y54.879 Z-4.
N14425 G3 X51.88 Y55.9 I-2.641 J-2.02
N14430 G1 X51.857 Y55.909
N14435 X51.766 Y55.962
N14440 X51.388 Y56.194
N14445 X50.915 Y56.501
N14450 X50.773 Y56.602
N14455 X50.631 Y56.73
N14460 X50.601 Y56.763
N14465 X50.5 Y56.874
N14470 X50.384 Y56.969
N14475 X50.234 Y57.072
N14480 X50.04 Y57.185
N14485 X49.783 Y57.307
N14490 X49.433 Y57.441
N14495 X49.009 Y57.565
N14500 X48.612 Y57.647
N14505 X48.028 Y57.72
N14510 X47.402 Y57.747
N14515 X47.089 Y57.745
N14520 X46.464 Y57.716
N14525 X45.884 Y57.65
N14530 X45.688 Y57.599
N14535 X45.516 Y57.493
N14540 X45.38 Y57.343
N14545 G3 X45.477 Y56.93 Z-3.8 I0.255 J-0.158
N14550 G1 X45.535 Y56.903
N14555 X45.597 Y56.888
N14560 X45.742 Y56.869
N14565 X50.286 Y56.288
N14570 X50.325 Y56.283
N14575 X50.383 Y56.281
N14580 X50.441 Y56.291
N14585 X50.496 Y56.311
N14590 X50.546 Y56.342
N14595 G3 X50.601 Y56.763 Z-4. I-0.183 J0.238
N14600 G1 X50.484 Y56.905
N14605 X50.388 Y57.047
N14610 X50.014 Y57.616
N14615 X49.929 Y57.74
N14620 X49.832 Y57.855
N14625 X49.722 Y57.963
N14630 X49.596 Y58.069
N14635 X49.432 Y58.185
N14640 X49.233 Y58.303
N14645 X49.007 Y58.414
N14650 X48.71 Y58.532
N14655 X48.37 Y58.635
N14660 X47.957 Y58.726
N14665 X47.458 Y58.794
N14670 X46.92 Y58.823
N14675 X46.544 Y58.813
N14680 X46.465 Y58.805
N14685 X46.254 Y58.748
N14690 X46.071 Y58.629
N14695 X45.933 Y58.46
N14700 X45.854 Y58.257
N14705 G3 X46.09 Y57.91 Z-3.803 I0.295 J-0.053
N14710 G1 X46.096 Y57.908 Z-3.8
N14715 X46.365 Y57.853
N14720 X49.637 Y57.186
N14725 X49.694 Y57.174
N14730 X49.747 Y57.168
N14735 X49.801 Y57.172
N14740 X49.853 Y57.185
N14745 X49.903 Y57.207
N14750 G3 X50.014 Y57.616 Z-4. I-0.149 J0.261
N14755 G1 X49.921 Y57.768
N14760 X49.846 Y57.901
N14765 X49.766 Y58.093
N14770 X49.731 Y58.264
N14775 X49.694 Y58.409
N14780 X49.634 Y58.547
N14785 X49.558 Y58.676
N14790 X49.469 Y58.797
N14795 X49.369 Y58.909
N14800 X49.242 Y59.03
N14805 X49.096 Y59.148
N14810 X48.916 Y59.271
N14815 X48.698 Y59.396
N14820 X48.571 Y59.456
N14825 X48.475 Y59.493
N14830 X48.375 Y59.515
N14835 X48.273 Y59.523
N14840 G3 X47.983 Y59.213 Z-3.8 I0.01 J-0.3
N14845 G1 X47.992 Y59.152
N14850 X48.012 Y59.095
N14855 X48.044 Y59.042
N14860 X48.085 Y58.998
N14865 X48.107 Y58.979
N14870 X49.232 Y57.993
N14875 X49.238 Y57.988
N14880 G3 X49.485 Y57.918 I0.198 J0.226
N14885 X49.731 Y58.264 Z-4. I-0.05 J0.296
N14890 G1 X49.689 Y58.47
N14895 X49.662 Y58.612
N14900 X49.577 Y59.117
N14905 X49.571 Y59.153
N14910 X49.567 Y59.181
N14915 X49.535 Y59.328
N14920 X49.465 Y59.43
N14925 X49.362 Y59.499
N14930 X49.241 Y59.523
N14935 G3 X48.948 Y59.4 Z-3.862 I0.016 J-0.446
N14940 G1 X48.901 Y59.344 Z-3.831
N14945 X48.865 Y59.281 Z-3.8
N14950 G3 X49.352 Y58.798 I0.337 J-0.147
N14955 X49.567 Y59.181 Z-4. I-0.149 J0.336
N14960 G1 X49.529 Y59.412
N14965 X49.524 Y59.43
N14970 X49.516 Y59.448
N14975 X49.506 Y59.466
N14980 X49.495 Y59.481
N14985 X49.478 Y59.498
N14990 X49.46 Y59.508
N14995 X49.442 Y59.514
N15000 X49.424 Y59.517
N15005 X49.389 Y59.523
N15010 X46.515
N15015 X46.472
N15020 X46.442
N15025 X46.292 Y59.515
N15030 X46.175 Y59.46
N15035 X46.087 Y59.364
N15040 X46.041 Y59.243
N15045 G3 X46.117 Y58.926 Z-3.858 I0.443 J-0.061
N15050 G1 X46.161 Y58.873 Z-3.829
N15055 X46.214 Y58.83 Z-3.8
N15060 G3 X46.792 Y59.254 I0.215 J0.314
N15065 X46.442 Y59.523 Z-4. I-0.363 J-0.111
N15070 G1 X46.231
N15075 X46.197 Y59.522
N15080 X46.163 Y59.515
N15085 X46.146 Y59.509
N15090 X46.129 Y59.499
N15095 X46.112 Y59.484
N15100 X46.089 Y59.458
N15105 X46.079 Y59.442
N15110 X46.072 Y59.425
N15115 X45.929 Y58.612
N15120 X45.9 Y58.47
N15125 X45.822 Y58.108
N15130 X45.818 Y58.092
N15135 X45.737 Y57.901
N15140 X45.653 Y57.759
N15145 X45.563 Y57.616
N15150 X45.183 Y57.047
N15155 X45.095 Y56.922
N15160 X45.083 Y56.905
N15165 X44.953 Y56.755
N15170 X44.805 Y56.621
N15175 X44.67 Y56.526
N15180 X44.244 Y56.253
N15185 X44.102 Y56.166
N15190 X43.913 Y56.052
N15195 G3 X43.835 Y55.625 I0.164 J-0.251
N15200 G1 X43.876 Y55.591 Z-3.995
N15205 X43.915 Y55.559 Z-3.981
N15210 X43.952 Y55.528 Z-3.958
N15215 X44.006 Y55.517 Z-3.915
N15220 X44.048 Y55.507 Z-3.862
N15225 X44.078 Y55.501 Z-3.799
N15230 X44.091 Z-3.75
N15235 X44.095 Z-3.7
N15240 G0 Z5.
N15245 X53.359 Y54.641
N15250 Z-4.4
N15255 G1 Z-4.7 F1000.
N15260 X53.354 Y54.647 Z-4.767
N15265 X53.341 Y54.665 Z-4.83
N15270 X53.319 Y54.693 Z-4.887
N15275 X53.29 Y54.731 Z-4.935
N15280 X53.256 Y54.776 Z-4.97
N15285 X53.217 Y54.826 Z-4.992
N15290 X53.177 Y54.879 Z-5.
N15295 G3 X51.88 Y55.9 I-2.641 J-2.02
N15300 G1 X51.857 Y55.909
N15305 X51.766 Y55.962
N15310 X51.388 Y56.194
N15315 X50.915 Y56.501
N15320 X50.773 Y56.602
N15325 X50.631 Y56.73
N15330 X50.601 Y56.763
N15335 X50.5 Y56.874
N15340 X50.384 Y56.969
N15345 X50.234 Y57.072
N15350 X50.04 Y57.185
N15355 X49.783 Y57.307
N15360 X49.433 Y57.441
N15365 X49.009 Y57.565
N15370 X48.612 Y57.647
N15375 X48.028 Y57.72
N15380 X47.402 Y57.747
N15385 X47.089 Y57.745
N15390 X46.464 Y57.716
N15395 X45.884 Y57.65
N15400 X45.688 Y57.599
N15405 X45.516 Y57.493
N15410 X45.38 Y57.343
N15415 G3 X45.477 Y56.93 Z-4.8 I0.255 J-0.158
N15420 G1 X45.535 Y56.903
N15425 X45.597 Y56.888
N15430 X45.742 Y56.869
N15435 X50.286 Y56.288
N15440 X50.325 Y56.283
N15445 X50.383 Y56.281
N15450 X50.441 Y56.291
N15455 X50.496 Y56.311
N15460 X50.546 Y56.342
N15465 G3 X50.601 Y56.763 Z-5. I-0.183 J0.238
N15470 G1 X50.484 Y56.905
N15475 X50.388 Y57.047
N15480 X50.014 Y57.616
N15485 X49.929 Y57.74
N15490 X49.832 Y57.855
N15495 X49.722 Y57.963
N15500 X49.596 Y58.069
N15505 X49.432 Y58.185
N15510 X49.233 Y58.303
N15515 X49.007 Y58.414
N15520 X48.71 Y58.532
N15525 X48.37 Y58.635
N15530 X47.957 Y58.726
N15535 X47.458 Y58.794
N15540 X46.92 Y58.823
N15545 X46.544 Y58.813
N15550 X46.465 Y58.805
N15555 X46.254 Y58.748
N15560 X46.071 Y58.629
N15565 X45.933 Y58.46
N15570 X45.854 Y58.257
N15575 G3 X46.09 Y57.91 Z-4.803 I0.295 J-0.053
N15580 G1 X46.096 Y57.908 Z-4.8
N15585 X46.365 Y57.853
N15590 X49.637 Y57.186
N15595 X49.694 Y57.174
N15600 X49.747 Y57.168
N15605 X49.801 Y57.172
N15610 X49.853 Y57.185
N15615 X49.903 Y57.207
N15620 G3 X50.014 Y57.616 Z-5. I-0.149 J0.261
N15625 G1 X49.921 Y57.768
N15630 X49.846 Y57.901
N15635 X49.766 Y58.093
N15640 X49.731 Y58.264
N15645 X49.694 Y58.409
N15650 X49.634 Y58.547
N15655 X49.558 Y58.676
N15660 X49.469 Y58.797
N15665 X49.369 Y58.909
N15670 X49.242 Y59.03
N15675 X49.096 Y59.148
N15680 X48.916 Y59.271
N15685 X48.698 Y59.396
N15690 X48.571 Y59.456
N15695 X48.475 Y59.493
N15700 X48.375 Y59.515
N15705 X48.273 Y59.523
N15710 G3 X47.983 Y59.213 Z-4.8 I0.01 J-0.3
N15715 G1 X47.992 Y59.152
N15720 X48.012 Y59.095
N15725 X48.044 Y59.042
N15730 X48.085 Y58.998
N15735 X48.107 Y58.979
N15740 X49.232 Y57.993
N15745 X49.238 Y57.988
N15750 G3 X49.485 Y57.918 I0.198 J0.226
N15755 X49.731 Y58.264 Z-5. I-0.05 J0.296
N15760 G1 X49.689 Y58.47
N15765 X49.662 Y58.612
N15770 X49.577 Y59.117
N15775 X49.571 Y59.153
N15780 X49.567 Y59.181
N15785 X49.535 Y59.328
N15790 X49.465 Y59.43
N15795 X49.362 Y59.499
N15800 X49.241 Y59.523
N15805 G3 X48.948 Y59.4 Z-4.862 I0.016 J-0.446
N15810 G1 X48.901 Y59.344 Z-4.831
N15815 X48.865 Y59.281 Z-4.8
N15820 G3 X49.352 Y58.798 I0.337 J-0.147
N15825 X49.567 Y59.181 Z-5. I-0.149 J0.336
N15830 G1 X49.529 Y59.412
N15835 X49.524 Y59.43
N15840 X49.516 Y59.448
N15845 X49.506 Y59.466
N15850 X49.495 Y59.481
N15855 X49.478 Y59.498
N15860 X49.46 Y59.508
N15865 X49.442 Y59.514
N15870 X49.424 Y59.517
N15875 X49.389 Y59.523
N15880 X46.515
N15885 X46.472
N15890 X46.442
N15895 X46.292 Y59.515
N15900 X46.175 Y59.46
N15905 X46.087 Y59.364
N15910 X46.041 Y59.243
N15915 G3 X46.117 Y58.926 Z-4.858 I0.443 J-0.061
N15920 G1 X46.161 Y58.873 Z-4.829
N15925 X46.214 Y58.83 Z-4.8
N15930 G3 X46.792 Y59.254 I0.215 J0.314
N15935 X46.442 Y59.523 Z-5. I-0.363 J-0.111
N15940 G1 X46.231
N15945 X46.197 Y59.522
N15950 X46.163 Y59.515
N15955 X46.146 Y59.509
N15960 X46.129 Y59.499
N15965 X46.112 Y59.484
N15970 X46.089 Y59.458
N15975 X46.079 Y59.442
N15980 X46.072 Y59.425
N15985 X45.929 Y58.612
N15990 X45.9 Y58.47
N15995 X45.822 Y58.108
N16000 X45.818 Y58.092
N16005 X45.737 Y57.901
N16010 X45.653 Y57.759
N16015 X45.563 Y57.616
N16020 X45.183 Y57.047
N16025 X45.095 Y56.922
N16030 X45.083 Y56.905
N16035 X44.953 Y56.755
N16040 X44.805 Y56.621
N16045 X44.67 Y56.526
N16050 X44.244 Y56.253
N16055 X44.102 Y56.166
N16060 X43.913 Y56.052
N16065 G3 X43.835 Y55.625 I0.164 J-0.251
N16070 G1 X43.876 Y55.591 Z-4.995
N16075 X43.915 Y55.559 Z-4.981
N16080 X43.952 Y55.528 Z-4.958
N16085 X44.006 Y55.517 Z-4.915
N16090 X44.048 Y55.507 Z-4.862
N16095 X44.078 Y55.501 Z-4.799
N16100 X44.091 Z-4.75
N16105 X44.095 Z-4.7
N16110 G0 Z5.
N16115 X53.359 Y54.641
N16120 Z-5.4
N16125 G1 Z-5.7 F1000.
N16130 X53.354 Y54.647 Z-5.767
N16135 X53.341 Y54.665 Z-5.83
N16140 X53.319 Y54.693 Z-5.887
N16145 X53.29 Y54.731 Z-5.935
N16150 X53.256 Y54.776 Z-5.97
N16155 X53.217 Y54.826 Z-5.992
N16160 X53.177 Y54.879 Z-6.
N16165 G3 X51.88 Y55.9 I-2.641 J-2.02
N16170 G1 X51.857 Y55.909
N16175 X51.766 Y55.962
N16180 X51.388 Y56.194
N16185 X50.915 Y56.501
N16190 X50.773 Y56.602
N16195 X50.631 Y56.73
N16200 X50.601 Y56.763
N16205 X50.5 Y56.874
N16210 X50.384 Y56.969
N16215 X50.234 Y57.072
N16220 X50.04 Y57.185
N16225 X49.783 Y57.307
N16230 X49.433 Y57.441
N16235 X49.009 Y57.565
N16240 X48.612 Y57.647
N16245 X48.028 Y57.72
N16250 X47.402 Y57.747
N16255 X47.089 Y57.745
N16260 X46.464 Y57.716
N16265 X45.884 Y57.65
N16270 X45.688 Y57.599
N16275 X45.516 Y57.493
N16280 X45.38 Y57.343
N16285 G3 X45.477 Y56.93 Z-5.8 I0.255 J-0.158
N16290 G1 X45.535 Y56.903
N16295 X45.597 Y56.888
N16300 X45.742 Y56.869
N16305 X50.286 Y56.288
N16310 X50.325 Y56.283
N16315 X50.383 Y56.281
N16320 X50.441 Y56.291
N16325 X50.496 Y56.311
N16330 X50.546 Y56.342
N16335 G3 X50.601 Y56.763 Z-6. I-0.183 J0.238
N16340 G1 X50.484 Y56.905
N16345 X50.388 Y57.047
N16350 X50.014 Y57.616
N16355 X49.929 Y57.74
N16360 X49.832 Y57.855
N16365 X49.722 Y57.963
N16370 X49.596 Y58.069
N16375 X49.432 Y58.185
N16380 X49.233 Y58.303
N16385 X49.007 Y58.414
N16390 X48.71 Y58.532
N16395 X48.37 Y58.635
N16400 X47.957 Y58.726
N16405 X47.458 Y58.794
N16410 X46.92 Y58.823
N16415 X46.544 Y58.813
N16420 X46.465 Y58.805
N16425 X46.254 Y58.748
N16430 X46.071 Y58.629
N16435 X45.933 Y58.46
N16440 X45.854 Y58.257
N16445 G3 X46.09 Y57.91 Z-5.803 I0.295 J-0.053
N16450 G1 X46.096 Y57.908 Z-5.8
N16455 X46.365 Y57.853
N16460 X49.637 Y57.186
N16465 X49.694 Y57.174
N16470 X49.747 Y57.168
N16475 X49.801 Y57.172
N16480 X49.853 Y57.185
N16485 X49.903 Y57.207
N16490 G3 X50.014 Y57.616 Z-6. I-0.149 J0.261
N16495 G1 X49.921 Y57.768
N16500 X49.846 Y57.901
N16505 X49.766 Y58.093
N16510 X49.731 Y58.264
N16515 X49.694 Y58.409
N16520 X49.634 Y58.547
N16525 X49.558 Y58.676
N16530 X49.469 Y58.797
N16535 X49.369 Y58.909
N16540 X49.242 Y59.03
N16545 X49.096 Y59.148
N16550 X48.916 Y59.271
N16555 X48.698 Y59.396
N16560 X48.571 Y59.456
N16565 X48.475 Y59.493
N16570 X48.375 Y59.515
N16575 X48.273 Y59.523
N16580 G3 X47.983 Y59.213 Z-5.8 I0.01 J-0.3
N16585 G1 X47.992 Y59.152
N16590 X48.012 Y59.095
N16595 X48.044 Y59.042
N16600 X48.085 Y58.998
N16605 X48.107 Y58.979
N16610 X49.232 Y57.993
N16615 X49.238 Y57.988
N16620 G3 X49.485 Y57.918 I0.198 J0.226
N16625 X49.731 Y58.264 Z-6. I-0.05 J0.296
N16630 G1 X49.689 Y58.47
N16635 X49.662 Y58.612
N16640 X49.577 Y59.117
N16645 X49.571 Y59.153
N16650 X49.567 Y59.181
N16655 X49.535 Y59.328
N16660 X49.465 Y59.43
N16665 X49.362 Y59.499
N16670 X49.241 Y59.523
N16675 G3 X48.948 Y59.4 Z-5.862 I0.016 J-0.446
N16680 G1 X48.901 Y59.344 Z-5.831
N16685 X48.865 Y59.281 Z-5.8
N16690 G3 X49.352 Y58.798 I0.337 J-0.147
N16695 X49.567 Y59.181 Z-6. I-0.149 J0.336
N16700 G1 X49.529 Y59.412
N16705 X49.524 Y59.43
N16710 X49.516 Y59.448
N16715 X49.506 Y59.466
N16720 X49.495 Y59.481
N16725 X49.478 Y59.498
N16730 X49.46 Y59.508
N16735 X49.442 Y59.514
N16740 X49.424 Y59.517
N16745 X49.389 Y59.523
N16750 X46.515
N16755 X46.472
N16760 X46.442
N16765 X46.292 Y59.515
N16770 X46.175 Y59.46
N16775 X46.087 Y59.364
N16780 X46.041 Y59.243
N16785 G3 X46.117 Y58.926 Z-5.858 I0.443 J-0.061
N16790 G1 X46.161 Y58.873 Z-5.829
N16795 X46.214 Y58.83 Z-5.8
N16800 G3 X46.792 Y59.254 I0.215 J0.314
N16805 X46.442 Y59.523 Z-6. I-0.363 J-0.111
N16810 G1 X46.231
N16815 X46.197 Y59.522
N16820 X46.163 Y59.515
N16825 X46.146 Y59.509
N16830 X46.129 Y59.499
N16835 X46.112 Y59.484
N16840 X46.089 Y59.458
N16845 X46.079 Y59.442
N16850 X46.072 Y59.425
N16855 X45.929 Y58.612
N16860 X45.9 Y58.47
N16865 X45.822 Y58.108
N16870 X45.818 Y58.092
N16875 X45.737 Y57.901
N16880 X45.653 Y57.759
N16885 X45.563 Y57.616
N16890 X45.183 Y57.047
N16895 X45.095 Y56.922
N16900 X45.083 Y56.905
N16905 X44.953 Y56.755
N16910 X44.805 Y56.621
N16915 X44.67 Y56.526
N16920 X44.244 Y56.253
N16925 X44.102 Y56.166
N16930 X43.913 Y56.052
N16935 G3 X43.835 Y55.625 I0.164 J-0.251
N16940 G1 X43.876 Y55.591 Z-5.995
N16945 X43.915 Y55.559 Z-5.981
N16950 X43.952 Y55.528 Z-5.958
N16955 X44.006 Y55.517 Z-5.915
N16960 X44.048 Y55.507 Z-5.862
N16965 X44.078 Y55.501 Z-5.799
N16970 X44.091 Z-5.75
N16975 X44.095 Z-5.7
N16980 G0 Z5.
N16985 X53.359 Y54.641
N16990 Z-6.39
N16995 G1 Z-6.69 F1000.
N17000 X53.354 Y54.647 Z-6.757
N17005 X53.341 Y54.665 Z-6.82
N17010 X53.319 Y54.693 Z-6.877
N17015 X53.29 Y54.731 Z-6.925
N17020 X53.256 Y54.776 Z-6.96
N17025 X53.217 Y54.826 Z-6.982
N17030 X53.177 Y54.879 Z-6.99
N17035 G3 X51.88 Y55.9 I-2.641 J-2.02
N17040 G1 X51.857 Y55.909
N17045 X51.766 Y55.962
N17050 X51.388 Y56.194
N17055 X50.915 Y56.501
N17060 X50.773 Y56.602
N17065 X50.631 Y56.73
N17070 X50.601 Y56.763
N17075 X50.5 Y56.874
N17080 X50.384 Y56.969
N17085 X50.234 Y57.072
N17090 X50.04 Y57.185
N17095 X49.783 Y57.307
N17100 X49.433 Y57.441
N17105 X49.009 Y57.565
N17110 X48.612 Y57.647
N17115 X48.028 Y57.72
N17120 X47.402 Y57.747
N17125 X47.089 Y57.745
N17130 X46.464 Y57.716
N17135 X45.884 Y57.65
N17140 X45.688 Y57.599
N17145 X45.516 Y57.493
N17150 X45.38 Y57.343
N17155 G3 X45.477 Y56.93 Z-6.79 I0.255 J-0.158
N17160 G1 X45.535 Y56.903
N17165 X45.597 Y56.888
N17170 X45.742 Y56.869
N17175 X50.286 Y56.288
N17180 X50.325 Y56.283
N17185 X50.383 Y56.281
N17190 X50.441 Y56.291
N17195 X50.496 Y56.311
N17200 X50.546 Y56.342
N17205 G3 X50.601 Y56.763 Z-6.99 I-0.183 J0.238
N17210 G1 X50.484 Y56.905
N17215 X50.388 Y57.047
N17220 X50.014 Y57.616
N17225 X49.929 Y57.74
N17230 X49.832 Y57.855
N17235 X49.722 Y57.963
N17240 X49.596 Y58.069
N17245 X49.432 Y58.185
N17250 X49.233 Y58.303
N17255 X49.007 Y58.414
N17260 X48.71 Y58.532
N17265 X48.37 Y58.635
N17270 X47.957 Y58.726
N17275 X47.458 Y58.794
N17280 X46.92 Y58.823
N17285 X46.544 Y58.813
N17290 X46.465 Y58.805
N17295 X46.254 Y58.748
N17300 X46.071 Y58.629
N17305 X45.933 Y58.46
N17310 X45.854 Y58.257
N17315 G3 X46.09 Y57.91 Z-6.793 I0.295 J-0.053
N17320 G1 X46.096 Y57.908 Z-6.79
N17325 X46.365 Y57.853
N17330 X49.637 Y57.186
N17335 X49.694 Y57.174
N17340 X49.747 Y57.168
N17345 X49.801 Y57.172
N17350 X49.853 Y57.185
N17355 X49.903 Y57.207
N17360 G3 X50.014 Y57.616 Z-6.99 I-0.149 J0.261
N17365 G1 X49.921 Y57.768
