%
(CONNECTOR_V1)
(T1 D=3. CR=0. - ZMIN=-11. - FLAT END MILL)
N10 G90 G94 G17 G91.1
N15 G21
N20 G53 G0 Z0.
(2D POCKET1)
N25 T1 M6
N30 S5000 M3
N35 G17 G90 G94
N40 G54
N45 G0 X48.815 Y45.334
N50 G43 Z15. H1
N55 G0 Z5.
N60 G1 Z2.8 F333.33
N65 X48.835 Y45.358 Z2.666
N70 X48.89 Y45.427 Z2.561
N75 X48.937 Y45.493 Z2.517
N80 X48.984 Y45.569 Z2.5
N85 G3 X46.516 Y46.994 Z2.35 I-1.234 J0.712
N90 X48.984 Y45.569 Z2.2 I1.234 J-0.712
N95 X46.516 Y46.994 Z2.05 I-1.234 J0.712
N100 X48.984 Y45.569 Z1.9 I1.234 J-0.712
N105 X46.516 Y46.994 Z1.75 I-1.234 J0.712
N110 X48.984 Y45.569 Z1.6 I1.234 J-0.712
N115 X46.516 Y46.994 Z1.45 I-1.234 J0.712
N120 X48.984 Y45.569 Z1.3 I1.234 J-0.712
N125 X46.516 Y46.994 Z1.15 I-1.234 J0.712
N130 X48.984 Y45.569 Z1. I1.234 J-0.712
N135 X46.516 Y46.994 Z0.85 I-1.234 J0.712
N140 X48.984 Y45.569 Z0.7 I1.234 J-0.712
N145 X46.516 Y46.994 Z0.55 I-1.234 J0.712
N150 X48.984 Y45.569 Z0.4 I1.234 J-0.712
N155 X46.516 Y46.994 Z0.25 I-1.234 J0.712
N160 X48.984 Y45.569 Z0.1 I1.234 J-0.712
N165 X46.516 Y46.994 Z-0.05 I-1.234 J0.712
N170 X48.984 Y45.569 Z-0.2 I1.234 J-0.712
N175 X47.75 Y47.707 Z-0.3 I-1.234 J0.712
N180 G1 X47.547 Y47.705 F1000.
N185 X47.445 Y47.7
N190 X47.344 Y47.688
N195 X47.311 Y47.676
N200 X47.284 Y47.653
N205 X47.267 Y47.621
N210 X47.263 Y47.586
N215 X47.272 Y47.551
N220 X47.294 Y47.522
N225 X47.324 Y47.503
N230 X47.359 Y47.497
N235 X48.141
N240 X48.176 Y47.503
N245 X48.206 Y47.522
N250 X48.228 Y47.551
N255 X48.237 Y47.586
N260 X48.233 Y47.621
N265 X48.216 Y47.653
N270 X48.189 Y47.676
N275 X48.156 Y47.688
N280 X48.055 Y47.7
N285 X47.953 Y47.705
N290 X47.75 Y47.707
N295 G2 X46.67 Y48.346 I0. J1.232
N300 G3 X45.456 Y48.667 I-0.759 J-0.417
N305 X45.127 Y48.443 I2.294 J-3.727
N310 X43.582 Y46.15 I2.52 J-3.366
N315 X43.809 Y45.855 I0.227 J-0.06
N320 G1 X51.691
N325 G3 X51.918 Y46.15 I0. J0.235
N330 X50.373 Y48.443 I-4.065 J-1.073
N335 X45.456 Y48.667 I-2.623 J-3.503
N340 G2 X44.088 Y48.659 I-0.691 J1.123
N345 G3 X42.752 Y48.361 I-0.511 J-0.853
N350 X41.77 Y44.438 I4.931 J-3.318
N355 X42.084 Y44.155 I0.314 J0.032
N360 G1 X53.416
N365 G3 X53.73 Y44.438 I0. J0.315
N370 X52.201 Y49.056 I-5.912 J0.605
N375 X43.299 I-4.451 J-4.074
N380 X42.752 Y48.361 I4.384 J-4.013
N385 G2 X41.476 Y47.786 I-1.101 J0.741
N390 G3 X40.312 Y47.01 I-0.14 J-1.051
N395 X40.39 Y42.751 I7.438 J-1.994
N400 X40.793 Y42.455 I0.403 J0.126
N405 G1 X54.707
N410 G3 X55.11 Y42.751 I0. J0.422
N415 X47.75 Y52.716 I-7.327 J2.288
N420 X40.312 Y47.01 I0. J-7.701
N425 G2 X39.262 Y46.037 I-1.298 J0.348
N430 G3 X38.353 Y44.931 I0.206 J-1.096
N435 X39.217 Y41.081 I9.397 J0.088
N440 X39.729 Y40.755 I0.512 J0.238
N445 G1 X55.771
N450 G3 X56.283 Y41.081 I0. J0.565
N455 X47.75 Y54.416 I-8.505 J3.955
N460 X38.353 Y44.931 I0. J-9.398
N465 G2 X37.583 Y43.688 I-1.366 J-0.013
N470 G3 X36.963 Y42.364 I0.506 J-1.044
N475 X38.392 Y39.05 I10.787 J2.686
N480 G1 X57.108
N485 G3 X38.392 Y51.05 I-9.358 J6.
N490 X36.963 Y42.364 I9.358 J-6.
N495 X38.852 Y41.377 Z-0.344 I1.383 J0.344 F333.33
N500 G1 X48.256 Y44.949 Z-0.528
N505 G3 X47.75 Y47.707 Z-0.6 I-0.506 J1.332
N510 G1 X47.547 Y47.705 F1000.
N515 X47.445 Y47.7
N520 X47.344 Y47.688
N525 X47.311 Y47.676
N530 X47.284 Y47.653
N535 X47.267 Y47.621
N540 X47.263 Y47.586
N545 X47.272 Y47.551
N550 X47.294 Y47.522
N555 X47.324 Y47.503
N560 X47.359 Y47.497
N565 X48.141
N570 X48.176 Y47.503
N575 X48.206 Y47.522
N580 X48.228 Y47.551
N585 X48.237 Y47.586
N590 X48.233 Y47.621
N595 X48.216 Y47.653
N600 X48.189 Y47.676
N605 X48.156 Y47.688
N610 X48.055 Y47.7
N615 X47.953 Y47.705
N620 X47.75 Y47.707
N625 G2 X46.67 Y48.346 I0. J1.232
N630 G3 X45.456 Y48.667 I-0.759 J-0.417
N635 X45.127 Y48.443 I2.294 J-3.727
N640 X43.582 Y46.15 I2.52 J-3.366
N645 X43.809 Y45.855 I0.227 J-0.06
N650 G1 X51.691
N655 G3 X51.918 Y46.15 I0. J0.235
N660 X50.373 Y48.443 I-4.065 J-1.073
N665 X45.456 Y48.667 I-2.623 J-3.503
N670 G2 X44.088 Y48.659 I-0.691 J1.123
N675 G3 X42.752 Y48.361 I-0.511 J-0.853
N680 X41.77 Y44.438 I4.931 J-3.318
N685 X42.084 Y44.155 I0.314 J0.032
N690 G1 X53.416
N695 G3 X53.73 Y44.438 I0. J0.315
N700 X52.201 Y49.056 I-5.912 J0.605
N705 X43.299 I-4.451 J-4.074
N710 X42.752 Y48.361 I4.384 J-4.013
N715 G2 X41.476 Y47.786 I-1.101 J0.741
N720 G3 X40.312 Y47.01 I-0.14 J-1.051
N725 X40.39 Y42.751 I7.438 J-1.994
N730 X40.793 Y42.455 I0.403 J0.126
N735 G1 X54.707
N740 G3 X55.11 Y42.751 I0. J0.422
N745 X47.75 Y52.716 I-7.327 J2.288
N750 X40.312 Y47.01 I0. J-7.701
N755 G2 X39.262 Y46.037 I-1.298 J0.348
N760 G3 X38.353 Y44.931 I0.206 J-1.096
N765 X39.217 Y41.081 I9.397 J0.088
N770 X39.729 Y40.755 I0.512 J0.238
N775 G1 X55.771
N780 G3 X56.283 Y41.081 I0. J0.565
N785 X47.75 Y54.416 I-8.505 J3.955
N790 X38.353 Y44.931 I0. J-9.398
N795 G2 X37.583 Y43.688 I-1.366 J-0.013
N800 G3 X36.963 Y42.364 I0.506 J-1.044
N805 X38.392 Y39.05 I10.787 J2.686
N810 G1 X57.108
N815 G3 X38.392 Y51.05 I-9.358 J6.
N820 X36.963 Y42.364 I9.358 J-6.
N825 X38.852 Y41.377 Z-0.644 I1.383 J0.344 F333.33
N830 G1 X48.256 Y44.949 Z-0.828
N835 G3 X47.75 Y47.707 Z-0.9 I-0.506 J1.332
N840 G1 X47.547 Y47.705 F1000.
N845 X47.445 Y47.7
N850 X47.344 Y47.688
N855 X47.311 Y47.676
N860 X47.284 Y47.653
N865 X47.267 Y47.621
N870 X47.263 Y47.586
N875 X47.272 Y47.551
N880 X47.294 Y47.522
N885 X47.324 Y47.503
N890 X47.359 Y47.497
N895 X48.141
N900 X48.176 Y47.503
N905 X48.206 Y47.522
N910 X48.228 Y47.551
N915 X48.237 Y47.586
N920 X48.233 Y47.621
N925 X48.216 Y47.653
N930 X48.189 Y47.676
N935 X48.156 Y47.688
N940 X48.055 Y47.7
N945 X47.953 Y47.705
N950 X47.75 Y47.707
N955 G2 X46.67 Y48.346 I0. J1.232
N960 G3 X45.456 Y48.667 I-0.759 J-0.417
N965 X45.127 Y48.443 I2.294 J-3.727
N970 X43.582 Y46.15 I2.52 J-3.366
N975 X43.809 Y45.855 I0.227 J-0.06
N980 G1 X51.691
N985 G3 X51.918 Y46.15 I0. J0.235
N990 X50.373 Y48.443 I-4.065 J-1.073
N995 X45.456 Y48.667 I-2.623 J-3.503
N1000 G2 X44.088 Y48.659 I-0.691 J1.123
N1005 G3 X42.752 Y48.361 I-0.511 J-0.853
N1010 X41.77 Y44.438 I4.931 J-3.318
N1015 X42.084 Y44.155 I0.314 J0.032
N1020 G1 X53.416
N1025 G3 X53.73 Y44.438 I0. J0.315
N1030 X52.201 Y49.056 I-5.912 J0.605
N1035 X43.299 I-4.451 J-4.074
N1040 X42.752 Y48.361 I4.384 J-4.013
N1045 G2 X41.476 Y47.786 I-1.101 J0.741
N1050 G3 X40.312 Y47.01 I-0.14 J-1.051
N1055 X40.39 Y42.751 I7.438 J-1.994
N1060 X40.793 Y42.455 I0.403 J0.126
N1065 G1 X54.707
N1070 G3 X55.11 Y42.751 I0. J0.422
N1075 X47.75 Y52.716 I-7.327 J2.288
N1080 X40.312 Y47.01 I0. J-7.701
N1085 G2 X39.262 Y46.037 I-1.298 J0.348
N1090 G3 X38.353 Y44.931 I0.206 J-1.096
N1095 X39.217 Y41.081 I9.397 J0.088
N1100 X39.729 Y40.755 I0.512 J0.238
N1105 G1 X55.771
N1110 G3 X56.283 Y41.081 I0. J0.565
N1115 X47.75 Y54.416 I-8.505 J3.955
N1120 X38.353 Y44.931 I0. J-9.398
N1125 G2 X37.583 Y43.688 I-1.366 J-0.013
N1130 G3 X36.963 Y42.364 I0.506 J-1.044
N1135 X38.392 Y39.05 I10.787 J2.686
N1140 G1 X57.108
N1145 G3 X38.392 Y51.05 I-9.358 J6.
N1150 X36.963 Y42.364 I9.358 J-6.
N1155 X38.852 Y41.377 Z-0.944 I1.383 J0.344 F333.33
N1160 G1 X48.256 Y44.949 Z-1.128
N1165 G3 X47.75 Y47.707 Z-1.2 I-0.506 J1.332
N1170 G1 X47.547 Y47.705 F1000.
N1175 X47.445 Y47.7
N1180 X47.344 Y47.688
N1185 X47.311 Y47.676
N1190 X47.284 Y47.653
N1195 X47.267 Y47.621
N1200 X47.263 Y47.586
N1205 X47.272 Y47.551
N1210 X47.294 Y47.522
N1215 X47.324 Y47.503
N1220 X47.359 Y47.497
N1225 X48.141
N1230 X48.176 Y47.503
N1235 X48.206 Y47.522
N1240 X48.228 Y47.551
N1245 X48.237 Y47.586
N1250 X48.233 Y47.621
N1255 X48.216 Y47.653
N1260 X48.189 Y47.676
N1265 X48.156 Y47.688
N1270 X48.055 Y47.7
N1275 X47.953 Y47.705
N1280 X47.75 Y47.707
N1285 G2 X46.67 Y48.346 I0. J1.232
N1290 G3 X45.456 Y48.667 I-0.759 J-0.417
N1295 X45.127 Y48.443 I2.294 J-3.727
N1300 X43.582 Y46.15 I2.52 J-3.366
N1305 X43.809 Y45.855 I0.227 J-0.06
N1310 G1 X51.691
N1315 G3 X51.918 Y46.15 I0. J0.235
N1320 X50.373 Y48.443 I-4.065 J-1.073
N1325 X45.456 Y48.667 I-2.623 J-3.503
N1330 G2 X44.088 Y48.659 I-0.691 J1.123
N1335 G3 X42.752 Y48.361 I-0.511 J-0.853
N1340 X41.77 Y44.438 I4.931 J-3.318
N1345 X42.084 Y44.155 I0.314 J0.032
N1350 G1 X53.416
N1355 G3 X53.73 Y44.438 I0. J0.315
N1360 X52.201 Y49.056 I-5.912 J0.605
N1365 X43.299 I-4.451 J-4.074
N1370 X42.752 Y48.361 I4.384 J-4.013
N1375 G2 X41.476 Y47.786 I-1.101 J0.741
N1380 G3 X40.312 Y47.01 I-0.14 J-1.051
N1385 X40.39 Y42.751 I7.438 J-1.994
N1390 X40.793 Y42.455 I0.403 J0.126
N1395 G1 X54.707
N1400 G3 X55.11 Y42.751 I0. J0.422
N1405 X47.75 Y52.716 I-7.327 J2.288
N1410 X40.312 Y47.01 I0. J-7.701
N1415 G2 X39.262 Y46.037 I-1.298 J0.348
N1420 G3 X38.353 Y44.931 I0.206 J-1.096
N1425 X39.217 Y41.081 I9.397 J0.088
N1430 X39.729 Y40.755 I0.512 J0.238
N1435 G1 X55.771
N1440 G3 X56.283 Y41.081 I0. J0.565
N1445 X47.75 Y54.416 I-8.505 J3.955
N1450 X38.353 Y44.931 I0. J-9.398
N1455 G2 X37.583 Y43.688 I-1.366 J-0.013
N1460 G3 X36.963 Y42.364 I0.506 J-1.044
N1465 X38.392 Y39.05 I10.787 J2.686
N1470 G1 X57.108
N1475 G3 X38.392 Y51.05 I-9.358 J6.
N1480 X36.963 Y42.364 I9.358 J-6.
N1485 X38.852 Y41.377 Z-1.244 I1.383 J0.344 F333.33
N1490 G1 X48.256 Y44.949 Z-1.428
N1495 G3 X47.75 Y47.707 Z-1.5 I-0.506 J1.332
N1500 G1 X47.547 Y47.705 F1000.
N1505 X47.445 Y47.7
N1510 X47.344 Y47.688
N1515 X47.311 Y47.676
N1520 X47.284 Y47.653
N1525 X47.267 Y47.621
N1530 X47.263 Y47.586
N1535 X47.272 Y47.551
N1540 X47.294 Y47.522
N1545 X47.324 Y47.503
N1550 X47.359 Y47.497
N1555 X48.141
N1560 X48.176 Y47.503
N1565 X48.206 Y47.522
N1570 X48.228 Y47.551
N1575 X48.237 Y47.586
N1580 X48.233 Y47.621
N1585 X48.216 Y47.653
N1590 X48.189 Y47.676
N1595 X48.156 Y47.688
N1600 X48.055 Y47.7
N1605 X47.953 Y47.705
N1610 X47.75 Y47.707
N1615 G2 X46.67 Y48.346 I0. J1.232
N1620 G3 X45.456 Y48.667 I-0.759 J-0.417
N1625 X45.127 Y48.443 I2.294 J-3.727
N1630 X43.582 Y46.15 I2.52 J-3.366
N1635 X43.809 Y45.855 I0.227 J-0.06
N1640 G1 X51.691
N1645 G3 X51.918 Y46.15 I0. J0.235
N1650 X50.373 Y48.443 I-4.065 J-1.073
N1655 X45.456 Y48.667 I-2.623 J-3.503
N1660 G2 X44.088 Y48.659 I-0.691 J1.123
N1665 G3 X42.752 Y48.361 I-0.511 J-0.853
N1670 X41.77 Y44.438 I4.931 J-3.318
N1675 X42.084 Y44.155 I0.314 J0.032
N1680 G1 X53.416
N1685 G3 X53.73 Y44.438 I0. J0.315
N1690 X52.201 Y49.056 I-5.912 J0.605
N1695 X43.299 I-4.451 J-4.074
N1700 X42.752 Y48.361 I4.384 J-4.013
N1705 G2 X41.476 Y47.786 I-1.101 J0.741
N1710 G3 X40.312 Y47.01 I-0.14 J-1.051
N1715 X40.39 Y42.751 I7.438 J-1.994
N1720 X40.793 Y42.455 I0.403 J0.126
N1725 G1 X54.707
N1730 G3 X55.11 Y42.751 I0. J0.422
N1735 X47.75 Y52.716 I-7.327 J2.288
N1740 X40.312 Y47.01 I0. J-7.701
N1745 G2 X39.262 Y46.037 I-1.298 J0.348
N1750 G3 X38.353 Y44.931 I0.206 J-1.096
N1755 X39.217 Y41.081 I9.397 J0.088
N1760 X39.729 Y40.755 I0.512 J0.238
N1765 G1 X55.771
N1770 G3 X56.283 Y41.081 I0. J0.565
N1775 X47.75 Y54.416 I-8.505 J3.955
N1780 X38.353 Y44.931 I0. J-9.398
N1785 G2 X37.583 Y43.688 I-1.366 J-0.013
N1790 G3 X36.963 Y42.364 I0.506 J-1.044
N1795 X38.392 Y39.05 I10.787 J2.686
N1800 G1 X57.108
N1805 G3 X38.392 Y51.05 I-9.358 J6.
N1810 X36.963 Y42.364 I9.358 J-6.
N1815 X38.852 Y41.377 Z-1.544 I1.383 J0.344 F333.33
N1820 G1 X48.256 Y44.949 Z-1.728
N1825 G3 X47.75 Y47.707 Z-1.8 I-0.506 J1.332
N1830 G1 X47.547 Y47.705 F1000.
N1835 X47.445 Y47.7
N1840 X47.344 Y47.688
N1845 X47.311 Y47.676
N1850 X47.284 Y47.653
N1855 X47.267 Y47.621
N1860 X47.263 Y47.586
N1865 X47.272 Y47.551
N1870 X47.294 Y47.522
N1875 X47.324 Y47.503
N1880 X47.359 Y47.497
N1885 X48.141
N1890 X48.176 Y47.503
N1895 X48.206 Y47.522
N1900 X48.228 Y47.551
N1905 X48.237 Y47.586
N1910 X48.233 Y47.621
N1915 X48.216 Y47.653
N1920 X48.189 Y47.676
N1925 X48.156 Y47.688
N1930 X48.055 Y47.7
N1935 X47.953 Y47.705
N1940 X47.75 Y47.707
N1945 G2 X46.67 Y48.346 I0. J1.232
N1950 G3 X45.456 Y48.667 I-0.759 J-0.417
N1955 X45.127 Y48.443 I2.294 J-3.727
N1960 X43.582 Y46.15 I2.52 J-3.366
N1965 X43.809 Y45.855 I0.227 J-0.06
N1970 G1 X51.691
N1975 G3 X51.918 Y46.15 I0. J0.235
N1980 X50.373 Y48.443 I-4.065 J-1.073
N1985 X45.456 Y48.667 I-2.623 J-3.503
N1990 G2 X44.088 Y48.659 I-0.691 J1.123
N1995 G3 X42.752 Y48.361 I-0.511 J-0.853
N2000 X41.77 Y44.438 I4.931 J-3.318
N2005 X42.084 Y44.155 I0.314 J0.032
N2010 G1 X53.416
N2015 G3 X53.73 Y44.438 I0. J0.315
N2020 X52.201 Y49.056 I-5.912 J0.605
N2025 X43.299 I-4.451 J-4.074
N2030 X42.752 Y48.361 I4.384 J-4.013
N2035 G2 X41.476 Y47.786 I-1.101 J0.741
N2040 G3 X40.312 Y47.01 I-0.14 J-1.051
N2045 X40.39 Y42.751 I7.438 J-1.994
N2050 X40.793 Y42.455 I0.403 J0.126
N2055 G1 X54.707
N2060 G3 X55.11 Y42.751 I0. J0.422
N2065 X47.75 Y52.716 I-7.327 J2.288
N2070 X40.312 Y47.01 I0. J-7.701
N2075 G2 X39.262 Y46.037 I-1.298 J0.348
N2080 G3 X38.353 Y44.931 I0.206 J-1.096
N2085 X39.217 Y41.081 I9.397 J0.088
N2090 X39.729 Y40.755 I0.512 J0.238
N2095 G1 X55.771
N2100 G3 X56.283 Y41.081 I0. J0.565
N2105 X47.75 Y54.416 I-8.505 J3.955
N2110 X38.353 Y44.931 I0. J-9.398
N2115 G2 X37.583 Y43.688 I-1.366 J-0.013
N2120 G3 X36.963 Y42.364 I0.506 J-1.044
N2125 X38.392 Y39.05 I10.787 J2.686
N2130 G1 X57.108
N2135 G3 X38.392 Y51.05 I-9.358 J6.
N2140 X36.963 Y42.364 I9.358 J-6.
N2145 X38.852 Y41.377 Z-1.844 I1.383 J0.344 F333.33
N2150 G1 X48.256 Y44.949 Z-2.028
N2155 G3 X47.75 Y47.707 Z-2.1 I-0.506 J1.332
N2160 G1 X47.547 Y47.705 F1000.
N2165 X47.445 Y47.7
N2170 X47.344 Y47.688
N2175 X47.311 Y47.676
N2180 X47.284 Y47.653
N2185 X47.267 Y47.621
N2190 X47.263 Y47.586
N2195 X47.272 Y47.551
N2200 X47.294 Y47.522
N2205 X47.324 Y47.503
N2210 X47.359 Y47.497
N2215 X48.141
N2220 X48.176 Y47.503
N2225 X48.206 Y47.522
N2230 X48.228 Y47.551
N2235 X48.237 Y47.586
N2240 X48.233 Y47.621
N2245 X48.216 Y47.653
N2250 X48.189 Y47.676
N2255 X48.156 Y47.688
N2260 X48.055 Y47.7
N2265 X47.953 Y47.705
N2270 X47.75 Y47.707
N2275 G2 X46.67 Y48.346 I0. J1.232
N2280 G3 X45.456 Y48.667 I-0.759 J-0.417
N2285 X45.127 Y48.443 I2.294 J-3.727
N2290 X43.582 Y46.15 I2.52 J-3.366
N2295 X43.809 Y45.855 I0.227 J-0.06
N2300 G1 X51.691
N2305 G3 X51.918 Y46.15 I0. J0.235
N2310 X50.373 Y48.443 I-4.065 J-1.073
N2315 X45.456 Y48.667 I-2.623 J-3.503
N2320 G2 X44.088 Y48.659 I-0.691 J1.123
N2325 G3 X42.752 Y48.361 I-0.511 J-0.853
N2330 X41.77 Y44.438 I4.931 J-3.318
N2335 X42.084 Y44.155 I0.314 J0.032
N2340 G1 X53.416
N2345 G3 X53.73 Y44.438 I0. J0.315
N2350 X52.201 Y49.056 I-5.912 J0.605
N2355 X43.299 I-4.451 J-4.074
N2360 X42.752 Y48.361 I4.384 J-4.013
N2365 G2 X41.476 Y47.786 I-1.101 J0.741
N2370 G3 X40.312 Y47.01 I-0.14 J-1.051
N2375 X40.39 Y42.751 I7.438 J-1.994
N2380 X40.793 Y42.455 I0.403 J0.126
N2385 G1 X54.707
N2390 G3 X55.11 Y42.751 I0. J0.422
N2395 X47.75 Y52.716 I-7.327 J2.288
N2400 X40.312 Y47.01 I0. J-7.701
N2405 G2 X39.262 Y46.037 I-1.298 J0.348
N2410 G3 X38.353 Y44.931 I0.206 J-1.096
N2415 X39.217 Y41.081 I9.397 J0.088
N2420 X39.729 Y40.755 I0.512 J0.238
N2425 G1 X55.771
N2430 G3 X56.283 Y41.081 I0. J0.565
N2435 X47.75 Y54.416 I-8.505 J3.955
N2440 X38.353 Y44.931 I0. J-9.398
N2445 G2 X37.583 Y43.688 I-1.366 J-0.013
N2450 G3 X36.963 Y42.364 I0.506 J-1.044
N2455 X38.392 Y39.05 I10.787 J2.686
N2460 G1 X57.108
N2465 G3 X38.392 Y51.05 I-9.358 J6.
N2470 X36.963 Y42.364 I9.358 J-6.
N2475 X38.852 Y41.377 Z-2.144 I1.383 J0.344 F333.33
N2480 G1 X48.256 Y44.949 Z-2.328
N2485 G3 X47.75 Y47.707 Z-2.4 I-0.506 J1.332
N2490 G1 X47.547 Y47.705 F1000.
N2495 X47.445 Y47.7
N2500 X47.344 Y47.688
N2505 X47.311 Y47.676
N2510 X47.284 Y47.653
N2515 X47.267 Y47.621
N2520 X47.263 Y47.586
N2525 X47.272 Y47.551
N2530 X47.294 Y47.522
N2535 X47.324 Y47.503
N2540 X47.359 Y47.497
N2545 X48.141
N2550 X48.176 Y47.503
N2555 X48.206 Y47.522
N2560 X48.228 Y47.551
N2565 X48.237 Y47.586
N2570 X48.233 Y47.621
N2575 X48.216 Y47.653
N2580 X48.189 Y47.676
N2585 X48.156 Y47.688
N2590 X48.055 Y47.7
N2595 X47.953 Y47.705
N2600 X47.75 Y47.707
N2605 G2 X46.67 Y48.346 I0. J1.232
N2610 G3 X45.456 Y48.667 I-0.759 J-0.417
N2615 X45.127 Y48.443 I2.294 J-3.727
N2620 X43.582 Y46.15 I2.52 J-3.366
N2625 X43.809 Y45.855 I0.227 J-0.06
N2630 G1 X51.691
N2635 G3 X51.918 Y46.15 I0. J0.235
N2640 X50.373 Y48.443 I-4.065 J-1.073
N2645 X45.456 Y48.667 I-2.623 J-3.503
N2650 G2 X44.088 Y48.659 I-0.691 J1.123
N2655 G3 X42.752 Y48.361 I-0.511 J-0.853
N2660 X41.77 Y44.438 I4.931 J-3.318
N2665 X42.084 Y44.155 I0.314 J0.032
N2670 G1 X53.416
N2675 G3 X53.73 Y44.438 I0. J0.315
N2680 X52.201 Y49.056 I-5.912 J0.605
N2685 X43.299 I-4.451 J-4.074
N2690 X42.752 Y48.361 I4.384 J-4.013
N2695 G2 X41.476 Y47.786 I-1.101 J0.741
N2700 G3 X40.312 Y47.01 I-0.14 J-1.051
N2705 X40.39 Y42.751 I7.438 J-1.994
N2710 X40.793 Y42.455 I0.403 J0.126
N2715 G1 X54.707
N2720 G3 X55.11 Y42.751 I0. J0.422
N2725 X47.75 Y52.716 I-7.327 J2.288
N2730 X40.312 Y47.01 I0. J-7.701
N2735 G2 X39.262 Y46.037 I-1.298 J0.348
N2740 G3 X38.353 Y44.931 I0.206 J-1.096
N2745 X39.217 Y41.081 I9.397 J0.088
N2750 X39.729 Y40.755 I0.512 J0.238
N2755 G1 X55.771
N2760 G3 X56.283 Y41.081 I0. J0.565
N2765 X47.75 Y54.416 I-8.505 J3.955
N2770 X38.353 Y44.931 I0. J-9.398
N2775 G2 X37.583 Y43.688 I-1.366 J-0.013
N2780 G3 X36.963 Y42.364 I0.506 J-1.044
N2785 X38.392 Y39.05 I10.787 J2.686
N2790 G1 X57.108
N2795 G3 X38.392 Y51.05 I-9.358 J6.
N2800 X36.963 Y42.364 I9.358 J-6.
N2805 X38.852 Y41.377 Z-2.444 I1.383 J0.344 F333.33
N2810 G1 X48.256 Y44.949 Z-2.628
N2815 G3 X47.75 Y47.707 Z-2.7 I-0.506 J1.332
N2820 G1 X47.547 Y47.705 F1000.
N2825 X47.445 Y47.7
N2830 X47.344 Y47.688
N2835 X47.311 Y47.676
N2840 X47.284 Y47.653
N2845 X47.267 Y47.621
N2850 X47.263 Y47.586
N2855 X47.272 Y47.551
N2860 X47.294 Y47.522
N2865 X47.324 Y47.503
N2870 X47.359 Y47.497
N2875 X48.141
N2880 X48.176 Y47.503
N2885 X48.206 Y47.522
N2890 X48.228 Y47.551
N2895 X48.237 Y47.586
N2900 X48.233 Y47.621
N2905 X48.216 Y47.653
N2910 X48.189 Y47.676
N2915 X48.156 Y47.688
N2920 X48.055 Y47.7
N2925 X47.953 Y47.705
N2930 X47.75 Y47.707
N2935 G2 X46.67 Y48.346 I0. J1.232
N2940 G3 X45.456 Y48.667 I-0.759 J-0.417
N2945 X45.127 Y48.443 I2.294 J-3.727
N2950 X43.582 Y46.15 I2.52 J-3.366
N2955 X43.809 Y45.855 I0.227 J-0.06
N2960 G1 X51.691
N2965 G3 X51.918 Y46.15 I0. J0.235
N2970 X50.373 Y48.443 I-4.065 J-1.073
N2975 X45.456 Y48.667 I-2.623 J-3.503
N2980 G2 X44.088 Y48.659 I-0.691 J1.123
N2985 G3 X42.752 Y48.361 I-0.511 J-0.853
N2990 X41.77 Y44.438 I4.931 J-3.318
N2995 X42.084 Y44.155 I0.314 J0.032
N3000 G1 X53.416
N3005 G3 X53.73 Y44.438 I0. J0.315
N3010 X52.201 Y49.056 I-5.912 J0.605
N3015 X43.299 I-4.451 J-4.074
N3020 X42.752 Y48.361 I4.384 J-4.013
N3025 G2 X41.476 Y47.786 I-1.101 J0.741
N3030 G3 X40.312 Y47.01 I-0.14 J-1.051
N3035 X40.39 Y42.751 I7.438 J-1.994
N3040 X40.793 Y42.455 I0.403 J0.126
N3045 G1 X54.707
N3050 G3 X55.11 Y42.751 I0. J0.422
N3055 X47.75 Y52.716 I-7.327 J2.288
N3060 X40.312 Y47.01 I0. J-7.701
N3065 G2 X39.262 Y46.037 I-1.298 J0.348
N3070 G3 X38.353 Y44.931 I0.206 J-1.096
N3075 X39.217 Y41.081 I9.397 J0.088
N3080 X39.729 Y40.755 I0.512 J0.238
N3085 G1 X55.771
N3090 G3 X56.283 Y41.081 I0. J0.565
N3095 X47.75 Y54.416 I-8.505 J3.955
N3100 X38.353 Y44.931 I0. J-9.398
N3105 G2 X37.583 Y43.688 I-1.366 J-0.013
N3110 G3 X36.963 Y42.364 I0.506 J-1.044
N3115 X38.392 Y39.05 I10.787 J2.686
N3120 G1 X57.108
N3125 G3 X38.392 Y51.05 I-9.358 J6.
N3130 X36.963 Y42.364 I9.358 J-6.
N3135 X38.852 Y41.377 Z-2.744 I1.383 J0.344 F333.33
N3140 G1 X48.256 Y44.949 Z-2.928
N3145 G3 X47.75 Y47.707 Z-3. I-0.506 J1.332
N3150 G1 X47.547 Y47.705 F1000.
N3155 X47.445 Y47.7
N3160 X47.344 Y47.688
N3165 X47.311 Y47.676
N3170 X47.284 Y47.653
N3175 X47.267 Y47.621
N3180 X47.263 Y47.586
N3185 X47.272 Y47.551
N3190 X47.294 Y47.522
N3195 X47.324 Y47.503
N3200 X47.359 Y47.497
N3205 X48.141
N3210 X48.176 Y47.503
N3215 X48.206 Y47.522
N3220 X48.228 Y47.551
N3225 X48.237 Y47.586
N3230 X48.233 Y47.621
N3235 X48.216 Y47.653
N3240 X48.189 Y47.676
N3245 X48.156 Y47.688
N3250 X48.055 Y47.7
N3255 X47.953 Y47.705
N3260 X47.75 Y47.707
N3265 G2 X46.67 Y48.346 I0. J1.232
N3270 G3 X45.456 Y48.667 I-0.759 J-0.417
N3275 X45.127 Y48.443 I2.294 J-3.727
N3280 X43.582 Y46.15 I2.52 J-3.366
N3285 X43.809 Y45.855 I0.227 J-0.06
N3290 G1 X51.691
N3295 G3 X51.918 Y46.15 I0. J0.235
N3300 X50.373 Y48.443 I-4.065 J-1.073
N3305 X45.456 Y48.667 I-2.623 J-3.503
N3310 G2 X44.088 Y48.659 I-0.691 J1.123
N3315 G3 X42.752 Y48.361 I-0.511 J-0.853
N3320 X41.77 Y44.438 I4.931 J-3.318
N3325 X42.084 Y44.155 I0.314 J0.032
N3330 G1 X53.416
N3335 G3 X53.73 Y44.438 I0. J0.315
N3340 X52.201 Y49.056 I-5.912 J0.605
N3345 X43.299 I-4.451 J-4.074
N3350 X42.752 Y48.361 I4.384 J-4.013
N3355 G2 X41.476 Y47.786 I-1.101 J0.741
N3360 G3 X40.312 Y47.01 I-0.14 J-1.051
N3365 X40.39 Y42.751 I7.438 J-1.994
N3370 X40.793 Y42.455 I0.403 J0.126
N3375 G1 X54.707
N3380 G3 X55.11 Y42.751 I0. J0.422
N3385 X47.75 Y52.716 I-7.327 J2.288
N3390 X40.312 Y47.01 I0. J-7.701
N3395 G2 X39.262 Y46.037 I-1.298 J0.348
N3400 G3 X38.353 Y44.931 I0.206 J-1.096
N3405 X39.217 Y41.081 I9.397 J0.088
N3410 X39.729 Y40.755 I0.512 J0.238
N3415 G1 X55.771
N3420 G3 X56.283 Y41.081 I0. J0.565
N3425 X47.75 Y54.416 I-8.505 J3.955
N3430 X38.353 Y44.931 I0. J-9.398
N3435 G2 X37.583 Y43.688 I-1.366 J-0.013
N3440 G3 X36.963 Y42.364 I0.506 J-1.044
N3445 X38.392 Y39.05 I10.787 J2.686
N3450 G1 X57.108
N3455 G3 X38.392 Y51.05 I-9.358 J6.
N3460 X36.963 Y42.364 I9.358 J-6.
N3465 X38.852 Y41.377 Z-3.044 I1.383 J0.344 F333.33
N3470 G1 X48.256 Y44.949 Z-3.228
N3475 G3 X47.75 Y47.707 Z-3.3 I-0.506 J1.332
N3480 G1 X47.547 Y47.705 F1000.
N3485 X47.445 Y47.7
N3490 X47.344 Y47.688
N3495 X47.311 Y47.676
N3500 X47.284 Y47.653
N3505 X47.267 Y47.621
N3510 X47.263 Y47.586
N3515 X47.272 Y47.551
N3520 X47.294 Y47.522
N3525 X47.324 Y47.503
N3530 X47.359 Y47.497
N3535 X48.141
N3540 X48.176 Y47.503
N3545 X48.206 Y47.522
N3550 X48.228 Y47.551
N3555 X48.237 Y47.586
N3560 X48.233 Y47.621
N3565 X48.216 Y47.653
N3570 X48.189 Y47.676
N3575 X48.156 Y47.688
N3580 X48.055 Y47.7
N3585 X47.953 Y47.705
N3590 X47.75 Y47.707
N3595 G2 X46.67 Y48.346 I0. J1.232
N3600 G3 X45.456 Y48.667 I-0.759 J-0.417
N3605 X45.127 Y48.443 I2.294 J-3.727
N3610 X43.582 Y46.15 I2.52 J-3.366
N3615 X43.809 Y45.855 I0.227 J-0.06
N3620 G1 X51.691
N3625 G3 X51.918 Y46.15 I0. J0.235
N3630 X50.373 Y48.443 I-4.065 J-1.073
N3635 X45.456 Y48.667 I-2.623 J-3.503
N3640 G2 X44.088 Y48.659 I-0.691 J1.123
N3645 G3 X42.752 Y48.361 I-0.511 J-0.853
N3650 X41.77 Y44.438 I4.931 J-3.318
N3655 X42.084 Y44.155 I0.314 J0.032
N3660 G1 X53.416
N3665 G3 X53.73 Y44.438 I0. J0.315
N3670 X52.201 Y49.056 I-5.912 J0.605
N3675 X43.299 I-4.451 J-4.074
N3680 X42.752 Y48.361 I4.384 J-4.013
N3685 G2 X41.476 Y47.786 I-1.101 J0.741
N3690 G3 X40.312 Y47.01 I-0.14 J-1.051
N3695 X40.39 Y42.751 I7.438 J-1.994
N3700 X40.793 Y42.455 I0.403 J0.126
N3705 G1 X54.707
N3710 G3 X55.11 Y42.751 I0. J0.422
N3715 X47.75 Y52.716 I-7.327 J2.288
N3720 X40.312 Y47.01 I0. J-7.701
N3725 G2 X39.262 Y46.037 I-1.298 J0.348
N3730 G3 X38.353 Y44.931 I0.206 J-1.096
N3735 X39.217 Y41.081 I9.397 J0.088
N3740 X39.729 Y40.755 I0.512 J0.238
N3745 G1 X55.771
N3750 G3 X56.283 Y41.081 I0. J0.565
N3755 X47.75 Y54.416 I-8.505 J3.955
N3760 X38.353 Y44.931 I0. J-9.398
N3765 G2 X37.583 Y43.688 I-1.366 J-0.013
N3770 G3 X36.963 Y42.364 I0.506 J-1.044
N3775 X38.392 Y39.05 I10.787 J2.686
N3780 G1 X57.108
N3785 G3 X38.392 Y51.05 I-9.358 J6.
N3790 X36.963 Y42.364 I9.358 J-6.
N3795 X38.852 Y41.377 Z-3.344 I1.383 J0.344 F333.33
N3800 G1 X48.256 Y44.949 Z-3.528
N3805 G3 X47.75 Y47.707 Z-3.6 I-0.506 J1.332
N3810 G1 X47.547 Y47.705 F1000.
N3815 X47.445 Y47.7
N3820 X47.344 Y47.688
N3825 X47.311 Y47.676
N3830 X47.284 Y47.653
N3835 X47.267 Y47.621
N3840 X47.263 Y47.586
N3845 X47.272 Y47.551
N3850 X47.294 Y47.522
N3855 X47.324 Y47.503
N3860 X47.359 Y47.497
N3865 X48.141
N3870 X48.176 Y47.503
N3875 X48.206 Y47.522
N3880 X48.228 Y47.551
N3885 X48.237 Y47.586
N3890 X48.233 Y47.621
N3895 X48.216 Y47.653
N3900 X48.189 Y47.676
N3905 X48.156 Y47.688
N3910 X48.055 Y47.7
N3915 X47.953 Y47.705
N3920 X47.75 Y47.707
N3925 G2 X46.67 Y48.346 I0. J1.232
N3930 G3 X45.456 Y48.667 I-0.759 J-0.417
N3935 X45.127 Y48.443 I2.294 J-3.727
N3940 X43.582 Y46.15 I2.52 J-3.366
N3945 X43.809 Y45.855 I0.227 J-0.06
N3950 G1 X51.691
N3955 G3 X51.918 Y46.15 I0. J0.235
N3960 X50.373 Y48.443 I-4.065 J-1.073
N3965 X45.456 Y48.667 I-2.623 J-3.503
N3970 G2 X44.088 Y48.659 I-0.691 J1.123
N3975 G3 X42.752 Y48.361 I-0.511 J-0.853
N3980 X41.77 Y44.438 I4.931 J-3.318
N3985 X42.084 Y44.155 I0.314 J0.032
N3990 G1 X53.416
N3995 G3 X53.73 Y44.438 I0. J0.315
N4000 X52.201 Y49.056 I-5.912 J0.605
N4005 X43.299 I-4.451 J-4.074
N4010 X42.752 Y48.361 I4.384 J-4.013
N4015 G2 X41.476 Y47.786 I-1.101 J0.741
N4020 G3 X40.312 Y47.01 I-0.14 J-1.051
N4025 X40.39 Y42.751 I7.438 J-1.994
N4030 X40.793 Y42.455 I0.403 J0.126
N4035 G1 X54.707
N4040 G3 X55.11 Y42.751 I0. J0.422
N4045 X47.75 Y52.716 I-7.327 J2.288
N4050 X40.312 Y47.01 I0. J-7.701
N4055 G2 X39.262 Y46.037 I-1.298 J0.348
N4060 G3 X38.353 Y44.931 I0.206 J-1.096
N4065 X39.217 Y41.081 I9.397 J0.088
N4070 X39.729 Y40.755 I0.512 J0.238
N4075 G1 X55.771
N4080 G3 X56.283 Y41.081 I0. J0.565
N4085 X47.75 Y54.416 I-8.505 J3.955
N4090 X38.353 Y44.931 I0. J-9.398
N4095 G2 X37.583 Y43.688 I-1.366 J-0.013
N4100 G3 X36.963 Y42.364 I0.506 J-1.044
N4105 X38.392 Y39.05 I10.787 J2.686
N4110 G1 X57.108
N4115 G3 X38.392 Y51.05 I-9.358 J6.
N4120 X36.963 Y42.364 I9.358 J-6.
N4125 X38.852 Y41.377 Z-3.644 I1.383 J0.344 F333.33
N4130 G1 X48.256 Y44.949 Z-3.828
N4135 G3 X47.75 Y47.707 Z-3.9 I-0.506 J1.332
N4140 G1 X47.547 Y47.705 F1000.
N4145 X47.445 Y47.7
N4150 X47.344 Y47.688
N4155 X47.311 Y47.676
N4160 X47.284 Y47.653
N4165 X47.267 Y47.621
N4170 X47.263 Y47.586
N4175 X47.272 Y47.551
N4180 X47.294 Y47.522
N4185 X47.324 Y47.503
N4190 X47.359 Y47.497
N4195 X48.141
N4200 X48.176 Y47.503
N4205 X48.206 Y47.522
N4210 X48.228 Y47.551
N4215 X48.237 Y47.586
N4220 X48.233 Y47.621
N4225 X48.216 Y47.653
N4230 X48.189 Y47.676
N4235 X48.156 Y47.688
N4240 X48.055 Y47.7
N4245 X47.953 Y47.705
N4250 X47.75 Y47.707
N4255 G2 X46.67 Y48.346 I0. J1.232
N4260 G3 X45.456 Y48.667 I-0.759 J-0.417
N4265 X45.127 Y48.443 I2.294 J-3.727
N4270 X43.582 Y46.15 I2.52 J-3.366
N4275 X43.809 Y45.855 I0.227 J-0.06
N4280 G1 X51.691
N4285 G3 X51.918 Y46.15 I0. J0.235
N4290 X50.373 Y48.443 I-4.065 J-1.073
N4295 X45.456 Y48.667 I-2.623 J-3.503
N4300 G2 X44.088 Y48.659 I-0.691 J1.123
N4305 G3 X42.752 Y48.361 I-0.511 J-0.853
N4310 X41.77 Y44.438 I4.931 J-3.318
N4315 X42.084 Y44.155 I0.314 J0.032
N4320 G1 X53.416
N4325 G3 X53.73 Y44.438 I0. J0.315
N4330 X52.201 Y49.056 I-5.912 J0.605
N4335 X43.299 I-4.451 J-4.074
N4340 X42.752 Y48.361 I4.384 J-4.013
N4345 G2 X41.476 Y47.786 I-1.101 J0.741
N4350 G3 X40.312 Y47.01 I-0.14 J-1.051
N4355 X40.39 Y42.751 I7.438 J-1.994
N4360 X40.793 Y42.455 I0.403 J0.126
N4365 G1 X54.707
N4370 G3 X55.11 Y42.751 I0. J0.422
N4375 X47.75 Y52.716 I-7.327 J2.288
N4380 X40.312 Y47.01 I0. J-7.701
N4385 G2 X39.262 Y46.037 I-1.298 J0.348
N4390 G3 X38.353 Y44.931 I0.206 J-1.096
N4395 X39.217 Y41.081 I9.397 J0.088
N4400 X39.729 Y40.755 I0.512 J0.238
N4405 G1 X55.771
N4410 G3 X56.283 Y41.081 I0. J0.565
N4415 X47.75 Y54.416 I-8.505 J3.955
N4420 X38.353 Y44.931 I0. J-9.398
N4425 G2 X37.583 Y43.688 I-1.366 J-0.013
N4430 G3 X36.963 Y42.364 I0.506 J-1.044
N4435 X38.392 Y39.05 I10.787 J2.686
N4440 G1 X57.108
N4445 G3 X38.392 Y51.05 I-9.358 J6.
N4450 X36.963 Y42.364 I9.358 J-6.
N4455 X38.852 Y41.377 Z-3.944 I1.383 J0.344 F333.33
N4460 G1 X48.256 Y44.949 Z-4.128
N4465 G3 X47.75 Y47.707 Z-4.2 I-0.506 J1.332
N4470 G1 X47.547 Y47.705 F1000.
N4475 X47.445 Y47.7
N4480 X47.344 Y47.688
N4485 X47.311 Y47.676
N4490 X47.284 Y47.653
N4495 X47.267 Y47.621
N4500 X47.263 Y47.586
N4505 X47.272 Y47.551
N4510 X47.294 Y47.522
N4515 X47.324 Y47.503
N4520 X47.359 Y47.497
N4525 X48.141
N4530 X48.176 Y47.503
N4535 X48.206 Y47.522
N4540 X48.228 Y47.551
N4545 X48.237 Y47.586
N4550 X48.233 Y47.621
N4555 X48.216 Y47.653
N4560 X48.189 Y47.676
N4565 X48.156 Y47.688
N4570 X48.055 Y47.7
N4575 X47.953 Y47.705
N4580 X47.75 Y47.707
N4585 G2 X46.67 Y48.346 I0. J1.232
N4590 G3 X45.456 Y48.667 I-0.759 J-0.417
N4595 X45.127 Y48.443 I2.294 J-3.727
N4600 X43.582 Y46.15 I2.52 J-3.366
N4605 X43.809 Y45.855 I0.227 J-0.06
N4610 G1 X51.691
N4615 G3 X51.918 Y46.15 I0. J0.235
N4620 X50.373 Y48.443 I-4.065 J-1.073
N4625 X45.456 Y48.667 I-2.623 J-3.503
N4630 G2 X44.088 Y48.659 I-0.691 J1.123
N4635 G3 X42.752 Y48.361 I-0.511 J-0.853
N4640 X41.77 Y44.438 I4.931 J-3.318
N4645 X42.084 Y44.155 I0.314 J0.032
N4650 G1 X53.416
N4655 G3 X53.73 Y44.438 I0. J0.315
N4660 X52.201 Y49.056 I-5.912 J0.605
N4665 X43.299 I-4.451 J-4.074
N4670 X42.752 Y48.361 I4.384 J-4.013
N4675 G2 X41.476 Y47.786 I-1.101 J0.741
N4680 G3 X40.312 Y47.01 I-0.14 J-1.051
N4685 X40.39 Y42.751 I7.438 J-1.994
N4690 X40.793 Y42.455 I0.403 J0.126
N4695 G1 X54.707
N4700 G3 X55.11 Y42.751 I0. J0.422
N4705 X47.75 Y52.716 I-7.327 J2.288
N4710 X40.312 Y47.01 I0. J-7.701
N4715 G2 X39.262 Y46.037 I-1.298 J0.348
N4720 G3 X38.353 Y44.931 I0.206 J-1.096
N4725 X39.217 Y41.081 I9.397 J0.088
N4730 X39.729 Y40.755 I0.512 J0.238
N4735 G1 X55.771
N4740 G3 X56.283 Y41.081 I0. J0.565
N4745 X47.75 Y54.416 I-8.505 J3.955
N4750 X38.353 Y44.931 I0. J-9.398
N4755 G2 X37.583 Y43.688 I-1.366 J-0.013
N4760 G3 X36.963 Y42.364 I0.506 J-1.044
N4765 X38.392 Y39.05 I10.787 J2.686
N4770 G1 X57.108
N4775 G3 X38.392 Y51.05 I-9.358 J6.
N4780 X36.963 Y42.364 I9.358 J-6.
N4785 X38.852 Y41.377 Z-4.244 I1.383 J0.344 F333.33
N4790 G1 X48.256 Y44.949 Z-4.428
N4795 G3 X47.75 Y47.707 Z-4.5 I-0.506 J1.332
N4800 G1 X47.547 Y47.705 F1000.
N4805 X47.445 Y47.7
N4810 X47.344 Y47.688
N4815 X47.311 Y47.676
N4820 X47.284 Y47.653
N4825 X47.267 Y47.621
N4830 X47.263 Y47.586
N4835 X47.272 Y47.551
N4840 X47.294 Y47.522
N4845 X47.324 Y47.503
N4850 X47.359 Y47.497
N4855 X48.141
N4860 X48.176 Y47.503
N4865 X48.206 Y47.522
N4870 X48.228 Y47.551
N4875 X48.237 Y47.586
N4880 X48.233 Y47.621
N4885 X48.216 Y47.653
N4890 X48.189 Y47.676
N4895 X48.156 Y47.688
N4900 X48.055 Y47.7
N4905 X47.953 Y47.705
N4910 X47.75 Y47.707
N4915 G2 X46.67 Y48.346 I0. J1.232
N4920 G3 X45.456 Y48.667 I-0.759 J-0.417
N4925 X45.127 Y48.443 I2.294 J-3.727
N4930 X43.582 Y46.15 I2.52 J-3.366
N4935 X43.809 Y45.855 I0.227 J-0.06
N4940 G1 X51.691
N4945 G3 X51.918 Y46.15 I0. J0.235
N4950 X50.373 Y48.443 I-4.065 J-1.073
N4955 X45.456 Y48.667 I-2.623 J-3.503
N4960 G2 X44.088 Y48.659 I-0.691 J1.123
N4965 G3 X42.752 Y48.361 I-0.511 J-0.853
N4970 X41.77 Y44.438 I4.931 J-3.318
N4975 X42.084 Y44.155 I0.314 J0.032
N4980 G1 X53.416
N4985 G3 X53.73 Y44.438 I0. J0.315
N4990 X52.201 Y49.056 I-5.912 J0.605
N4995 X43.299 I-4.451 J-4.074
N5000 X42.752 Y48.361 I4.384 J-4.013
N5005 G2 X41.476 Y47.786 I-1.101 J0.741
N5010 G3 X40.312 Y47.01 I-0.14 J-1.051
N5015 X40.39 Y42.751 I7.438 J-1.994
N5020 X40.793 Y42.455 I0.403 J0.126
N5025 G1 X54.707
N5030 G3 X55.11 Y42.751 I0. J0.422
N5035 X47.75 Y52.716 I-7.327 J2.288
N5040 X40.312 Y47.01 I0. J-7.701
N5045 G2 X39.262 Y46.037 I-1.298 J0.348
N5050 G3 X38.353 Y44.931 I0.206 J-1.096
N5055 X39.217 Y41.081 I9.397 J0.088
N5060 X39.729 Y40.755 I0.512 J0.238
N5065 G1 X55.771
N5070 G3 X56.283 Y41.081 I0. J0.565
N5075 X47.75 Y54.416 I-8.505 J3.955
N5080 X38.353 Y44.931 I0. J-9.398
N5085 G2 X37.583 Y43.688 I-1.366 J-0.013
N5090 G3 X36.963 Y42.364 I0.506 J-1.044
N5095 X38.392 Y39.05 I10.787 J2.686
N5100 G1 X57.108
N5105 G3 X38.392 Y51.05 I-9.358 J6.
N5110 X36.963 Y42.364 I9.358 J-6.
N5115 X38.852 Y41.377 Z-4.544 I1.383 J0.344 F333.33
N5120 G1 X48.256 Y44.949 Z-4.728
N5125 G3 X47.75 Y47.707 Z-4.8 I-0.506 J1.332
N5130 G1 X47.547 Y47.705 F1000.
N5135 X47.445 Y47.7
N5140 X47.344 Y47.688
N5145 X47.311 Y47.676
N5150 X47.284 Y47.653
N5155 X47.267 Y47.621
N5160 X47.263 Y47.586
N5165 X47.272 Y47.551
N5170 X47.294 Y47.522
N5175 X47.324 Y47.503
N5180 X47.359 Y47.497
N5185 X48.141
N5190 X48.176 Y47.503
N5195 X48.206 Y47.522
N5200 X48.228 Y47.551
N5205 X48.237 Y47.586
N5210 X48.233 Y47.621
N5215 X48.216 Y47.653
N5220 X48.189 Y47.676
N5225 X48.156 Y47.688
N5230 X48.055 Y47.7
N5235 X47.953 Y47.705
N5240 X47.75 Y47.707
N5245 G2 X46.67 Y48.346 I0. J1.232
N5250 G3 X45.456 Y48.667 I-0.759 J-0.417
N5255 X45.127 Y48.443 I2.294 J-3.727
N5260 X43.582 Y46.15 I2.52 J-3.366
N5265 X43.809 Y45.855 I0.227 J-0.06
N5270 G1 X51.691
N5275 G3 X51.918 Y46.15 I0. J0.235
N5280 X50.373 Y48.443 I-4.065 J-1.073
N5285 X45.456 Y48.667 I-2.623 J-3.503
N5290 G2 X44.088 Y48.659 I-0.691 J1.123
N5295 G3 X42.752 Y48.361 I-0.511 J-0.853
N5300 X41.77 Y44.438 I4.931 J-3.318
N5305 X42.084 Y44.155 I0.314 J0.032
N5310 G1 X53.416
N5315 G3 X53.73 Y44.438 I0. J0.315
N5320 X52.201 Y49.056 I-5.912 J0.605
N5325 X43.299 I-4.451 J-4.074
N5330 X42.752 Y48.361 I4.384 J-4.013
N5335 G2 X41.476 Y47.786 I-1.101 J0.741
N5340 G3 X40.312 Y47.01 I-0.14 J-1.051
N5345 X40.39 Y42.751 I7.438 J-1.994
N5350 X40.793 Y42.455 I0.403 J0.126
N5355 G1 X54.707
N5360 G3 X55.11 Y42.751 I0. J0.422
N5365 X47.75 Y52.716 I-7.327 J2.288
N5370 X40.312 Y47.01 I0. J-7.701
N5375 G2 X39.262 Y46.037 I-1.298 J0.348
N5380 G3 X38.353 Y44.931 I0.206 J-1.096
N5385 X39.217 Y41.081 I9.397 J0.088
N5390 X39.729 Y40.755 I0.512 J0.238
N5395 G1 X55.771
N5400 G3 X56.283 Y41.081 I0. J0.565
N5405 X47.75 Y54.416 I-8.505 J3.955
N5410 X38.353 Y44.931 I0. J-9.398
N5415 G2 X37.583 Y43.688 I-1.366 J-0.013
N5420 G3 X36.963 Y42.364 I0.506 J-1.044
N5425 X38.392 Y39.05 I10.787 J2.686
N5430 G1 X57.108
N5435 G3 X38.392 Y51.05 I-9.358 J6.
N5440 X36.963 Y42.364 I9.358 J-6.
N5445 X38.852 Y41.377 Z-4.844 I1.383 J0.344 F333.33
N5450 G1 X48.256 Y44.949 Z-5.028
N5455 G3 X47.75 Y47.707 Z-5.1 I-0.506 J1.332
N5460 G1 X47.547 Y47.705 F1000.
N5465 X47.445 Y47.7
N5470 X47.344 Y47.688
N5475 X47.311 Y47.676
N5480 X47.284 Y47.653
N5485 X47.267 Y47.621
N5490 X47.263 Y47.586
N5495 X47.272 Y47.551
N5500 X47.294 Y47.522
N5505 X47.324 Y47.503
N5510 X47.359 Y47.497
N5515 X48.141
N5520 X48.176 Y47.503
N5525 X48.206 Y47.522
N5530 X48.228 Y47.551
N5535 X48.237 Y47.586
N5540 X48.233 Y47.621
N5545 X48.216 Y47.653
N5550 X48.189 Y47.676
N5555 X48.156 Y47.688
N5560 X48.055 Y47.7
N5565 X47.953 Y47.705
N5570 X47.75 Y47.707
N5575 G2 X46.67 Y48.346 I0. J1.232
N5580 G3 X45.456 Y48.667 I-0.759 J-0.417
N5585 X45.127 Y48.443 I2.294 J-3.727
N5590 X43.582 Y46.15 I2.52 J-3.366
N5595 X43.809 Y45.855 I0.227 J-0.06
N5600 G1 X51.691
N5605 G3 X51.918 Y46.15 I0. J0.235
N5610 X50.373 Y48.443 I-4.065 J-1.073
N5615 X45.456 Y48.667 I-2.623 J-3.503
N5620 G2 X44.088 Y48.659 I-0.691 J1.123
N5625 G3 X42.752 Y48.361 I-0.511 J-0.853
N5630 X41.77 Y44.438 I4.931 J-3.318
N5635 X42.084 Y44.155 I0.314 J0.032
N5640 G1 X53.416
N5645 G3 X53.73 Y44.438 I0. J0.315
N5650 X52.201 Y49.056 I-5.912 J0.605
N5655 X43.299 I-4.451 J-4.074
N5660 X42.752 Y48.361 I4.384 J-4.013
N5665 G2 X41.476 Y47.786 I-1.101 J0.741
N5670 G3 X40.312 Y47.01 I-0.14 J-1.051
N5675 X40.39 Y42.751 I7.438 J-1.994
N5680 X40.793 Y42.455 I0.403 J0.126
N5685 G1 X54.707
N5690 G3 X55.11 Y42.751 I0. J0.422
N5695 X47.75 Y52.716 I-7.327 J2.288
N5700 X40.312 Y47.01 I0. J-7.701
N5705 G2 X39.262 Y46.037 I-1.298 J0.348
N5710 G3 X38.353 Y44.931 I0.206 J-1.096
N5715 X39.217 Y41.081 I9.397 J0.088
N5720 X39.729 Y40.755 I0.512 J0.238
N5725 G1 X55.771
N5730 G3 X56.283 Y41.081 I0. J0.565
N5735 X47.75 Y54.416 I-8.505 J3.955
N5740 X38.353 Y44.931 I0. J-9.398
N5745 G2 X37.583 Y43.688 I-1.366 J-0.013
N5750 G3 X36.963 Y42.364 I0.506 J-1.044
N5755 X38.392 Y39.05 I10.787 J2.686
N5760 G1 X57.108
N5765 G3 X38.392 Y51.05 I-9.358 J6.
N5770 X36.963 Y42.364 I9.358 J-6.
N5775 X38.852 Y41.377 Z-5.144 I1.383 J0.344 F333.33
N5780 G1 X48.256 Y44.949 Z-5.328
N5785 G3 X47.75 Y47.707 Z-5.4 I-0.506 J1.332
N5790 G1 X47.547 Y47.705 F1000.
N5795 X47.445 Y47.7
N5800 X47.344 Y47.688
N5805 X47.311 Y47.676
N5810 X47.284 Y47.653
N5815 X47.267 Y47.621
N5820 X47.263 Y47.586
N5825 X47.272 Y47.551
N5830 X47.294 Y47.522
N5835 X47.324 Y47.503
N5840 X47.359 Y47.497
N5845 X48.141
N5850 X48.176 Y47.503
N5855 X48.206 Y47.522
N5860 X48.228 Y47.551
N5865 X48.237 Y47.586
N5870 X48.233 Y47.621
N5875 X48.216 Y47.653
N5880 X48.189 Y47.676
N5885 X48.156 Y47.688
N5890 X48.055 Y47.7
N5895 X47.953 Y47.705
N5900 X47.75 Y47.707
N5905 G2 X46.67 Y48.346 I0. J1.232
N5910 G3 X45.456 Y48.667 I-0.759 J-0.417
N5915 X45.127 Y48.443 I2.294 J-3.727
N5920 X43.582 Y46.15 I2.52 J-3.366
N5925 X43.809 Y45.855 I0.227 J-0.06
N5930 G1 X51.691
N5935 G3 X51.918 Y46.15 I0. J0.235
N5940 X50.373 Y48.443 I-4.065 J-1.073
N5945 X45.456 Y48.667 I-2.623 J-3.503
N5950 G2 X44.088 Y48.659 I-0.691 J1.123
N5955 G3 X42.752 Y48.361 I-0.511 J-0.853
N5960 X41.77 Y44.438 I4.931 J-3.318
N5965 X42.084 Y44.155 I0.314 J0.032
N5970 G1 X53.416
N5975 G3 X53.73 Y44.438 I0. J0.315
N5980 X52.201 Y49.056 I-5.912 J0.605
N5985 X43.299 I-4.451 J-4.074
N5990 X42.752 Y48.361 I4.384 J-4.013
N5995 G2 X41.476 Y47.786 I-1.101 J0.741
N6000 G3 X40.312 Y47.01 I-0.14 J-1.051
N6005 X40.39 Y42.751 I7.438 J-1.994
N6010 X40.793 Y42.455 I0.403 J0.126
N6015 G1 X54.707
N6020 G3 X55.11 Y42.751 I0. J0.422
N6025 X47.75 Y52.716 I-7.327 J2.288
N6030 X40.312 Y47.01 I0. J-7.701
N6035 G2 X39.262 Y46.037 I-1.298 J0.348
N6040 G3 X38.353 Y44.931 I0.206 J-1.096
N6045 X39.217 Y41.081 I9.397 J0.088
N6050 X39.729 Y40.755 I0.512 J0.238
N6055 G1 X55.771
N6060 G3 X56.283 Y41.081 I0. J0.565
N6065 X47.75 Y54.416 I-8.505 J3.955
N6070 X38.353 Y44.931 I0. J-9.398
N6075 G2 X37.583 Y43.688 I-1.366 J-0.013
N6080 G3 X36.963 Y42.364 I0.506 J-1.044
N6085 X38.392 Y39.05 I10.787 J2.686
N6090 G1 X57.108
N6095 G3 X38.392 Y51.05 I-9.358 J6.
N6100 X36.963 Y42.364 I9.358 J-6.
N6105 X38.852 Y41.377 Z-5.444 I1.383 J0.344 F333.33
N6110 G1 X48.256 Y44.949 Z-5.628
N6115 G3 X47.75 Y47.707 Z-5.7 I-0.506 J1.332
N6120 G1 X47.547 Y47.705 F1000.
N6125 X47.445 Y47.7
N6130 X47.344 Y47.688
N6135 X47.311 Y47.676
N6140 X47.284 Y47.653
N6145 X47.267 Y47.621
N6150 X47.263 Y47.586
N6155 X47.272 Y47.551
N6160 X47.294 Y47.522
N6165 X47.324 Y47.503
N6170 X47.359 Y47.497
N6175 X48.141
N6180 X48.176 Y47.503
N6185 X48.206 Y47.522
N6190 X48.228 Y47.551
N6195 X48.237 Y47.586
N6200 X48.233 Y47.621
N6205 X48.216 Y47.653
N6210 X48.189 Y47.676
N6215 X48.156 Y47.688
N6220 X48.055 Y47.7
N6225 X47.953 Y47.705
N6230 X47.75 Y47.707
N6235 G2 X46.67 Y48.346 I0. J1.232
N6240 G3 X45.456 Y48.667 I-0.759 J-0.417
N6245 X45.127 Y48.443 I2.294 J-3.727
N6250 X43.582 Y46.15 I2.52 J-3.366
N6255 X43.809 Y45.855 I0.227 J-0.06
N6260 G1 X51.691
N6265 G3 X51.918 Y46.15 I0. J0.235
N6270 X50.373 Y48.443 I-4.065 J-1.073
N6275 X45.456 Y48.667 I-2.623 J-3.503
N6280 G2 X44.088 Y48.659 I-0.691 J1.123
N6285 G3 X42.752 Y48.361 I-0.511 J-0.853
N6290 X41.77 Y44.438 I4.931 J-3.318
N6295 X42.084 Y44.155 I0.314 J0.032
N6300 G1 X53.416
N6305 G3 X53.73 Y44.438 I0. J0.315
N6310 X52.201 Y49.056 I-5.912 J0.605
N6315 X43.299 I-4.451 J-4.074
N6320 X42.752 Y48.361 I4.384 J-4.013
N6325 G2 X41.476 Y47.786 I-1.101 J0.741
N6330 G3 X40.312 Y47.01 I-0.14 J-1.051
N6335 X40.39 Y42.751 I7.438 J-1.994
N6340 X40.793 Y42.455 I0.403 J0.126
N6345 G1 X54.707
N6350 G3 X55.11 Y42.751 I0. J0.422
N6355 X47.75 Y52.716 I-7.327 J2.288
N6360 X40.312 Y47.01 I0. J-7.701
N6365 G2 X39.262 Y46.037 I-1.298 J0.348
N6370 G3 X38.353 Y44.931 I0.206 J-1.096
N6375 X39.217 Y41.081 I9.397 J0.088
N6380 X39.729 Y40.755 I0.512 J0.238
N6385 G1 X55.771
N6390 G3 X56.283 Y41.081 I0. J0.565
N6395 X47.75 Y54.416 I-8.505 J3.955
N6400 X38.353 Y44.931 I0. J-9.398
N6405 G2 X37.583 Y43.688 I-1.366 J-0.013
N6410 G3 X36.963 Y42.364 I0.506 J-1.044
N6415 X38.392 Y39.05 I10.787 J2.686
N6420 G1 X57.108
N6425 G3 X38.392 Y51.05 I-9.358 J6.
N6430 X36.963 Y42.364 I9.358 J-6.
N6435 X38.852 Y41.377 Z-5.744 I1.383 J0.344 F333.33
N6440 G1 X48.256 Y44.949 Z-5.928
N6445 G3 X47.75 Y47.707 Z-6. I-0.506 J1.332
N6450 G1 X47.547 Y47.705 F1000.
N6455 X47.445 Y47.7
N6460 X47.344 Y47.688
N6465 X47.311 Y47.676
N6470 X47.284 Y47.653
N6475 X47.267 Y47.621
N6480 X47.263 Y47.586
N6485 X47.272 Y47.551
N6490 X47.294 Y47.522
N6495 X47.324 Y47.503
N6500 X47.359 Y47.497
N6505 X48.141
N6510 X48.176 Y47.503
N6515 X48.206 Y47.522
N6520 X48.228 Y47.551
N6525 X48.237 Y47.586
N6530 X48.233 Y47.621
N6535 X48.216 Y47.653
N6540 X48.189 Y47.676
N6545 X48.156 Y47.688
N6550 X48.055 Y47.7
N6555 X47.953 Y47.705
N6560 X47.75 Y47.707
N6565 G2 X46.67 Y48.346 I0. J1.232
N6570 G3 X45.456 Y48.667 I-0.759 J-0.417
N6575 X45.127 Y48.443 I2.294 J-3.727
N6580 X43.582 Y46.15 I2.52 J-3.366
N6585 X43.809 Y45.855 I0.227 J-0.06
N6590 G1 X51.691
N6595 G3 X51.918 Y46.15 I0. J0.235
N6600 X50.373 Y48.443 I-4.065 J-1.073
N6605 X45.456 Y48.667 I-2.623 J-3.503
N6610 G2 X44.088 Y48.659 I-0.691 J1.123
N6615 G3 X42.752 Y48.361 I-0.511 J-0.853
N6620 X41.77 Y44.438 I4.931 J-3.318
N6625 X42.084 Y44.155 I0.314 J0.032
N6630 G1 X53.416
N6635 G3 X53.73 Y44.438 I0. J0.315
N6640 X52.201 Y49.056 I-5.912 J0.605
N6645 X43.299 I-4.451 J-4.074
N6650 X42.752 Y48.361 I4.384 J-4.013
N6655 G2 X41.476 Y47.786 I-1.101 J0.741
N6660 G3 X40.312 Y47.01 I-0.14 J-1.051
N6665 X40.39 Y42.751 I7.438 J-1.994
N6670 X40.793 Y42.455 I0.403 J0.126
N6675 G1 X54.707
N6680 G3 X55.11 Y42.751 I0. J0.422
N6685 X47.75 Y52.716 I-7.327 J2.288
N6690 X40.312 Y47.01 I0. J-7.701
N6695 G2 X39.262 Y46.037 I-1.298 J0.348
N6700 G3 X38.353 Y44.931 I0.206 J-1.096
N6705 X39.217 Y41.081 I9.397 J0.088
N6710 X39.729 Y40.755 I0.512 J0.238
N6715 G1 X55.771
N6720 G3 X56.283 Y41.081 I0. J0.565
N6725 X47.75 Y54.416 I-8.505 J3.955
N6730 X38.353 Y44.931 I0. J-9.398
N6735 G2 X37.583 Y43.688 I-1.366 J-0.013
N6740 G3 X36.963 Y42.364 I0.506 J-1.044
N6745 X38.392 Y39.05 I10.787 J2.686
N6750 G1 X57.108
N6755 G3 X38.392 Y51.05 I-9.358 J6.
N6760 X36.963 Y42.364 I9.358 J-6.
N6765 X38.852 Y41.377 Z-6.044 I1.383 J0.344 F333.33
N6770 G1 X48.256 Y44.949 Z-6.228
N6775 G3 X47.75 Y47.707 Z-6.3 I-0.506 J1.332
N6780 G1 X47.547 Y47.705 F1000.
N6785 X47.445 Y47.7
N6790 X47.344 Y47.688
N6795 X47.311 Y47.676
N6800 X47.284 Y47.653
N6805 X47.267 Y47.621
N6810 X47.263 Y47.586
N6815 X47.272 Y47.551
N6820 X47.294 Y47.522
N6825 X47.324 Y47.503
N6830 X47.359 Y47.497
N6835 X48.141
N6840 X48.176 Y47.503
N6845 X48.206 Y47.522
N6850 X48.228 Y47.551
N6855 X48.237 Y47.586
N6860 X48.233 Y47.621
N6865 X48.216 Y47.653
N6870 X48.189 Y47.676
N6875 X48.156 Y47.688
N6880 X48.055 Y47.7
N6885 X47.953 Y47.705
N6890 X47.75 Y47.707
N6895 G2 X46.67 Y48.346 I0. J1.232
N6900 G3 X45.456 Y48.667 I-0.759 J-0.417
N6905 X45.127 Y48.443 I2.294 J-3.727
N6910 X43.582 Y46.15 I2.52 J-3.366
N6915 X43.809 Y45.855 I0.227 J-0.06
N6920 G1 X51.691
N6925 G3 X51.918 Y46.15 I0. J0.235
N6930 X50.373 Y48.443 I-4.065 J-1.073
N6935 X45.456 Y48.667 I-2.623 J-3.503
N6940 G2 X44.088 Y48.659 I-0.691 J1.123
N6945 G3 X42.752 Y48.361 I-0.511 J-0.853
N6950 X41.77 Y44.438 I4.931 J-3.318
N6955 X42.084 Y44.155 I0.314 J0.032
N6960 G1 X53.416
N6965 G3 X53.73 Y44.438 I0. J0.315
N6970 X52.201 Y49.056 I-5.912 J0.605
N6975 X43.299 I-4.451 J-4.074
N6980 X42.752 Y48.361 I4.384 J-4.013
N6985 G2 X41.476 Y47.786 I-1.101 J0.741
N6990 G3 X40.312 Y47.01 I-0.14 J-1.051
N6995 X40.39 Y42.751 I7.438 J-1.994
N7000 X40.793 Y42.455 I0.403 J0.126
N7005 G1 X54.707
N7010 G3 X55.11 Y42.751 I0. J0.422
N7015 X47.75 Y52.716 I-7.327 J2.288
N7020 X40.312 Y47.01 I0. J-7.701
N7025 G2 X39.262 Y46.037 I-1.298 J0.348
N7030 G3 X38.353 Y44.931 I0.206 J-1.096
N7035 X39.217 Y41.081 I9.397 J0.088
N7040 X39.729 Y40.755 I0.512 J0.238
N7045 G1 X55.771
N7050 G3 X56.283 Y41.081 I0. J0.565
N7055 X47.75 Y54.416 I-8.505 J3.955
N7060 X38.353 Y44.931 I0. J-9.398
N7065 G2 X37.583 Y43.688 I-1.366 J-0.013
N7070 G3 X36.963 Y42.364 I0.506 J-1.044
N7075 X38.392 Y39.05 I10.787 J2.686
N7080 G1 X57.108
N7085 G3 X38.392 Y51.05 I-9.358 J6.
N7090 X36.963 Y42.364 I9.358 J-6.
N7095 X38.852 Y41.377 Z-6.344 I1.383 J0.344 F333.33
N7100 G1 X48.256 Y44.949 Z-6.528
N7105 G3 X47.75 Y47.707 Z-6.6 I-0.506 J1.332
N7110 G1 X47.547 Y47.705 F1000.
N7115 X47.445 Y47.7
N7120 X47.344 Y47.688
N7125 X47.311 Y47.676
N7130 X47.284 Y47.653
N7135 X47.267 Y47.621
N7140 X47.263 Y47.586
N7145 X47.272 Y47.551
N7150 X47.294 Y47.522
N7155 X47.324 Y47.503
N7160 X47.359 Y47.497
N7165 X48.141
N7170 X48.176 Y47.503
N7175 X48.206 Y47.522
N7180 X48.228 Y47.551
N7185 X48.237 Y47.586
N7190 X48.233 Y47.621
N7195 X48.216 Y47.653
N7200 X48.189 Y47.676
N7205 X48.156 Y47.688
N7210 X48.055 Y47.7
N7215 X47.953 Y47.705
N7220 X47.75 Y47.707
N7225 G2 X46.67 Y48.346 I0. J1.232
N7230 G3 X45.456 Y48.667 I-0.759 J-0.417
N7235 X45.127 Y48.443 I2.294 J-3.727
N7240 X43.582 Y46.15 I2.52 J-3.366
N7245 X43.809 Y45.855 I0.227 J-0.06
N7250 G1 X51.691
N7255 G3 X51.918 Y46.15 I0. J0.235
N7260 X50.373 Y48.443 I-4.065 J-1.073
N7265 X45.456 Y48.667 I-2.623 J-3.503
N7270 G2 X44.088 Y48.659 I-0.691 J1.123
N7275 G3 X42.752 Y48.361 I-0.511 J-0.853
N7280 X41.77 Y44.438 I4.931 J-3.318
N7285 X42.084 Y44.155 I0.314 J0.032
N7290 G1 X53.416
N7295 G3 X53.73 Y44.438 I0. J0.315
N7300 X52.201 Y49.056 I-5.912 J0.605
N7305 X43.299 I-4.451 J-4.074
N7310 X42.752 Y48.361 I4.384 J-4.013
N7315 G2 X41.476 Y47.786 I-1.101 J0.741
N7320 G3 X40.312 Y47.01 I-0.14 J-1.051
N7325 X40.39 Y42.751 I7.438 J-1.994
N7330 X40.793 Y42.455 I0.403 J0.126
N7335 G1 X54.707
N7340 G3 X55.11 Y42.751 I0. J0.422
N7345 X47.75 Y52.716 I-7.327 J2.288
N7350 X40.312 Y47.01 I0. J-7.701
N7355 G2 X39.262 Y46.037 I-1.298 J0.348
N7360 G3 X38.353 Y44.931 I0.206 J-1.096
N7365 X39.217 Y41.081 I9.397 J0.088
N7370 X39.729 Y40.755 I0.512 J0.238
N7375 G1 X55.771
N7380 G3 X56.283 Y41.081 I0. J0.565
N7385 X47.75 Y54.416 I-8.505 J3.955
N7390 X38.353 Y44.931 I0. J-9.398
N7395 G2 X37.583 Y43.688 I-1.366 J-0.013
N7400 G3 X36.963 Y42.364 I0.506 J-1.044
N7405 X38.392 Y39.05 I10.787 J2.686
N7410 G1 X57.108
N7415 G3 X38.392 Y51.05 I-9.358 J6.
N7420 X36.963 Y42.364 I9.358 J-6.
N7425 X38.852 Y41.377 Z-6.644 I1.383 J0.344 F333.33
N7430 G1 X48.256 Y44.949 Z-6.828
N7435 G3 X47.75 Y47.707 Z-6.9 I-0.506 J1.332
N7440 G1 X47.547 Y47.705 F1000.
N7445 X47.445 Y47.7
N7450 X47.344 Y47.688
N7455 X47.311 Y47.676
N7460 X47.284 Y47.653
N7465 X47.267 Y47.621
N7470 X47.263 Y47.586
N7475 X47.272 Y47.551
N7480 X47.294 Y47.522
N7485 X47.324 Y47.503
N7490 X47.359 Y47.497
N7495 X48.141
N7500 X48.176 Y47.503
N7505 X48.206 Y47.522
N7510 X48.228 Y47.551
N7515 X48.237 Y47.586
N7520 X48.233 Y47.621
N7525 X48.216 Y47.653
N7530 X48.189 Y47.676
N7535 X48.156 Y47.688
N7540 X48.055 Y47.7
N7545 X47.953 Y47.705
N7550 X47.75 Y47.707
N7555 G2 X46.67 Y48.346 I0. J1.232
N7560 G3 X45.456 Y48.667 I-0.759 J-0.417
N7565 X45.127 Y48.443 I2.294 J-3.727
N7570 X43.582 Y46.15 I2.52 J-3.366
N7575 X43.809 Y45.855 I0.227 J-0.06
N7580 G1 X51.691
N7585 G3 X51.918 Y46.15 I0. J0.235
N7590 X50.373 Y48.443 I-4.065 J-1.073
N7595 X45.456 Y48.667 I-2.623 J-3.503
N7600 G2 X44.088 Y48.659 I-0.691 J1.123
N7605 G3 X42.752 Y48.361 I-0.511 J-0.853
N7610 X41.77 Y44.438 I4.931 J-3.318
N7615 X42.084 Y44.155 I0.314 J0.032
N7620 G1 X53.416
N7625 G3 X53.73 Y44.438 I0. J0.315
N7630 X52.201 Y49.056 I-5.912 J0.605
N7635 X43.299 I-4.451 J-4.074
N7640 X42.752 Y48.361 I4.384 J-4.013
N7645 G2 X41.476 Y47.786 I-1.101 J0.741
N7650 G3 X40.312 Y47.01 I-0.14 J-1.051
N7655 X40.39 Y42.751 I7.438 J-1.994
N7660 X40.793 Y42.455 I0.403 J0.126
N7665 G1 X54.707
N7670 G3 X55.11 Y42.751 I0. J0.422
N7675 X47.75 Y52.716 I-7.327 J2.288
N7680 X40.312 Y47.01 I0. J-7.701
N7685 G2 X39.262 Y46.037 I-1.298 J0.348
N7690 G3 X38.353 Y44.931 I0.206 J-1.096
N7695 X39.217 Y41.081 I9.397 J0.088
N7700 X39.729 Y40.755 I0.512 J0.238
N7705 G1 X55.771
N7710 G3 X56.283 Y41.081 I0. J0.565
N7715 X47.75 Y54.416 I-8.505 J3.955
N7720 X38.353 Y44.931 I0. J-9.398
N7725 G2 X37.583 Y43.688 I-1.366 J-0.013
N7730 G3 X36.963 Y42.364 I0.506 J-1.044
N7735 X38.392 Y39.05 I10.787 J2.686
N7740 G1 X57.108
N7745 G3 X38.392 Y51.05 I-9.358 J6.
N7750 X36.963 Y42.364 I9.358 J-6.
N7755 X38.852 Y41.377 Z-6.944 I1.383 J0.344 F333.33
N7760 G1 X48.256 Y44.949 Z-7.128
N7765 G3 X47.75 Y47.707 Z-7.2 I-0.506 J1.332
N7770 G1 X47.547 Y47.705 F1000.
N7775 X47.445 Y47.7
N7780 X47.344 Y47.688
N7785 X47.311 Y47.676
N7790 X47.284 Y47.653
N7795 X47.267 Y47.621
N7800 X47.263 Y47.586
N7805 X47.272 Y47.551
N7810 X47.294 Y47.522
N7815 X47.324 Y47.503
N7820 X47.359 Y47.497
N7825 X48.141
N7830 X48.176 Y47.503
N7835 X48.206 Y47.522
N7840 X48.228 Y47.551
N7845 X48.237 Y47.586
N7850 X48.233 Y47.621
N7855 X48.216 Y47.653
N7860 X48.189 Y47.676
N7865 X48.156 Y47.688
N7870 X48.055 Y47.7
N7875 X47.953 Y47.705
N7880 X47.75 Y47.707
N7885 G2 X46.67 Y48.346 I0. J1.232
N7890 G3 X45.456 Y48.667 I-0.759 J-0.417
N7895 X45.127 Y48.443 I2.294 J-3.727
N7900 X43.582 Y46.15 I2.52 J-3.366
N7905 X43.809 Y45.855 I0.227 J-0.06
N7910 G1 X51.691
N7915 G3 X51.918 Y46.15 I0. J0.235
N7920 X50.373 Y48.443 I-4.065 J-1.073
N7925 X45.456 Y48.667 I-2.623 J-3.503
N7930 G2 X44.088 Y48.659 I-0.691 J1.123
N7935 G3 X42.752 Y48.361 I-0.511 J-0.853
N7940 X41.77 Y44.438 I4.931 J-3.318
N7945 X42.084 Y44.155 I0.314 J0.032
N7950 G1 X53.416
N7955 G3 X53.73 Y44.438 I0. J0.315
N7960 X52.201 Y49.056 I-5.912 J0.605
N7965 X43.299 I-4.451 J-4.074
N7970 X42.752 Y48.361 I4.384 J-4.013
N7975 G2 X41.476 Y47.786 I-1.101 J0.741
N7980 G3 X40.312 Y47.01 I-0.14 J-1.051
N7985 X40.39 Y42.751 I7.438 J-1.994
N7990 X40.793 Y42.455 I0.403 J0.126
N7995 G1 X54.707
N8000 G3 X55.11 Y42.751 I0. J0.422
N8005 X47.75 Y52.716 I-7.327 J2.288
N8010 X40.312 Y47.01 I0. J-7.701
N8015 G2 X39.262 Y46.037 I-1.298 J0.348
N8020 G3 X38.353 Y44.931 I0.206 J-1.096
N8025 X39.217 Y41.081 I9.397 J0.088
N8030 X39.729 Y40.755 I0.512 J0.238
N8035 G1 X55.771
N8040 G3 X56.283 Y41.081 I0. J0.565
N8045 X47.75 Y54.416 I-8.505 J3.955
N8050 X38.353 Y44.931 I0. J-9.398
N8055 G2 X37.583 Y43.688 I-1.366 J-0.013
N8060 G3 X36.963 Y42.364 I0.506 J-1.044
N8065 X38.392 Y39.05 I10.787 J2.686
N8070 G1 X57.108
N8075 G3 X38.392 Y51.05 I-9.358 J6.
N8080 X36.963 Y42.364 I9.358 J-6.
N8085 X38.852 Y41.377 Z-7.244 I1.383 J0.344 F333.33
N8090 G1 X48.256 Y44.949 Z-7.428
N8095 G3 X47.75 Y47.707 Z-7.5 I-0.506 J1.332
N8100 G1 X47.547 Y47.705 F1000.
N8105 X47.445 Y47.7
N8110 X47.344 Y47.688
N8115 X47.311 Y47.676
N8120 X47.284 Y47.653
N8125 X47.267 Y47.621
N8130 X47.263 Y47.586
N8135 X47.272 Y47.551
N8140 X47.294 Y47.522
N8145 X47.324 Y47.503
N8150 X47.359 Y47.497
N8155 X48.141
N8160 X48.176 Y47.503
N8165 X48.206 Y47.522
N8170 X48.228 Y47.551
N8175 X48.237 Y47.586
N8180 X48.233 Y47.621
N8185 X48.216 Y47.653
N8190 X48.189 Y47.676
N8195 X48.156 Y47.688
N8200 X48.055 Y47.7
N8205 X47.953 Y47.705
N8210 X47.75 Y47.707
N8215 G2 X46.67 Y48.346 I0. J1.232
N8220 G3 X45.456 Y48.667 I-0.759 J-0.417
N8225 X45.127 Y48.443 I2.294 J-3.727
N8230 X43.582 Y46.15 I2.52 J-3.366
N8235 X43.809 Y45.855 I0.227 J-0.06
N8240 G1 X51.691
N8245 G3 X51.918 Y46.15 I0. J0.235
N8250 X50.373 Y48.443 I-4.065 J-1.073
N8255 X45.456 Y48.667 I-2.623 J-3.503
N8260 G2 X44.088 Y48.659 I-0.691 J1.123
N8265 G3 X42.752 Y48.361 I-0.511 J-0.853
N8270 X41.77 Y44.438 I4.931 J-3.318
N8275 X42.084 Y44.155 I0.314 J0.032
N8280 G1 X53.416
N8285 G3 X53.73 Y44.438 I0. J0.315
N8290 X52.201 Y49.056 I-5.912 J0.605
N8295 X43.299 I-4.451 J-4.074
N8300 X42.752 Y48.361 I4.384 J-4.013
N8305 G2 X41.476 Y47.786 I-1.101 J0.741
N8310 G3 X40.312 Y47.01 I-0.14 J-1.051
N8315 X40.39 Y42.751 I7.438 J-1.994
N8320 X40.793 Y42.455 I0.403 J0.126
N8325 G1 X54.707
N8330 G3 X55.11 Y42.751 I0. J0.422
N8335 X47.75 Y52.716 I-7.327 J2.288
N8340 X40.312 Y47.01 I0. J-7.701
N8345 G2 X39.262 Y46.037 I-1.298 J0.348
N8350 G3 X38.353 Y44.931 I0.206 J-1.096
N8355 X39.217 Y41.081 I9.397 J0.088
N8360 X39.729 Y40.755 I0.512 J0.238
N8365 G1 X55.771
N8370 G3 X56.283 Y41.081 I0. J0.565
N8375 X47.75 Y54.416 I-8.505 J3.955
N8380 X38.353 Y44.931 I0. J-9.398
N8385 G2 X37.583 Y43.688 I-1.366 J-0.013
N8390 G3 X36.963 Y42.364 I0.506 J-1.044
N8395 X38.392 Y39.05 I10.787 J2.686
N8400 G1 X57.108
N8405 G3 X38.392 Y51.05 I-9.358 J6.
N8410 X36.963 Y42.364 I9.358 J-6.
N8415 X38.852 Y41.377 Z-7.544 I1.383 J0.344 F333.33
N8420 G1 X48.256 Y44.949 Z-7.728
N8425 G3 X47.75 Y47.707 Z-7.8 I-0.506 J1.332
N8430 G1 X47.547 Y47.705 F1000.
N8435 X47.445 Y47.7
N8440 X47.344 Y47.688
N8445 X47.311 Y47.676
N8450 X47.284 Y47.653
N8455 X47.267 Y47.621
N8460 X47.263 Y47.586
N8465 X47.272 Y47.551
N8470 X47.294 Y47.522
N8475 X47.324 Y47.503
N8480 X47.359 Y47.497
N8485 X48.141
N8490 X48.176 Y47.503
N8495 X48.206 Y47.522
N8500 X48.228 Y47.551
N8505 X48.237 Y47.586
N8510 X48.233 Y47.621
N8515 X48.216 Y47.653
N8520 X48.189 Y47.676
N8525 X48.156 Y47.688
N8530 X48.055 Y47.7
N8535 X47.953 Y47.705
N8540 X47.75 Y47.707
N8545 G2 X46.67 Y48.346 I0. J1.232
N8550 G3 X45.456 Y48.667 I-0.759 J-0.417
N8555 X45.127 Y48.443 I2.294 J-3.727
N8560 X43.582 Y46.15 I2.52 J-3.366
N8565 X43.809 Y45.855 I0.227 J-0.06
N8570 G1 X51.691
N8575 G3 X51.918 Y46.15 I0. J0.235
N8580 X50.373 Y48.443 I-4.065 J-1.073
N8585 X45.456 Y48.667 I-2.623 J-3.503
N8590 G2 X44.088 Y48.659 I-0.691 J1.123
N8595 G3 X42.752 Y48.361 I-0.511 J-0.853
N8600 X41.77 Y44.438 I4.931 J-3.318
N8605 X42.084 Y44.155 I0.314 J0.032
N8610 G1 X53.416
N8615 G3 X53.73 Y44.438 I0. J0.315
N8620 X52.201 Y49.056 I-5.912 J0.605
N8625 X43.299 I-4.451 J-4.074
N8630 X42.752 Y48.361 I4.384 J-4.013
N8635 G2 X41.476 Y47.786 I-1.101 J0.741
N8640 G3 X40.312 Y47.01 I-0.14 J-1.051
N8645 X40.39 Y42.751 I7.438 J-1.994
N8650 X40.793 Y42.455 I0.403 J0.126
N8655 G1 X54.707
N8660 G3 X55.11 Y42.751 I0. J0.422
N8665 X47.75 Y52.716 I-7.327 J2.288
N8670 X40.312 Y47.01 I0. J-7.701
N8675 G2 X39.262 Y46.037 I-1.298 J0.348
N8680 G3 X38.353 Y44.931 I0.206 J-1.096
N8685 X39.217 Y41.081 I9.397 J0.088
N8690 X39.729 Y40.755 I0.512 J0.238
N8695 G1 X55.771
N8700 G3 X56.283 Y41.081 I0. J0.565
N8705 X47.75 Y54.416 I-8.505 J3.955
N8710 X38.353 Y44.931 I0. J-9.398
N8715 G2 X37.583 Y43.688 I-1.366 J-0.013
N8720 G3 X36.963 Y42.364 I0.506 J-1.044
N8725 X38.392 Y39.05 I10.787 J2.686
N8730 G1 X57.108
N8735 G3 X38.392 Y51.05 I-9.358 J6.
N8740 X36.963 Y42.364 I9.358 J-6.
N8745 X38.852 Y41.377 Z-7.844 I1.383 J0.344 F333.33
N8750 G1 X48.256 Y44.949 Z-8.028
N8755 G3 X47.75 Y47.707 Z-8.1 I-0.506 J1.332
N8760 G1 X47.547 Y47.705 F1000.
N8765 X47.445 Y47.7
N8770 X47.344 Y47.688
N8775 X47.311 Y47.676
N8780 X47.284 Y47.653
N8785 X47.267 Y47.621
N8790 X47.263 Y47.586
N8795 X47.272 Y47.551
N8800 X47.294 Y47.522
N8805 X47.324 Y47.503
N8810 X47.359 Y47.497
N8815 X48.141
N8820 X48.176 Y47.503
N8825 X48.206 Y47.522
N8830 X48.228 Y47.551
N8835 X48.237 Y47.586
N8840 X48.233 Y47.621
N8845 X48.216 Y47.653
N8850 X48.189 Y47.676
N8855 X48.156 Y47.688
N8860 X48.055 Y47.7
N8865 X47.953 Y47.705
N8870 X47.75 Y47.707
N8875 G2 X46.67 Y48.346 I0. J1.232
N8880 G3 X45.456 Y48.667 I-0.759 J-0.417
N8885 X45.127 Y48.443 I2.294 J-3.727
N8890 X43.582 Y46.15 I2.52 J-3.366
N8895 X43.809 Y45.855 I0.227 J-0.06
N8900 G1 X51.691
N8905 G3 X51.918 Y46.15 I0. J0.235
N8910 X50.373 Y48.443 I-4.065 J-1.073
N8915 X45.456 Y48.667 I-2.623 J-3.503
N8920 G2 X44.088 Y48.659 I-0.691 J1.123
N8925 G3 X42.752 Y48.361 I-0.511 J-0.853
N8930 X41.77 Y44.438 I4.931 J-3.318
N8935 X42.084 Y44.155 I0.314 J0.032
N8940 G1 X53.416
N8945 G3 X53.73 Y44.438 I0. J0.315
N8950 X52.201 Y49.056 I-5.912 J0.605
N8955 X43.299 I-4.451 J-4.074
N8960 X42.752 Y48.361 I4.384 J-4.013
N8965 G2 X41.476 Y47.786 I-1.101 J0.741
N8970 G3 X40.312 Y47.01 I-0.14 J-1.051
N8975 X40.39 Y42.751 I7.438 J-1.994
N8980 X40.793 Y42.455 I0.403 J0.126
N8985 G1 X54.707
N8990 G3 X55.11 Y42.751 I0. J0.422
N8995 X47.75 Y52.716 I-7.327 J2.288
N9000 X40.312 Y47.01 I0. J-7.701
N9005 G2 X39.262 Y46.037 I-1.298 J0.348
N9010 G3 X38.353 Y44.931 I0.206 J-1.096
N9015 X39.217 Y41.081 I9.397 J0.088
N9020 X39.729 Y40.755 I0.512 J0.238
N9025 G1 X55.771
N9030 G3 X56.283 Y41.081 I0. J0.565
N9035 X47.75 Y54.416 I-8.505 J3.955
N9040 X38.353 Y44.931 I0. J-9.398
N9045 G2 X37.583 Y43.688 I-1.366 J-0.013
N9050 G3 X36.963 Y42.364 I0.506 J-1.044
N9055 X38.392 Y39.05 I10.787 J2.686
N9060 G1 X57.108
N9065 G3 X38.392 Y51.05 I-9.358 J6.
N9070 X36.963 Y42.364 I9.358 J-6.
N9075 X38.852 Y41.377 Z-8.144 I1.383 J0.344 F333.33
N9080 G1 X48.256 Y44.949 Z-8.328
N9085 G3 X47.75 Y47.707 Z-8.4 I-0.506 J1.332
N9090 G1 X47.547 Y47.705 F1000.
N9095 X47.445 Y47.7
N9100 X47.344 Y47.688
N9105 X47.311 Y47.676
N9110 X47.284 Y47.653
N9115 X47.267 Y47.621
N9120 X47.263 Y47.586
N9125 X47.272 Y47.551
N9130 X47.294 Y47.522
N9135 X47.324 Y47.503
N9140 X47.359 Y47.497
N9145 X48.141
N9150 X48.176 Y47.503
N9155 X48.206 Y47.522
N9160 X48.228 Y47.551
N9165 X48.237 Y47.586
N9170 X48.233 Y47.621
N9175 X48.216 Y47.653
N9180 X48.189 Y47.676
N9185 X48.156 Y47.688
N9190 X48.055 Y47.7
N9195 X47.953 Y47.705
N9200 X47.75 Y47.707
N9205 G2 X46.67 Y48.346 I0. J1.232
N9210 G3 X45.456 Y48.667 I-0.759 J-0.417
N9215 X45.127 Y48.443 I2.294 J-3.727
N9220 X43.582 Y46.15 I2.52 J-3.366
N9225 X43.809 Y45.855 I0.227 J-0.06
N9230 G1 X51.691
N9235 G3 X51.918 Y46.15 I0. J0.235
N9240 X50.373 Y48.443 I-4.065 J-1.073
N9245 X45.456 Y48.667 I-2.623 J-3.503
N9250 G2 X44.088 Y48.659 I-0.691 J1.123
N9255 G3 X42.752 Y48.361 I-0.511 J-0.853
N9260 X41.77 Y44.438 I4.931 J-3.318
N9265 X42.084 Y44.155 I0.314 J0.032
N9270 G1 X53.416
N9275 G3 X53.73 Y44.438 I0. J0.315
N9280 X52.201 Y49.056 I-5.912 J0.605
N9285 X43.299 I-4.451 J-4.074
N9290 X42.752 Y48.361 I4.384 J-4.013
N9295 G2 X41.476 Y47.786 I-1.101 J0.741
N9300 G3 X40.312 Y47.01 I-0.14 J-1.051
N9305 X40.39 Y42.751 I7.438 J-1.994
N9310 X40.793 Y42.455 I0.403 J0.126
N9315 G1 X54.707
N9320 G3 X55.11 Y42.751 I0. J0.422
N9325 X47.75 Y52.716 I-7.327 J2.288
N9330 X40.312 Y47.01 I0. J-7.701
N9335 G2 X39.262 Y46.037 I-1.298 J0.348
N9340 G3 X38.353 Y44.931 I0.206 J-1.096
N9345 X39.217 Y41.081 I9.397 J0.088
N9350 X39.729 Y40.755 I0.512 J0.238
N9355 G1 X55.771
N9360 G3 X56.283 Y41.081 I0. J0.565
N9365 X47.75 Y54.416 I-8.505 J3.955
N9370 X38.353 Y44.931 I0. J-9.398
N9375 G2 X37.583 Y43.688 I-1.366 J-0.013
N9380 G3 X36.963 Y42.364 I0.506 J-1.044
N9385 X38.392 Y39.05 I10.787 J2.686
N9390 G1 X57.108
N9395 G3 X38.392 Y51.05 I-9.358 J6.
N9400 X36.963 Y42.364 I9.358 J-6.
N9405 X38.852 Y41.377 Z-8.444 I1.383 J0.344 F333.33
N9410 G1 X48.256 Y44.949 Z-8.628
N9415 G3 X47.75 Y47.707 Z-8.7 I-0.506 J1.332
N9420 G1 X47.547 Y47.705 F1000.
N9425 X47.445 Y47.7
N9430 X47.344 Y47.688
N9435 X47.311 Y47.676
N9440 X47.284 Y47.653
N9445 X47.267 Y47.621
N9450 X47.263 Y47.586
N9455 X47.272 Y47.551
N9460 X47.294 Y47.522
N9465 X47.324 Y47.503
N9470 X47.359 Y47.497
N9475 X48.141
N9480 X48.176 Y47.503
N9485 X48.206 Y47.522
N9490 X48.228 Y47.551
N9495 X48.237 Y47.586
N9500 X48.233 Y47.621
N9505 X48.216 Y47.653
N9510 X48.189 Y47.676
N9515 X48.156 Y47.688
N9520 X48.055 Y47.7
N9525 X47.953 Y47.705
N9530 X47.75 Y47.707
N9535 G2 X46.67 Y48.346 I0. J1.232
N9540 G3 X45.456 Y48.667 I-0.759 J-0.417
N9545 X45.127 Y48.443 I2.294 J-3.727
N9550 X43.582 Y46.15 I2.52 J-3.366
N9555 X43.809 Y45.855 I0.227 J-0.06
N9560 G1 X51.691
N9565 G3 X51.918 Y46.15 I0. J0.235
N9570 X50.373 Y48.443 I-4.065 J-1.073
N9575 X45.456 Y48.667 I-2.623 J-3.503
N9580 G2 X44.088 Y48.659 I-0.691 J1.123
N9585 G3 X42.752 Y48.361 I-0.511 J-0.853
N9590 X41.77 Y44.438 I4.931 J-3.318
N9595 X42.084 Y44.155 I0.314 J0.032
N9600 G1 X53.416
N9605 G3 X53.73 Y44.438 I0. J0.315
N9610 X52.201 Y49.056 I-5.912 J0.605
N9615 X43.299 I-4.451 J-4.074
N9620 X42.752 Y48.361 I4.384 J-4.013
N9625 G2 X41.476 Y47.786 I-1.101 J0.741
N9630 G3 X40.312 Y47.01 I-0.14 J-1.051
N9635 X40.39 Y42.751 I7.438 J-1.994
N9640 X40.793 Y42.455 I0.403 J0.126
N9645 G1 X54.707
N9650 G3 X55.11 Y42.751 I0. J0.422
N9655 X47.75 Y52.716 I-7.327 J2.288
N9660 X40.312 Y47.01 I0. J-7.701
N9665 G2 X39.262 Y46.037 I-1.298 J0.348
N9670 G3 X38.353 Y44.931 I0.206 J-1.096
N9675 X39.217 Y41.081 I9.397 J0.088
N9680 X39.729 Y40.755 I0.512 J0.238
N9685 G1 X55.771
N9690 G3 X56.283 Y41.081 I0. J0.565
N9695 X47.75 Y54.416 I-8.505 J3.955
N9700 X38.353 Y44.931 I0. J-9.398
N9705 G2 X37.583 Y43.688 I-1.366 J-0.013
N9710 G3 X36.963 Y42.364 I0.506 J-1.044
N9715 X38.392 Y39.05 I10.787 J2.686
N9720 G1 X57.108
N9725 G3 X38.392 Y51.05 I-9.358 J6.
N9730 X36.963 Y42.364 I9.358 J-6.
N9735 X38.852 Y41.377 Z-8.744 I1.383 J0.344 F333.33
N9740 G1 X48.256 Y44.949 Z-8.928
N9745 G3 X47.75 Y47.707 Z-9. I-0.506 J1.332
N9750 G1 X47.547 Y47.705 F1000.
N9755 X47.445 Y47.7
N9760 X47.344 Y47.688
N9765 X47.311 Y47.676
N9770 X47.284 Y47.653
N9775 X47.267 Y47.621
N9780 X47.263 Y47.586
N9785 X47.272 Y47.551
N9790 X47.294 Y47.522
N9795 X47.324 Y47.503
N9800 X47.359 Y47.497
N9805 X48.141
N9810 X48.176 Y47.503
N9815 X48.206 Y47.522
N9820 X48.228 Y47.551
N9825 X48.237 Y47.586
N9830 X48.233 Y47.621
N9835 X48.216 Y47.653
N9840 X48.189 Y47.676
N9845 X48.156 Y47.688
N9850 X48.055 Y47.7
N9855 X47.953 Y47.705
N9860 X47.75 Y47.707
N9865 G2 X46.67 Y48.346 I0. J1.232
N9870 G3 X45.456 Y48.667 I-0.759 J-0.417
N9875 X45.127 Y48.443 I2.294 J-3.727
N9880 X43.582 Y46.15 I2.52 J-3.366
N9885 X43.809 Y45.855 I0.227 J-0.06
N9890 G1 X51.691
N9895 G3 X51.918 Y46.15 I0. J0.235
N9900 X50.373 Y48.443 I-4.065 J-1.073
N9905 X45.456 Y48.667 I-2.623 J-3.503
N9910 G2 X44.088 Y48.659 I-0.691 J1.123
N9915 G3 X42.752 Y48.361 I-0.511 J-0.853
N9920 X41.77 Y44.438 I4.931 J-3.318
N9925 X42.084 Y44.155 I0.314 J0.032
N9930 G1 X53.416
N9935 G3 X53.73 Y44.438 I0. J0.315
N9940 X52.201 Y49.056 I-5.912 J0.605
N9945 X43.299 I-4.451 J-4.074
N9950 X42.752 Y48.361 I4.384 J-4.013
N9955 G2 X41.476 Y47.786 I-1.101 J0.741
N9960 G3 X40.312 Y47.01 I-0.14 J-1.051
N9965 X40.39 Y42.751 I7.438 J-1.994
N9970 X40.793 Y42.455 I0.403 J0.126
N9975 G1 X54.707
N9980 G3 X55.11 Y42.751 I0. J0.422
N9985 X47.75 Y52.716 I-7.327 J2.288
N9990 X40.312 Y47.01 I0. J-7.701
N9995 G2 X39.262 Y46.037 I-1.298 J0.348
N10000 G3 X38.353 Y44.931 I0.206 J-1.096
N10005 X39.217 Y41.081 I9.397 J0.088
N10010 X39.729 Y40.755 I0.512 J0.238
N10015 G1 X55.771
N10020 G3 X56.283 Y41.081 I0. J0.565
N10025 X47.75 Y54.416 I-8.505 J3.955
N10030 X38.353 Y44.931 I0. J-9.398
N10035 G2 X37.583 Y43.688 I-1.366 J-0.013
N10040 G3 X36.963 Y42.364 I0.506 J-1.044
N10045 X38.392 Y39.05 I10.787 J2.686
N10050 G1 X57.108
N10055 G3 X38.392 Y51.05 I-9.358 J6.
N10060 X36.963 Y42.364 I9.358 J-6.
N10065 X38.852 Y41.377 Z-9.044 I1.383 J0.344 F333.33
N10070 G1 X48.256 Y44.949 Z-9.228
N10075 G3 X47.75 Y47.707 Z-9.3 I-0.506 J1.332
N10080 G1 X47.547 Y47.705 F1000.
N10085 X47.445 Y47.7
N10090 X47.344 Y47.688
N10095 X47.311 Y47.676
N10100 X47.284 Y47.653
N10105 X47.267 Y47.621
N10110 X47.263 Y47.586
N10115 X47.272 Y47.551
N10120 X47.294 Y47.522
N10125 X47.324 Y47.503
N10130 X47.359 Y47.497
N10135 X48.141
N10140 X48.176 Y47.503
N10145 X48.206 Y47.522
N10150 X48.228 Y47.551
N10155 X48.237 Y47.586
N10160 X48.233 Y47.621
N10165 X48.216 Y47.653
N10170 X48.189 Y47.676
N10175 X48.156 Y47.688
N10180 X48.055 Y47.7
N10185 X47.953 Y47.705
N10190 X47.75 Y47.707
N10195 G2 X46.67 Y48.346 I0. J1.232
N10200 G3 X45.456 Y48.667 I-0.759 J-0.417
N10205 X45.127 Y48.443 I2.294 J-3.727
N10210 X43.582 Y46.15 I2.52 J-3.366
N10215 X43.809 Y45.855 I0.227 J-0.06
N10220 G1 X51.691
N10225 G3 X51.918 Y46.15 I0. J0.235
N10230 X50.373 Y48.443 I-4.065 J-1.073
N10235 X45.456 Y48.667 I-2.623 J-3.503
N10240 G2 X44.088 Y48.659 I-0.691 J1.123
N10245 G3 X42.752 Y48.361 I-0.511 J-0.853
N10250 X41.77 Y44.438 I4.931 J-3.318
N10255 X42.084 Y44.155 I0.314 J0.032
N10260 G1 X53.416
N10265 G3 X53.73 Y44.438 I0. J0.315
N10270 X52.201 Y49.056 I-5.912 J0.605
N10275 X43.299 I-4.451 J-4.074
N10280 X42.752 Y48.361 I4.384 J-4.013
N10285 G2 X41.476 Y47.786 I-1.101 J0.741
N10290 G3 X40.312 Y47.01 I-0.14 J-1.051
N10295 X40.39 Y42.751 I7.438 J-1.994
N10300 X40.793 Y42.455 I0.403 J0.126
N10305 G1 X54.707
N10310 G3 X55.11 Y42.751 I0. J0.422
N10315 X47.75 Y52.716 I-7.327 J2.288
N10320 X40.312 Y47.01 I0. J-7.701
N10325 G2 X39.262 Y46.037 I-1.298 J0.348
N10330 G3 X38.353 Y44.931 I0.206 J-1.096
N10335 X39.217 Y41.081 I9.397 J0.088
N10340 X39.729 Y40.755 I0.512 J0.238
N10345 G1 X55.771
N10350 G3 X56.283 Y41.081 I0. J0.565
N10355 X47.75 Y54.416 I-8.505 J3.955
N10360 X38.353 Y44.931 I0. J-9.398
N10365 G2 X37.583 Y43.688 I-1.366 J-0.013
N10370 G3 X36.963 Y42.364 I0.506 J-1.044
N10375 X38.392 Y39.05 I10.787 J2.686
N10380 G1 X57.108
N10385 G3 X38.392 Y51.05 I-9.358 J6.
N10390 X36.963 Y42.364 I9.358 J-6.
N10395 X38.852 Y41.377 Z-9.344 I1.383 J0.344 F333.33
N10400 G1 X48.256 Y44.949 Z-9.528
N10405 G3 X47.75 Y47.707 Z-9.6 I-0.506 J1.332
N10410 G1 X47.547 Y47.705 F1000.
N10415 X47.445 Y47.7
N10420 X47.344 Y47.688
N10425 X47.311 Y47.676
N10430 X47.284 Y47.653
N10435 X47.267 Y47.621
N10440 X47.263 Y47.586
N10445 X47.272 Y47.551
N10450 X47.294 Y47.522
N10455 X47.324 Y47.503
N10460 X47.359 Y47.497
N10465 X48.141
N10470 X48.176 Y47.503
N10475 X48.206 Y47.522
N10480 X48.228 Y47.551
N10485 X48.237 Y47.586
N10490 X48.233 Y47.621
N10495 X48.216 Y47.653
N10500 X48.189 Y47.676
N10505 X48.156 Y47.688
N10510 X48.055 Y47.7
N10515 X47.953 Y47.705
N10520 X47.75 Y47.707
N10525 G2 X46.67 Y48.346 I0. J1.232
N10530 G3 X45.456 Y48.667 I-0.759 J-0.417
N10535 X45.127 Y48.443 I2.294 J-3.727
N10540 X43.582 Y46.15 I2.52 J-3.366
N10545 X43.809 Y45.855 I0.227 J-0.06
N10550 G1 X51.691
N10555 G3 X51.918 Y46.15 I0. J0.235
N10560 X50.373 Y48.443 I-4.065 J-1.073
N10565 X45.456 Y48.667 I-2.623 J-3.503
N10570 G2 X44.088 Y48.659 I-0.691 J1.123
N10575 G3 X42.752 Y48.361 I-0.511 J-0.853
N10580 X41.77 Y44.438 I4.931 J-3.318
N10585 X42.084 Y44.155 I0.314 J0.032
N10590 G1 X53.416
N10595 G3 X53.73 Y44.438 I0. J0.315
N10600 X52.201 Y49.056 I-5.912 J0.605
N10605 X43.299 I-4.451 J-4.074
N10610 X42.752 Y48.361 I4.384 J-4.013
N10615 G2 X41.476 Y47.786 I-1.101 J0.741
N10620 G3 X40.312 Y47.01 I-0.14 J-1.051
N10625 X40.39 Y42.751 I7.438 J-1.994
N10630 X40.793 Y42.455 I0.403 J0.126
N10635 G1 X54.707
N10640 G3 X55.11 Y42.751 I0. J0.422
N10645 X47.75 Y52.716 I-7.327 J2.288
N10650 X40.312 Y47.01 I0. J-7.701
N10655 G2 X39.262 Y46.037 I-1.298 J0.348
N10660 G3 X38.353 Y44.931 I0.206 J-1.096
N10665 X39.217 Y41.081 I9.397 J0.088
N10670 X39.729 Y40.755 I0.512 J0.238
N10675 G1 X55.771
N10680 G3 X56.283 Y41.081 I0. J0.565
N10685 X47.75 Y54.416 I-8.505 J3.955
N10690 X38.353 Y44.931 I0. J-9.398
N10695 G2 X37.583 Y43.688 I-1.366 J-0.013
N10700 G3 X36.963 Y42.364 I0.506 J-1.044
N10705 X38.392 Y39.05 I10.787 J2.686
N10710 G1 X57.108
N10715 G3 X38.392 Y51.05 I-9.358 J6.
N10720 X36.963 Y42.364 I9.358 J-6.
N10725 X38.852 Y41.377 Z-9.644 I1.383 J0.344 F333.33
N10730 G1 X48.256 Y44.949 Z-9.828
N10735 G3 X47.75 Y47.707 Z-9.9 I-0.506 J1.332
N10740 G1 X47.547 Y47.705 F1000.
N10745 X47.445 Y47.7
N10750 X47.344 Y47.688
N10755 X47.311 Y47.676
N10760 X47.284 Y47.653
N10765 X47.267 Y47.621
N10770 X47.263 Y47.586
N10775 X47.272 Y47.551
N10780 X47.294 Y47.522
N10785 X47.324 Y47.503
N10790 X47.359 Y47.497
N10795 X48.141
N10800 X48.176 Y47.503
N10805 X48.206 Y47.522
N10810 X48.228 Y47.551
N10815 X48.237 Y47.586
N10820 X48.233 Y47.621
N10825 X48.216 Y47.653
N10830 X48.189 Y47.676
N10835 X48.156 Y47.688
N10840 X48.055 Y47.7
N10845 X47.953 Y47.705
N10850 X47.75 Y47.707
N10855 G2 X46.67 Y48.346 I0. J1.232
N10860 G3 X45.456 Y48.667 I-0.759 J-0.417
N10865 X45.127 Y48.443 I2.294 J-3.727
N10870 X43.582 Y46.15 I2.52 J-3.366
N10875 X43.809 Y45.855 I0.227 J-0.06
N10880 G1 X51.691
N10885 G3 X51.918 Y46.15 I0. J0.235
N10890 X50.373 Y48.443 I-4.065 J-1.073
N10895 X45.456 Y48.667 I-2.623 J-3.503
N10900 G2 X44.088 Y48.659 I-0.691 J1.123
N10905 G3 X42.752 Y48.361 I-0.511 J-0.853
N10910 X41.77 Y44.438 I4.931 J-3.318
N10915 X42.084 Y44.155 I0.314 J0.032
N10920 G1 X53.416
N10925 G3 X53.73 Y44.438 I0. J0.315
N10930 X52.201 Y49.056 I-5.912 J0.605
N10935 X43.299 I-4.451 J-4.074
N10940 X42.752 Y48.361 I4.384 J-4.013
N10945 G2 X41.476 Y47.786 I-1.101 J0.741
N10950 G3 X40.312 Y47.01 I-0.14 J-1.051
N10955 X40.39 Y42.751 I7.438 J-1.994
N10960 X40.793 Y42.455 I0.403 J0.126
N10965 G1 X54.707
N10970 G3 X55.11 Y42.751 I0. J0.422
N10975 X47.75 Y52.716 I-7.327 J2.288
N10980 X40.312 Y47.01 I0. J-7.701
N10985 G2 X39.262 Y46.037 I-1.298 J0.348
N10990 G3 X38.353 Y44.931 I0.206 J-1.096
N10995 X39.217 Y41.081 I9.397 J0.088
N11000 X39.729 Y40.755 I0.512 J0.238
N11005 G1 X55.771
N11010 G3 X56.283 Y41.081 I0. J0.565
N11015 X47.75 Y54.416 I-8.505 J3.955
N11020 X38.353 Y44.931 I0. J-9.398
N11025 G2 X37.583 Y43.688 I-1.366 J-0.013
N11030 G3 X36.963 Y42.364 I0.506 J-1.044
N11035 X38.392 Y39.05 I10.787 J2.686
N11040 G1 X57.108
N11045 G3 X38.392 Y51.05 I-9.358 J6.
N11050 X36.963 Y42.364 I9.358 J-6.
N11055 X38.852 Y41.377 Z-9.944 I1.383 J0.344 F333.33
N11060 G1 X48.256 Y44.949 Z-10.128
N11065 G3 X47.75 Y47.707 Z-10.2 I-0.506 J1.332
N11070 G1 X47.547 Y47.705 F1000.
N11075 X47.445 Y47.7
N11080 X47.344 Y47.688
N11085 X47.311 Y47.676
N11090 X47.284 Y47.653
N11095 X47.267 Y47.621
N11100 X47.263 Y47.586
N11105 X47.272 Y47.551
N11110 X47.294 Y47.522
N11115 X47.324 Y47.503
N11120 X47.359 Y47.497
N11125 X48.141
N11130 X48.176 Y47.503
N11135 X48.206 Y47.522
N11140 X48.228 Y47.551
N11145 X48.237 Y47.586
N11150 X48.233 Y47.621
N11155 X48.216 Y47.653
N11160 X48.189 Y47.676
N11165 X48.156 Y47.688
N11170 X48.055 Y47.7
N11175 X47.953 Y47.705
N11180 X47.75 Y47.707
N11185 G2 X46.67 Y48.346 I0. J1.232
N11190 G3 X45.456 Y48.667 I-0.759 J-0.417
N11195 X45.127 Y48.443 I2.294 J-3.727
N11200 X43.582 Y46.15 I2.52 J-3.366
N11205 X43.809 Y45.855 I0.227 J-0.06
N11210 G1 X51.691
N11215 G3 X51.918 Y46.15 I0. J0.235
N11220 X50.373 Y48.443 I-4.065 J-1.073
N11225 X45.456 Y48.667 I-2.623 J-3.503
N11230 G2 X44.088 Y48.659 I-0.691 J1.123
N11235 G3 X42.752 Y48.361 I-0.511 J-0.853
N11240 X41.77 Y44.438 I4.931 J-3.318
N11245 X42.084 Y44.155 I0.314 J0.032
N11250 G1 X53.416
N11255 G3 X53.73 Y44.438 I0. J0.315
N11260 X52.201 Y49.056 I-5.912 J0.605
N11265 X43.299 I-4.451 J-4.074
N11270 X42.752 Y48.361 I4.384 J-4.013
N11275 G2 X41.476 Y47.786 I-1.101 J0.741
N11280 G3 X40.312 Y47.01 I-0.14 J-1.051
N11285 X40.39 Y42.751 I7.438 J-1.994
N11290 X40.793 Y42.455 I0.403 J0.126
N11295 G1 X54.707
N11300 G3 X55.11 Y42.751 I0. J0.422
N11305 X47.75 Y52.716 I-7.327 J2.288
N11310 X40.312 Y47.01 I0. J-7.701
N11315 G2 X39.262 Y46.037 I-1.298 J0.348
N11320 G3 X38.353 Y44.931 I0.206 J-1.096
N11325 X39.217 Y41.081 I9.397 J0.088
N11330 X39.729 Y40.755 I0.512 J0.238
N11335 G1 X55.771
N11340 G3 X56.283 Y41.081 I0. J0.565
N11345 X47.75 Y54.416 I-8.505 J3.955
N11350 X38.353 Y44.931 I0. J-9.398
N11355 G2 X37.583 Y43.688 I-1.366 J-0.013
N11360 G3 X36.963 Y42.364 I0.506 J-1.044
N11365 X38.392 Y39.05 I10.787 J2.686
N11370 G1 X57.108
N11375 G3 X38.392 Y51.05 I-9.358 J6.
N11380 X36.963 Y42.364 I9.358 J-6.
N11385 X38.852 Y41.377 Z-10.244 I1.383 J0.344 F333.33
N11390 G1 X48.256 Y44.949 Z-10.428
N11395 G3 X47.75 Y47.707 Z-10.5 I-0.506 J1.332
N11400 G1 X47.547 Y47.705 F1000.
N11405 X47.445 Y47.7
N11410 X47.344 Y47.688
N11415 X47.311 Y47.676
N11420 X47.284 Y47.653
N11425 X47.267 Y47.621
N11430 X47.263 Y47.586
N11435 X47.272 Y47.551
N11440 X47.294 Y47.522
N11445 X47.324 Y47.503
N11450 X47.359 Y47.497
N11455 X48.141
N11460 X48.176 Y47.503
N11465 X48.206 Y47.522
N11470 X48.228 Y47.551
N11475 X48.237 Y47.586
N11480 X48.233 Y47.621
N11485 X48.216 Y47.653
N11490 X48.189 Y47.676
N11495 X48.156 Y47.688
N11500 X48.055 Y47.7
N11505 X47.953 Y47.705
N11510 X47.75 Y47.707
N11515 G2 X46.67 Y48.346 I0. J1.232
N11520 G3 X45.456 Y48.667 I-0.759 J-0.417
N11525 X45.127 Y48.443 I2.294 J-3.727
N11530 X43.582 Y46.15 I2.52 J-3.366
N11535 X43.809 Y45.855 I0.227 J-0.06
N11540 G1 X51.691
N11545 G3 X51.918 Y46.15 I0. J0.235
N11550 X50.373 Y48.443 I-4.065 J-1.073
N11555 X45.456 Y48.667 I-2.623 J-3.503
N11560 G2 X44.088 Y48.659 I-0.691 J1.123
N11565 G3 X42.752 Y48.361 I-0.511 J-0.853
N11570 X41.77 Y44.438 I4.931 J-3.318
N11575 X42.084 Y44.155 I0.314 J0.032
N11580 G1 X53.416
N11585 G3 X53.73 Y44.438 I0. J0.315
N11590 X52.201 Y49.056 I-5.912 J0.605
N11595 X43.299 I-4.451 J-4.074
N11600 X42.752 Y48.361 I4.384 J-4.013
N11605 G2 X41.476 Y47.786 I-1.101 J0.741
N11610 G3 X40.312 Y47.01 I-0.14 J-1.051
N11615 X40.39 Y42.751 I7.438 J-1.994
N11620 X40.793 Y42.455 I0.403 J0.126
N11625 G1 X54.707
N11630 G3 X55.11 Y42.751 I0. J0.422
N11635 X47.75 Y52.716 I-7.327 J2.288
N11640 X40.312 Y47.01 I0. J-7.701
N11645 G2 X39.262 Y46.037 I-1.298 J0.348
N11650 G3 X38.353 Y44.931 I0.206 J-1.096
N11655 X39.217 Y41.081 I9.397 J0.088
N11660 X39.729 Y40.755 I0.512 J0.238
N11665 G1 X55.771
N11670 G3 X56.283 Y41.081 I0. J0.565
N11675 X47.75 Y54.416 I-8.505 J3.955
N11680 X38.353 Y44.931 I0. J-9.398
N11685 G2 X37.583 Y43.688 I-1.366 J-0.013
N11690 G3 X36.963 Y42.364 I0.506 J-1.044
N11695 X38.392 Y39.05 I10.787 J2.686
N11700 G1 X57.108
N11705 G3 X38.392 Y51.05 I-9.358 J6.
N11710 X36.963 Y42.364 I9.358 J-6.
N11715 G1 X36.984 Y42.311 Z-10.489
N11720 X37.014 Y42.262 Z-10.477
N11725 X37.047 Y42.227 Z-10.445
N11730 X37.086 Y42.197 Z-10.412
N11735 X37.144 Y42.168 Z-10.315
N11740 X37.166 Y42.161 Z-10.2
N11745 G0 Z15.
(2D ADAPTIVE6)
N11750 G0 X53.359 Y54.641
N11755 Z15.
N11760 Z5.
N11765 Z-0.4
N11770 G1 Z-0.7 F1000.
N11775 X53.354 Y54.647 Z-0.767
N11780 X53.341 Y54.665 Z-0.83
N11785 X53.319 Y54.693 Z-0.887
N11790 X53.29 Y54.731 Z-0.935
N11795 X53.256 Y54.776 Z-0.97
N11800 X53.217 Y54.826 Z-0.992
N11805 X53.177 Y54.879 Z-1.
N11810 G3 X51.88 Y55.9 I-2.641 J-2.02
N11815 G1 X51.857 Y55.909
N11820 X51.766 Y55.962
N11825 X51.388 Y56.194
N11830 X50.915 Y56.501
N11835 X50.773 Y56.602
N11840 X50.631 Y56.73
N11845 X50.601 Y56.763
N11850 X50.5 Y56.874
N11855 X50.384 Y56.969
N11860 X50.234 Y57.072
N11865 X50.04 Y57.185
N11870 X49.783 Y57.307
N11875 X49.433 Y57.441
N11880 X49.009 Y57.565
N11885 X48.612 Y57.647
N11890 X48.028 Y57.72
N11895 X47.402 Y57.747
N11900 X47.089 Y57.745
N11905 X46.464 Y57.716
N11910 X45.884 Y57.65
N11915 X45.688 Y57.599
N11920 X45.516 Y57.493
N11925 X45.38 Y57.343
N11930 G3 X45.477 Y56.93 Z-0.8 I0.255 J-0.158
N11935 G1 X45.535 Y56.903
N11940 X45.597 Y56.888
N11945 X45.742 Y56.869
N11950 X50.286 Y56.288
N11955 X50.325 Y56.283
N11960 X50.383 Y56.281
N11965 X50.441 Y56.291
N11970 X50.496 Y56.311
N11975 X50.546 Y56.342
N11980 G3 X50.601 Y56.763 Z-1. I-0.183 J0.238
N11985 G1 X50.484 Y56.905
N11990 X50.388 Y57.047
N11995 X50.014 Y57.616
N12000 X49.929 Y57.74
N12005 X49.832 Y57.855
N12010 X49.722 Y57.963
N12015 X49.596 Y58.069
N12020 X49.432 Y58.185
N12025 X49.233 Y58.303
N12030 X49.007 Y58.414
N12035 X48.71 Y58.532
N12040 X48.37 Y58.635
N12045 X47.957 Y58.726
N12050 X47.458 Y58.794
N12055 X46.92 Y58.823
N12060 X46.544 Y58.813
N12065 X46.465 Y58.805
N12070 X46.254 Y58.748
N12075 X46.071 Y58.629
N12080 X45.933 Y58.46
N12085 X45.854 Y58.257
N12090 G3 X46.09 Y57.91 Z-0.803 I0.295 J-0.053
N12095 G1 X46.096 Y57.908 Z-0.8
N12100 X46.365 Y57.853
N12105 X49.637 Y57.186
N12110 X49.694 Y57.174
N12115 X49.747 Y57.168
N12120 X49.801 Y57.172
N12125 X49.853 Y57.185
N12130 X49.903 Y57.207
N12135 G3 X50.014 Y57.616 Z-1. I-0.149 J0.261
N12140 G1 X49.921 Y57.768
N12145 X49.846 Y57.901
N12150 X49.766 Y58.093
N12155 X49.731 Y58.264
N12160 X49.694 Y58.409
N12165 X49.634 Y58.547
N12170 X49.558 Y58.676
N12175 X49.469 Y58.797
N12180 X49.369 Y58.909
N12185 X49.242 Y59.03
N12190 X49.096 Y59.148
N12195 X48.916 Y59.271
N12200 X48.698 Y59.396
N12205 X48.571 Y59.456
N12210 X48.475 Y59.493
N12215 X48.375 Y59.515
N12220 X48.273 Y59.523
N12225 G3 X47.983 Y59.213 Z-0.8 I0.01 J-0.3
N12230 G1 X47.992 Y59.152
N12235 X48.012 Y59.095
N12240 X48.044 Y59.042
N12245 X48.085 Y58.998
N12250 X48.107 Y58.979
N12255 X49.232 Y57.993
N12260 X49.238 Y57.988
N12265 G3 X49.485 Y57.918 I0.198 J0.226
N12270 X49.731 Y58.264 Z-1. I-0.05 J0.296
N12275 G1 X49.689 Y58.47
N12280 X49.662 Y58.612
N12285 X49.577 Y59.117
N12290 X49.571 Y59.153
N12295 X49.567 Y59.181
N12300 X49.535 Y59.328
N12305 X49.465 Y59.43
N12310 X49.362 Y59.499
N12315 X49.241 Y59.523
N12320 G3 X48.948 Y59.4 Z-0.862 I0.016 J-0.446
N12325 G1 X48.901 Y59.344 Z-0.831
N12330 X48.865 Y59.281 Z-0.8
N12335 G3 X49.352 Y58.798 I0.337 J-0.147
N12340 X49.567 Y59.181 Z-1. I-0.149 J0.336
N12345 G1 X49.529 Y59.412
N12350 X49.524 Y59.43
N12355 X49.516 Y59.448
N12360 X49.506 Y59.466
N12365 X49.495 Y59.481
N12370 X49.478 Y59.498
N12375 X49.46 Y59.508
N12380 X49.442 Y59.514
N12385 X49.424 Y59.517
N12390 X49.389 Y59.523
N12395 X46.515
N12400 X46.472
N12405 X46.442
N12410 X46.292 Y59.515
N12415 X46.175 Y59.46
N12420 X46.087 Y59.364
N12425 X46.041 Y59.243
N12430 G3 X46.117 Y58.926 Z-0.858 I0.443 J-0.061
N12435 G1 X46.161 Y58.873 Z-0.829
N12440 X46.214 Y58.83 Z-0.8
N12445 G3 X46.792 Y59.254 I0.215 J0.314
N12450 X46.442 Y59.523 Z-1. I-0.363 J-0.111
N12455 G1 X46.231
N12460 X46.197 Y59.522
N12465 X46.163 Y59.515
N12470 X46.146 Y59.509
N12475 X46.129 Y59.499
N12480 X46.112 Y59.484
N12485 X46.089 Y59.458
N12490 X46.079 Y59.442
N12495 X46.072 Y59.425
N12500 X45.929 Y58.612
N12505 X45.9 Y58.47
N12510 X45.822 Y58.108
N12515 X45.818 Y58.092
N12520 X45.737 Y57.901
N12525 X45.653 Y57.759
N12530 X45.563 Y57.616
N12535 X45.183 Y57.047
N12540 X45.095 Y56.922
N12545 X45.083 Y56.905
N12550 X44.953 Y56.755
N12555 X44.805 Y56.621
N12560 X44.67 Y56.526
N12565 X44.244 Y56.253
N12570 X44.102 Y56.166
N12575 X43.913 Y56.052
N12580 G3 X43.835 Y55.625 I0.164 J-0.251
N12585 G1 X43.876 Y55.591 Z-0.995
N12590 X43.915 Y55.559 Z-0.981
N12595 X43.952 Y55.528 Z-0.958
N12600 X44.006 Y55.517 Z-0.915
N12605 X44.048 Y55.507 Z-0.862
N12610 X44.078 Y55.501 Z-0.799
N12615 X44.091 Z-0.75
N12620 X44.095 Z-0.7
N12625 G0 Z5.
N12630 X53.359 Y54.641
N12635 Z-1.4
N12640 G1 Z-1.7 F1000.
N12645 X53.354 Y54.647 Z-1.767
N12650 X53.341 Y54.665 Z-1.83
N12655 X53.319 Y54.693 Z-1.887
N12660 X53.29 Y54.731 Z-1.935
N12665 X53.256 Y54.776 Z-1.97
N12670 X53.217 Y54.826 Z-1.992
N12675 X53.177 Y54.879 Z-2.
N12680 G3 X51.88 Y55.9 I-2.641 J-2.02
N12685 G1 X51.857 Y55.909
N12690 X51.766 Y55.962
N12695 X51.388 Y56.194
N12700 X50.915 Y56.501
N12705 X50.773 Y56.602
N12710 X50.631 Y56.73
N12715 X50.601 Y56.763
N12720 X50.5 Y56.874
N12725 X50.384 Y56.969
N12730 X50.234 Y57.072
N12735 X50.04 Y57.185
N12740 X49.783 Y57.307
N12745 X49.433 Y57.441
N12750 X49.009 Y57.565
N12755 X48.612 Y57.647
N12760 X48.028 Y57.72
N12765 X47.402 Y57.747
N12770 X47.089 Y57.745
N12775 X46.464 Y57.716
N12780 X45.884 Y57.65
N12785 X45.688 Y57.599
N12790 X45.516 Y57.493
N12795 X45.38 Y57.343
N12800 G3 X45.477 Y56.93 Z-1.8 I0.255 J-0.158
N12805 G1 X45.535 Y56.903
N12810 X45.597 Y56.888
N12815 X45.742 Y56.869
N12820 X50.286 Y56.288
N12825 X50.325 Y56.283
N12830 X50.383 Y56.281
N12835 X50.441 Y56.291
N12840 X50.496 Y56.311
N12845 X50.546 Y56.342
N12850 G3 X50.601 Y56.763 Z-2. I-0.183 J0.238
N12855 G1 X50.484 Y56.905
N12860 X50.388 Y57.047
N12865 X50.014 Y57.616
N12870 X49.929 Y57.74
N12875 X49.832 Y57.855
N12880 X49.722 Y57.963
N12885 X49.596 Y58.069
N12890 X49.432 Y58.185
N12895 X49.233 Y58.303
N12900 X49.007 Y58.414
N12905 X48.71 Y58.532
N12910 X48.37 Y58.635
N12915 X47.957 Y58.726
N12920 X47.458 Y58.794
N12925 X46.92 Y58.823
N12930 X46.544 Y58.813
N12935 X46.465 Y58.805
N12940 X46.254 Y58.748
N12945 X46.071 Y58.629
N12950 X45.933 Y58.46
N12955 X45.854 Y58.257
N12960 G3 X46.09 Y57.91 Z-1.803 I0.295 J-0.053
N12965 G1 X46.096 Y57.908 Z-1.8
N12970 X46.365 Y57.853
N12975 X49.637 Y57.186
N12980 X49.694 Y57.174
N12985 X49.747 Y57.168
N12990 X49.801 Y57.172
N12995 X49.853 Y57.185
N13000 X49.903 Y57.207
N13005 G3 X50.014 Y57.616 Z-2. I-0.149 J0.261
N13010 G1 X49.921 Y57.768
N13015 X49.846 Y57.901
N13020 X49.766 Y58.093
N13025 X49.731 Y58.264
N13030 X49.694 Y58.409
N13035 X49.634 Y58.547
N13040 X49.558 Y58.676
N13045 X49.469 Y58.797
N13050 X49.369 Y58.909
N13055 X49.242 Y59.03
N13060 X49.096 Y59.148
N13065 X48.916 Y59.271
N13070 X48.698 Y59.396
N13075 X48.571 Y59.456
N13080 X48.475 Y59.493
N13085 X48.375 Y59.515
N13090 X48.273 Y59.523
N13095 G3 X47.983 Y59.213 Z-1.8 I0.01 J-0.3
N13100 G1 X47.992 Y59.152
N13105 X48.012 Y59.095
N13110 X48.044 Y59.042
N13115 X48.085 Y58.998
N13120 X48.107 Y58.979
N13125 X49.232 Y57.993
N13130 X49.238 Y57.988
N13135 G3 X49.485 Y57.918 I0.198 J0.226
N13140 X49.731 Y58.264 Z-2. I-0.05 J0.296
N13145 G1 X49.689 Y58.47
N13150 X49.662 Y58.612
N13155 X49.577 Y59.117
N13160 X49.571 Y59.153
N13165 X49.567 Y59.181
N13170 X49.535 Y59.328
N13175 X49.465 Y59.43
N13180 X49.362 Y59.499
N13185 X49.241 Y59.523
N13190 G3 X48.948 Y59.4 Z-1.862 I0.016 J-0.446
N13195 G1 X48.901 Y59.344 Z-1.831
N13200 X48.865 Y59.281 Z-1.8
N13205 G3 X49.352 Y58.798 I0.337 J-0.147
N13210 X49.567 Y59.181 Z-2. I-0.149 J0.336
N13215 G1 X49.529 Y59.412
N13220 X49.524 Y59.43
N13225 X49.516 Y59.448
N13230 X49.506 Y59.466
N13235 X49.495 Y59.481
N13240 X49.478 Y59.498
N13245 X49.46 Y59.508
N13250 X49.442 Y59.514
N13255 X49.424 Y59.517
N13260 X49.389 Y59.523
N13265 X46.515
N13270 X46.472
N13275 X46.442
N13280 X46.292 Y59.515
N13285 X46.175 Y59.46
N13290 X46.087 Y59.364
N13295 X46.041 Y59.243
N13300 G3 X46.117 Y58.926 Z-1.858 I0.443 J-0.061
N13305 G1 X46.161 Y58.873 Z-1.829
N13310 X46.214 Y58.83 Z-1.8
N13315 G3 X46.792 Y59.254 I0.215 J0.314
N13320 X46.442 Y59.523 Z-2. I-0.363 J-0.111
N13325 G1 X46.231
N13330 X46.197 Y59.522
N13335 X46.163 Y59.515
N13340 X46.146 Y59.509
N13345 X46.129 Y59.499
N13350 X46.112 Y59.484
N13355 X46.089 Y59.458
N13360 X46.079 Y59.442
N13365 X46.072 Y59.425
N13370 X45.929 Y58.612
N13375 X45.9 Y58.47
N13380 X45.822 Y58.108
N13385 X45.818 Y58.092
N13390 X45.737 Y57.901
N13395 X45.653 Y57.759
N13400 X45.563 Y57.616
N13405 X45.183 Y57.047
N13410 X45.095 Y56.922
N13415 X45.083 Y56.905
N13420 X44.953 Y56.755
N13425 X44.805 Y56.621
N13430 X44.67 Y56.526
N13435 X44.244 Y56.253
N13440 X44.102 Y56.166
N13445 X43.913 Y56.052
N13450 G3 X43.835 Y55.625 I0.164 J-0.251
N13455 G1 X43.876 Y55.591 Z-1.995
N13460 X43.915 Y55.559 Z-1.981
N13465 X43.952 Y55.528 Z-1.958
N13470 X44.006 Y55.517 Z-1.915
N13475 X44.048 Y55.507 Z-1.862
N13480 X44.078 Y55.501 Z-1.799
N13485 X44.091 Z-1.75
N13490 X44.095 Z-1.7
N13495 G0 Z5.
N13500 X53.359 Y54.641
N13505 Z-2.4
N13510 G1 Z-2.7 F1000.
N13515 X53.354 Y54.647 Z-2.767
N13520 X53.341 Y54.665 Z-2.83
N13525 X53.319 Y54.693 Z-2.887
N13530 X53.29 Y54.731 Z-2.935
N13535 X53.256 Y54.776 Z-2.97
N13540 X53.217 Y54.826 Z-2.992
N13545 X53.177 Y54.879 Z-3.
N13550 G3 X51.88 Y55.9 I-2.641 J-2.02
N13555 G1 X51.857 Y55.909
N13560 X51.766 Y55.962
N13565 X51.388 Y56.194
N13570 X50.915 Y56.501
N13575 X50.773 Y56.602
N13580 X50.631 Y56.73
N13585 X50.601 Y56.763
N13590 X50.5 Y56.874
N13595 X50.384 Y56.969
N13600 X50.234 Y57.072
N13605 X50.04 Y57.185
N13610 X49.783 Y57.307
N13615 X49.433 Y57.441
N13620 X49.009 Y57.565
N13625 X48.612 Y57.647
N13630 X48.028 Y57.72
N13635 X47.402 Y57.747
N13640 X47.089 Y57.745
N13645 X46.464 Y57.716
N13650 X45.884 Y57.65
N13655 X45.688 Y57.599
N13660 X45.516 Y57.493
N13665 X45.38 Y57.343
N13670 G3 X45.477 Y56.93 Z-2.8 I0.255 J-0.158
N13675 G1 X45.535 Y56.903
N13680 X45.597 Y56.888
N13685 X45.742 Y56.869
N13690 X50.286 Y56.288
N13695 X50.325 Y56.283
N13700 X50.383 Y56.281
N13705 X50.441 Y56.291
N13710 X50.496 Y56.311
N13715 X50.546 Y56.342
N13720 G3 X50.601 Y56.763 Z-3. I-0.183 J0.238
N13725 G1 X50.484 Y56.905
N13730 X50.388 Y57.047
N13735 X50.014 Y57.616
N13740 X49.929 Y57.74
N13745 X49.832 Y57.855
N13750 X49.722 Y57.963
N13755 X49.596 Y58.069
N13760 X49.432 Y58.185
N13765 X49.233 Y58.303
N13770 X49.007 Y58.414
N13775 X48.71 Y58.532
N13780 X48.37 Y58.635
N13785 X47.957 Y58.726
N13790 X47.458 Y58.794
N13795 X46.92 Y58.823
N13800 X46.544 Y58.813
N13805 X46.465 Y58.805
N13810 X46.254 Y58.748
N13815 X46.071 Y58.629
N13820 X45.933 Y58.46
N13825 X45.854 Y58.257
N13830 G3 X46.09 Y57.91 Z-2.803 I0.295 J-0.053
N13835 G1 X46.096 Y57.908 Z-2.8
N13840 X46.365 Y57.853
N13845 X49.637 Y57.186
N13850 X49.694 Y57.174
N13855 X49.747 Y57.168
N13860 X49.801 Y57.172
N13865 X49.853 Y57.185
N13870 X49.903 Y57.207
N13875 G3 X50.014 Y57.616 Z-3. I-0.149 J0.261
N13880 G1 X49.921 Y57.768
N13885 X49.846 Y57.901
N13890 X49.766 Y58.093
N13895 X49.731 Y58.264
N13900 X49.694 Y58.409
N13905 X49.634 Y58.547
N13910 X49.558 Y58.676
N13915 X49.469 Y58.797
N13920 X49.369 Y58.909
N13925 X49.242 Y59.03
N13930 X49.096 Y59.148
N13935 X48.916 Y59.271
N13940 X48.698 Y59.396
N13945 X48.571 Y59.456
N13950 X48.475 Y59.493
N13955 X48.375 Y59.515
N13960 X48.273 Y59.523
N13965 G3 X47.983 Y59.213 Z-2.8 I0.01 J-0.3
N13970 G1 X47.992 Y59.152
N13975 X48.012 Y59.095
N13980 X48.044 Y59.042
N13985 X48.085 Y58.998
N13990 X48.107 Y58.979
N13995 X49.232 Y57.993
N14000 X49.238 Y57.988
N14005 G3 X49.485 Y57.918 I0.198 J0.226
N14010 X49.731 Y58.264 Z-3. I-0.05 J0.296
N14015 G1 X49.689 Y58.47
N14020 X49.662 Y58.612
N14025 X49.577 Y59.117
N14030 X49.571 Y59.153
N14035 X49.567 Y59.181
N14040 X49.535 Y59.328
N14045 X49.465 Y59.43
N14050 X49.362 Y59.499
N14055 X49.241 Y59.523
N14060 G3 X48.948 Y59.4 Z-2.862 I0.016 J-0.446
N14065 G1 X48.901 Y59.344 Z-2.831
N14070 X48.865 Y59.281 Z-2.8
N14075 G3 X49.352 Y58.798 I0.337 J-0.147
N14080 X49.567 Y59.181 Z-3. I-0.149 J0.336
N14085 G1 X49.529 Y59.412
N14090 X49.524 Y59.43
N14095 X49.516 Y59.448
N14100 X49.506 Y59.466
N14105 X49.495 Y59.481
N14110 X49.478 Y59.498
N14115 X49.46 Y59.508
N14120 X49.442 Y59.514
N14125 X49.424 Y59.517
N14130 X49.389 Y59.523
N14135 X46.515
N14140 X46.472
N14145 X46.442
N14150 X46.292 Y59.515
N14155 X46.175 Y59.46
N14160 X46.087 Y59.364
N14165 X46.041 Y59.243
N14170 G3 X46.117 Y58.926 Z-2.858 I0.443 J-0.061
N14175 G1 X46.161 Y58.873 Z-2.829
N14180 X46.214 Y58.83 Z-2.8
N14185 G3 X46.792 Y59.254 I0.215 J0.314
N14190 X46.442 Y59.523 Z-3. I-0.363 J-0.111
N14195 G1 X46.231
N14200 X46.197 Y59.522
N14205 X46.163 Y59.515
N14210 X46.146 Y59.509
N14215 X46.129 Y59.499
N14220 X46.112 Y59.484
N14225 X46.089 Y59.458
N14230 X46.079 Y59.442
N14235 X46.072 Y59.425
N14240 X45.929 Y58.612
N14245 X45.9 Y58.47
N14250 X45.822 Y58.108
N14255 X45.818 Y58.092
N14260 X45.737 Y57.901
N14265 X45.653 Y57.759
N14270 X45.563 Y57.616
N14275 X45.183 Y57.047
N14280 X45.095 Y56.922
N14285 X45.083 Y56.905
N14290 X44.953 Y56.755
N14295 X44.805 Y56.621
N14300 X44.67 Y56.526
N14305 X44.244 Y56.253
N14310 X44.102 Y56.166
N14315 X43.913 Y56.052
N14320 G3 X43.835 Y55.625 I0.164 J-0.251
N14325 G1 X43.876 Y55.591 Z-2.995
N14330 X43.915 Y55.559 Z-2.981
N14335 X43.952 Y55.528 Z-2.958
N14340 X44.006 Y55.517 Z-2.915
N14345 X44.048 Y55.507 Z-2.862
N14350 X44.078 Y55.501 Z-2.799
N14355 X44.091 Z-2.75
N14360 X44.095 Z-2.7
N14365 G0 Z5.
N14370 X53.359 Y54.641
N14375 Z-3.4
N14380 G1 Z-3.7 F1000.
N14385 X53.354 Y54.647 Z-3.767
N14390 X53.341 Y54.665 Z-3.83
N14395 X53.319 Y54.693 Z-3.887
N14400 X53.29 Y54.731 Z-3.935
N14405 X53.256 Y54.776 Z-3.97
N14410 X53.217 Y54.826 Z-3.992
N14415 X53.177 Y54.879 Z-4.
N14420 G3 X51.88 Y55.9 I-2.641 J-2.02
N14425 G1 X51.857 Y55.909
N14430 X51.766 Y55.962
N14435 X51.388 Y56.194
N14440 X50.915 Y56.501
N14445 X50.773 Y56.602
N14450 X50.631 Y56.73
N14455 X50.601 Y56.763
N14460 X50.5 Y56.874
N14465 X50.384 Y56.969
N14470 X50.234 Y57.072
N14475 X50.04 Y57.185
N14480 X49.783 Y57.307
N14485 X49.433 Y57.441
N14490 X49.009 Y57.565
N14495 X48.612 Y57.647
N14500 X48.028 Y57.72
N14505 X47.402 Y57.747
N14510 X47.089 Y57.745
N14515 X46.464 Y57.716
N14520 X45.884 Y57.65
N14525 X45.688 Y57.599
N14530 X45.516 Y57.493
N14535 X45.38 Y57.343
N14540 G3 X45.477 Y56.93 Z-3.8 I0.255 J-0.158
N14545 G1 X45.535 Y56.903
N14550 X45.597 Y56.888
N14555 X45.742 Y56.869
N14560 X50.286 Y56.288
N14565 X50.325 Y56.283
N14570 X50.383 Y56.281
N14575 X50.441 Y56.291
N14580 X50.496 Y56.311
N14585 X50.546 Y56.342
N14590 G3 X50.601 Y56.763 Z-4. I-0.183 J0.238
N14595 G1 X50.484 Y56.905
N14600 X50.388 Y57.047
N14605 X50.014 Y57.616
N14610 X49.929 Y57.74
N14615 X49.832 Y57.855
N14620 X49.722 Y57.963
N14625 X49.596 Y58.069
N14630 X49.432 Y58.185
N14635 X49.233 Y58.303
N14640 X49.007 Y58.414
N14645 X48.71 Y58.532
N14650 X48.37 Y58.635
N14655 X47.957 Y58.726
N14660 X47.458 Y58.794
N14665 X46.92 Y58.823
N14670 X46.544 Y58.813
N14675 X46.465 Y58.805
N14680 X46.254 Y58.748
N14685 X46.071 Y58.629
N14690 X45.933 Y58.46
N14695 X45.854 Y58.257
N14700 G3 X46.09 Y57.91 Z-3.803 I0.295 J-0.053
N14705 G1 X46.096 Y57.908 Z-3.8
N14710 X46.365 Y57.853
N14715 X49.637 Y57.186
N14720 X49.694 Y57.174
N14725 X49.747 Y57.168
N14730 X49.801 Y57.172
N14735 X49.853 Y57.185
N14740 X49.903 Y57.207
N14745 G3 X50.014 Y57.616 Z-4. I-0.149 J0.261
N14750 G1 X49.921 Y57.768
N14755 X49.846 Y57.901
N14760 X49.766 Y58.093
N14765 X49.731 Y58.264
N14770 X49.694 Y58.409
N14775 X49.634 Y58.547
N14780 X49.558 Y58.676
N14785 X49.469 Y58.797
N14790 X49.369 Y58.909
N14795 X49.242 Y59.03
N14800 X49.096 Y59.148
N14805 X48.916 Y59.271
N14810 X48.698 Y59.396
N14815 X48.571 Y59.456
N14820 X48.475 Y59.493
N14825 X48.375 Y59.515
N14830 X48.273 Y59.523
N14835 G3 X47.983 Y59.213 Z-3.8 I0.01 J-0.3
N14840 G1 X47.992 Y59.152
N14845 X48.012 Y59.095
N14850 X48.044 Y59.042
N14855 X48.085 Y58.998
N14860 X48.107 Y58.979
N14865 X49.232 Y57.993
N14870 X49.238 Y57.988
N14875 G3 X49.485 Y57.918 I0.198 J0.226
N14880 X49.731 Y58.264 Z-4. I-0.05 J0.296
N14885 G1 X49.689 Y58.47
N14890 X49.662 Y58.612
N14895 X49.577 Y59.117
N14900 X49.571 Y59.153
N14905 X49.567 Y59.181
N14910 X49.535 Y59.328
N14915 X49.465 Y59.43
N14920 X49.362 Y59.499
N14925 X49.241 Y59.523
N14930 G3 X48.948 Y59.4 Z-3.862 I0.016 J-0.446
N14935 G1 X48.901 Y59.344 Z-3.831
N14940 X48.865 Y59.281 Z-3.8
N14945 G3 X49.352 Y58.798 I0.337 J-0.147
N14950 X49.567 Y59.181 Z-4. I-0.149 J0.336
N14955 G1 X49.529 Y59.412
N14960 X49.524 Y59.43
N14965 X49.516 Y59.448
N14970 X49.506 Y59.466
N14975 X49.495 Y59.481
N14980 X49.478 Y59.498
N14985 X49.46 Y59.508
N14990 X49.442 Y59.514
N14995 X49.424 Y59.517
N15000 X49.389 Y59.523
N15005 X46.515
N15010 X46.472
N15015 X46.442
N15020 X46.292 Y59.515
N15025 X46.175 Y59.46
N15030 X46.087 Y59.364
N15035 X46.041 Y59.243
N15040 G3 X46.117 Y58.926 Z-3.858 I0.443 J-0.061
N15045 G1 X46.161 Y58.873 Z-3.829
N15050 X46.214 Y58.83 Z-3.8
N15055 G3 X46.792 Y59.254 I0.215 J0.314
N15060 X46.442 Y59.523 Z-4. I-0.363 J-0.111
N15065 G1 X46.231
N15070 X46.197 Y59.522
N15075 X46.163 Y59.515
N15080 X46.146 Y59.509
N15085 X46.129 Y59.499
N15090 X46.112 Y59.484
N15095 X46.089 Y59.458
N15100 X46.079 Y59.442
N15105 X46.072 Y59.425
N15110 X45.929 Y58.612
N15115 X45.9 Y58.47
N15120 X45.822 Y58.108
N15125 X45.818 Y58.092
N15130 X45.737 Y57.901
N15135 X45.653 Y57.759
N15140 X45.563 Y57.616
N15145 X45.183 Y57.047
N15150 X45.095 Y56.922
N15155 X45.083 Y56.905
N15160 X44.953 Y56.755
N15165 X44.805 Y56.621
N15170 X44.67 Y56.526
N15175 X44.244 Y56.253
N15180 X44.102 Y56.166
N15185 X43.913 Y56.052
N15190 G3 X43.835 Y55.625 I0.164 J-0.251
N15195 G1 X43.876 Y55.591 Z-3.995
N15200 X43.915 Y55.559 Z-3.981
N15205 X43.952 Y55.528 Z-3.958
N15210 X44.006 Y55.517 Z-3.915
N15215 X44.048 Y55.507 Z-3.862
N15220 X44.078 Y55.501 Z-3.799
N15225 X44.091 Z-3.75
N15230 X44.095 Z-3.7
N15235 G0 Z5.
N15240 X53.359 Y54.641
N15245 Z-4.4
N15250 G1 Z-4.7 F1000.
N15255 X53.354 Y54.647 Z-4.767
N15260 X53.341 Y54.665 Z-4.83
N15265 X53.319 Y54.693 Z-4.887
N15270 X53.29 Y54.731 Z-4.935
N15275 X53.256 Y54.776 Z-4.97
N15280 X53.217 Y54.826 Z-4.992
N15285 X53.177 Y54.879 Z-5.
N15290 G3 X51.88 Y55.9 I-2.641 J-2.02
N15295 G1 X51.857 Y55.909
N15300 X51.766 Y55.962
N15305 X51.388 Y56.194
N15310 X50.915 Y56.501
N15315 X50.773 Y56.602
N15320 X50.631 Y56.73
N15325 X50.601 Y56.763
N15330 X50.5 Y56.874
N15335 X50.384 Y56.969
N15340 X50.234 Y57.072
N15345 X50.04 Y57.185
N15350 X49.783 Y57.307
N15355 X49.433 Y57.441
N15360 X49.009 Y57.565
N15365 X48.612 Y57.647
N15370 X48.028 Y57.72
N15375 X47.402 Y57.747
N15380 X47.089 Y57.745
N15385 X46.464 Y57.716
N15390 X45.884 Y57.65
N15395 X45.688 Y57.599
N15400 X45.516 Y57.493
N15405 X45.38 Y57.343
N15410 G3 X45.477 Y56.93 Z-4.8 I0.255 J-0.158
N15415 G1 X45.535 Y56.903
N15420 X45.597 Y56.888
N15425 X45.742 Y56.869
N15430 X50.286 Y56.288
N15435 X50.325 Y56.283
N15440 X50.383 Y56.281
N15445 X50.441 Y56.291
N15450 X50.496 Y56.311
N15455 X50.546 Y56.342
N15460 G3 X50.601 Y56.763 Z-5. I-0.183 J0.238
N15465 G1 X50.484 Y56.905
N15470 X50.388 Y57.047
N15475 X50.014 Y57.616
N15480 X49.929 Y57.74
N15485 X49.832 Y57.855
N15490 X49.722 Y57.963
N15495 X49.596 Y58.069
N15500 X49.432 Y58.185
N15505 X49.233 Y58.303
N15510 X49.007 Y58.414
N15515 X48.71 Y58.532
N15520 X48.37 Y58.635
N15525 X47.957 Y58.726
N15530 X47.458 Y58.794
N15535 X46.92 Y58.823
N15540 X46.544 Y58.813
N15545 X46.465 Y58.805
N15550 X46.254 Y58.748
N15555 X46.071 Y58.629
N15560 X45.933 Y58.46
N15565 X45.854 Y58.257
N15570 G3 X46.09 Y57.91 Z-4.803 I0.295 J-0.053
N15575 G1 X46.096 Y57.908 Z-4.8
N15580 X46.365 Y57.853
N15585 X49.637 Y57.186
N15590 X49.694 Y57.174
N15595 X49.747 Y57.168
N15600 X49.801 Y57.172
N15605 X49.853 Y57.185
N15610 X49.903 Y57.207
N15615 G3 X50.014 Y57.616 Z-5. I-0.149 J0.261
N15620 G1 X49.921 Y57.768
N15625 X49.846 Y57.901
N15630 X49.766 Y58.093
N15635 X49.731 Y58.264
N15640 X49.694 Y58.409
N15645 X49.634 Y58.547
N15650 X49.558 Y58.676
N15655 X49.469 Y58.797
N15660 X49.369 Y58.909
N15665 X49.242 Y59.03
N15670 X49.096 Y59.148
N15675 X48.916 Y59.271
N15680 X48.698 Y59.396
N15685 X48.571 Y59.456
N15690 X48.475 Y59.493
N15695 X48.375 Y59.515
N15700 X48.273 Y59.523
N15705 G3 X47.983 Y59.213 Z-4.8 I0.01 J-0.3
N15710 G1 X47.992 Y59.152
N15715 X48.012 Y59.095
N15720 X48.044 Y59.042
N15725 X48.085 Y58.998
N15730 X48.107 Y58.979
N15735 X49.232 Y57.993
N15740 X49.238 Y57.988
N15745 G3 X49.485 Y57.918 I0.198 J0.226
N15750 X49.731 Y58.264 Z-5. I-0.05 J0.296
N15755 G1 X49.689 Y58.47
N15760 X49.662 Y58.612
N15765 X49.577 Y59.117
N15770 X49.571 Y59.153
N15775 X49.567 Y59.181
N15780 X49.535 Y59.328
N15785 X49.465 Y59.43
N15790 X49.362 Y59.499
N15795 X49.241 Y59.523
N15800 G3 X48.948 Y59.4 Z-4.862 I0.016 J-0.446
N15805 G1 X48.901 Y59.344 Z-4.831
N15810 X48.865 Y59.281 Z-4.8
N15815 G3 X49.352 Y58.798 I0.337 J-0.147
N15820 X49.567 Y59.181 Z-5. I-0.149 J0.336
N15825 G1 X49.529 Y59.412
N15830 X49.524 Y59.43
N15835 X49.516 Y59.448
N15840 X49.506 Y59.466
N15845 X49.495 Y59.481
N15850 X49.478 Y59.498
N15855 X49.46 Y59.508
N15860 X49.442 Y59.514
N15865 X49.424 Y59.517
N15870 X49.389 Y59.523
N15875 X46.515
N15880 X46.472
N15885 X46.442
N15890 X46.292 Y59.515
N15895 X46.175 Y59.46
N15900 X46.087 Y59.364
N15905 X46.041 Y59.243
N15910 G3 X46.117 Y58.926 Z-4.858 I0.443 J-0.061
N15915 G1 X46.161 Y58.873 Z-4.829
N15920 X46.214 Y58.83 Z-4.8
N15925 G3 X46.792 Y59.254 I0.215 J0.314
N15930 X46.442 Y59.523 Z-5. I-0.363 J-0.111
N15935 G1 X46.231
N15940 X46.197 Y59.522
N15945 X46.163 Y59.515
N15950 X46.146 Y59.509
N15955 X46.129 Y59.499
N15960 X46.112 Y59.484
N15965 X46.089 Y59.458
N15970 X46.079 Y59.442
N15975 X46.072 Y59.425
N15980 X45.929 Y58.612
N15985 X45.9 Y58.47
N15990 X45.822 Y58.108
N15995 X45.818 Y58.092
N16000 X45.737 Y57.901
N16005 X45.653 Y57.759
N16010 X45.563 Y57.616
N16015 X45.183 Y57.047
N16020 X45.095 Y56.922
N16025 X45.083 Y56.905
N16030 X44.953 Y56.755
N16035 X44.805 Y56.621
N16040 X44.67 Y56.526
N16045 X44.244 Y56.253
N16050 X44.102 Y56.166
N16055 X43.913 Y56.052
N16060 G3 X43.835 Y55.625 I0.164 J-0.251
N16065 G1 X43.876 Y55.591 Z-4.995
N16070 X43.915 Y55.559 Z-4.981
N16075 X43.952 Y55.528 Z-4.958
N16080 X44.006 Y55.517 Z-4.915
N16085 X44.048 Y55.507 Z-4.862
N16090 X44.078 Y55.501 Z-4.799
N16095 X44.091 Z-4.75
N16100 X44.095 Z-4.7
N16105 G0 Z5.
N16110 X53.359 Y54.641
N16115 Z-5.4
N16120 G1 Z-5.7 F1000.
N16125 X53.354 Y54.647 Z-5.767
N16130 X53.341 Y54.665 Z-5.83
N16135 X53.319 Y54.693 Z-5.887
N16140 X53.29 Y54.731 Z-5.935
N16145 X53.256 Y54.776 Z-5.97
N16150 X53.217 Y54.826 Z-5.992
N16155 X53.177 Y54.879 Z-6.
N16160 G3 X51.88 Y55.9 I-2.641 J-2.02
N16165 G1 X51.857 Y55.909
N16170 X51.766 Y55.962
N16175 X51.388 Y56.194
N16180 X50.915 Y56.501
N16185 X50.773 Y56.602
N16190 X50.631 Y56.73
N16195 X50.601 Y56.763
N16200 X50.5 Y56.874
N16205 X50.384 Y56.969
N16210 X50.234 Y57.072
N16215 X50.04 Y57.185
N16220 X49.783 Y57.307
N16225 X49.433 Y57.441
N16230 X49.009 Y57.565
N16235 X48.612 Y57.647
N16240 X48.028 Y57.72
N16245 X47.402 Y57.747
N16250 X47.089 Y57.745
N16255 X46.464 Y57.716
N16260 X45.884 Y57.65
N16265 X45.688 Y57.599
N16270 X45.516 Y57.493
N16275 X45.38 Y57.343
N16280 G3 X45.477 Y56.93 Z-5.8 I0.255 J-0.158
N16285 G1 X45.535 Y56.903
N16290 X45.597 Y56.888
N16295 X45.742 Y56.869
N16300 X50.286 Y56.288
N16305 X50.325 Y56.283
N16310 X50.383 Y56.281
N16315 X50.441 Y56.291
N16320 X50.496 Y56.311
N16325 X50.546 Y56.342
N16330 G3 X50.601 Y56.763 Z-6. I-0.183 J0.238
N16335 G1 X50.484 Y56.905
N16340 X50.388 Y57.047
N16345 X50.014 Y57.616
N16350 X49.929 Y57.74
N16355 X49.832 Y57.855
N16360 X49.722 Y57.963
N16365 X49.596 Y58.069
N16370 X49.432 Y58.185
N16375 X49.233 Y58.303
N16380 X49.007 Y58.414
N16385 X48.71 Y58.532
N16390 X48.37 Y58.635
N16395 X47.957 Y58.726
N16400 X47.458 Y58.794
N16405 X46.92 Y58.823
N16410 X46.544 Y58.813
N16415 X46.465 Y58.805
N16420 X46.254 Y58.748
N16425 X46.071 Y58.629
N16430 X45.933 Y58.46
N16435 X45.854 Y58.257
N16440 G3 X46.09 Y57.91 Z-5.803 I0.295 J-0.053
N16445 G1 X46.096 Y57.908 Z-5.8
N16450 X46.365 Y57.853
N16455 X49.637 Y57.186
N16460 X49.694 Y57.174
N16465 X49.747 Y57.168
N16470 X49.801 Y57.172
N16475 X49.853 Y57.185
N16480 X49.903 Y57.207
N16485 G3 X50.014 Y57.616 Z-6. I-0.149 J0.261
N16490 G1 X49.921 Y57.768
N16495 X49.846 Y57.901
N16500 X49.766 Y58.093
N16505 X49.731 Y58.264
N16510 X49.694 Y58.409
N16515 X49.634 Y58.547
N16520 X49.558 Y58.676
N16525 X49.469 Y58.797
N16530 X49.369 Y58.909
N16535 X49.242 Y59.03
N16540 X49.096 Y59.148
N16545 X48.916 Y59.271
N16550 X48.698 Y59.396
N16555 X48.571 Y59.456
N16560 X48.475 Y59.493
N16565 X48.375 Y59.515
N16570 X48.273 Y59.523
N16575 G3 X47.983 Y59.213 Z-5.8 I0.01 J-0.3
N16580 G1 X47.992 Y59.152
N16585 X48.012 Y59.095
N16590 X48.044 Y59.042
N16595 X48.085 Y58.998
N16600 X48.107 Y58.979
N16605 X49.232 Y57.993
N16610 X49.238 Y57.988
N16615 G3 X49.485 Y57.918 I0.198 J0.226
N16620 X49.731 Y58.264 Z-6. I-0.05 J0.296
N16625 G1 X49.689 Y58.47
N16630 X49.662 Y58.612
N16635 X49.577 Y59.117
N16640 X49.571 Y59.153
N16645 X49.567 Y59.181
N16650 X49.535 Y59.328
N16655 X49.465 Y59.43
N16660 X49.362 Y59.499
N16665 X49.241 Y59.523
N16670 G3 X48.948 Y59.4 Z-5.862 I0.016 J-0.446
N16675 G1 X48.901 Y59.344 Z-5.831
N16680 X48.865 Y59.281 Z-5.8
N16685 G3 X49.352 Y58.798 I0.337 J-0.147
N16690 X49.567 Y59.181 Z-6. I-0.149 J0.336
N16695 G1 X49.529 Y59.412
N16700 X49.524 Y59.43
N16705 X49.516 Y59.448
N16710 X49.506 Y59.466
N16715 X49.495 Y59.481
N16720 X49.478 Y59.498
N16725 X49.46 Y59.508
N16730 X49.442 Y59.514
N16735 X49.424 Y59.517
N16740 X49.389 Y59.523
N16745 X46.515
N16750 X46.472
N16755 X46.442
N16760 X46.292 Y59.515
N16765 X46.175 Y59.46
N16770 X46.087 Y59.364
N16775 X46.041 Y59.243
N16780 G3 X46.117 Y58.926 Z-5.858 I0.443 J-0.061
N16785 G1 X46.161 Y58.873 Z-5.829
N16790 X46.214 Y58.83 Z-5.8
N16795 G3 X46.792 Y59.254 I0.215 J0.314
N16800 X46.442 Y59.523 Z-6. I-0.363 J-0.111
N16805 G1 X46.231
N16810 X46.197 Y59.522
N16815 X46.163 Y59.515
N16820 X46.146 Y59.509
N16825 X46.129 Y59.499
N16830 X46.112 Y59.484
N16835 X46.089 Y59.458
N16840 X46.079 Y59.442
N16845 X46.072 Y59.425
N16850 X45.929 Y58.612
N16855 X45.9 Y58.47
N16860 X45.822 Y58.108
N16865 X45.818 Y58.092
N16870 X45.737 Y57.901
N16875 X45.653 Y57.759
N16880 X45.563 Y57.616
N16885 X45.183 Y57.047
N16890 X45.095 Y56.922
N16895 X45.083 Y56.905
N16900 X44.953 Y56.755
N16905 X44.805 Y56.621
N16910 X44.67 Y56.526
N16915 X44.244 Y56.253
N16920 X44.102 Y56.166
N16925 X43.913 Y56.052
N16930 G3 X43.835 Y55.625 I0.164 J-0.251
N16935 G1 X43.876 Y55.591 Z-5.995
N16940 X43.915 Y55.559 Z-5.981
N16945 X43.952 Y55.528 Z-5.958
N16950 X44.006 Y55.517 Z-5.915
N16955 X44.048 Y55.507 Z-5.862
N16960 X44.078 Y55.501 Z-5.799
N16965 X44.091 Z-5.75
N16970 X44.095 Z-5.7
N16975 G0 Z5.
N16980 X53.359 Y54.641
N16985 Z-6.39
N16990 G1 Z-6.69 F1000.
N16995 X53.354 Y54.647 Z-6.757
N17000 X53.341 Y54.665 Z-6.82
N17005 X53.319 Y54.693 Z-6.877
N17010 X53.29 Y54.731 Z-6.925
N17015 X53.256 Y54.776 Z-6.96
N17020 X53.217 Y54.826 Z-6.982
N17025 X53.177 Y54.879 Z-6.99
N17030 G3 X51.88 Y55.9 I-2.641 J-2.02
N17035 G1 X51.857 Y55.909
N17040 X51.766 Y55.962
N17045 X51.388 Y56.194
N17050 X50.915 Y56.501
N17055 X50.773 Y56.602
N17060 X50.631 Y56.73
N17065 X50.601 Y56.763
N17070 X50.5 Y56.874
N17075 X50.384 Y56.969
N17080 X50.234 Y57.072
N17085 X50.04 Y57.185
N17090 X49.783 Y57.307
N17095 X49.433 Y57.441
N17100 X49.009 Y57.565
N17105 X48.612 Y57.647
N17110 X48.028 Y57.72
N17115 X47.402 Y57.747
N17120 X47.089 Y57.745
N17125 X46.464 Y57.716
N17130 X45.884 Y57.65
N17135 X45.688 Y57.599
N17140 X45.516 Y57.493
N17145 X45.38 Y57.343
N17150 G3 X45.477 Y56.93 Z-6.79 I0.255 J-0.158
N17155 G1 X45.535 Y56.903
N17160 X45.597 Y56.888
N17165 X45.742 Y56.869
N17170 X50.286 Y56.288
N17175 X50.325 Y56.283
N17180 X50.383 Y56.281
N17185 X50.441 Y56.291
N17190 X50.496 Y56.311
N17195 X50.546 Y56.342
N17200 G3 X50.601 Y56.763 Z-6.99 I-0.183 J0.238
N17205 G1 X50.484 Y56.905
N17210 X50.388 Y57.047
N17215 X50.014 Y57.616
N17220 X49.929 Y57.74
N17225 X49.832 Y57.855
N17230 X49.722 Y57.963
N17235 X49.596 Y58.069
N17240 X49.432 Y58.185
N17245 X49.233 Y58.303
N17250 X49.007 Y58.414
N17255 X48.71 Y58.532
N17260 X48.37 Y58.635
N17265 X47.957 Y58.726
N17270 X47.458 Y58.794
N17275 X46.92 Y58.823
N17280 X46.544 Y58.813
N17285 X46.465 Y58.805
N17290 X46.254 Y58.748
N17295 X46.071 Y58.629
N17300 X45.933 Y58.46
N17305 X45.854 Y58.257
N17310 G3 X46.09 Y57.91 Z-6.793 I0.295 J-0.053
N17315 G1 X46.096 Y57.908 Z-6.79
N17320 X46.365 Y57.853
N17325 X49.637 Y57.186
N17330 X49.694 Y57.174
N17335 X49.747 Y57.168
N17340 X49.801 Y57.172
N17345 X49.853 Y57.185
N17350 X49.903 Y57.207
N17355 G3 X50.014 Y57.616 Z-6.99 I-0.149 J0.261
N17360 G1 X49.921 Y57.768
N17365 X49.846 Y57.901
